<?xml version="1.0" encoding="UTF-8"?>
<map version="1.10" tiledversion="1.11.2" orientation="orthogonal" renderorder="right-down" width="40" height="70" tilewidth="16" tileheight="16" infinite="0" nextlayerid="7" nextobjectid="2728">
 <tileset firstgid="1" name="Grass" tilewidth="16" tileheight="16" tilecount="77" columns="11">
  <image source="Grass.png" width="176" height="112"/>
 </tileset>
 <tileset firstgid="78" name="hills" tilewidth="16" tileheight="16" tilecount="99" columns="11">
  <image source="Hills.png" width="176" height="144"/>
  <tile id="0">
   <properties>
    <property name="movement cost " type="int" value="1"/>
    <property name="type" value="plain"/>
    <property name="walkabillity " type="bool" value="true"/>
   </properties>
  </tile>
  <tile id="1">
   <properties>
    <property name="movement cost " type="int" value="1"/>
    <property name="type" value="plain"/>
    <property name="walkabillity " type="bool" value="true"/>
   </properties>
  </tile>
  <tile id="2">
   <properties>
    <property name="movement cost " type="int" value="1"/>
    <property name="type" value="plain"/>
    <property name="walkability " type="bool" value="true"/>
    <property name="walkabillity " type="bool" value="true"/>
   </properties>
  </tile>
  <tile id="3">
   <properties>
    <property name="movement cost " type="int" value="1"/>
    <property name="type" value="plain"/>
    <property name="walkabillity " type="bool" value="true"/>
   </properties>
  </tile>
  <tile id="4">
   <properties>
    <property name="movement cost " type="int" value="1"/>
    <property name="type" value="plain"/>
    <property name="walkabillity " type="bool" value="true"/>
   </properties>
  </tile>
  <tile id="5">
   <properties>
    <property name="movement cost " type="int" value="1"/>
    <property name="type" value="plain"/>
    <property name="walkabillity " type="bool" value="true"/>
   </properties>
  </tile>
  <tile id="6">
   <properties>
    <property name="movement cost " type="int" value="1"/>
    <property name="type" value="plain"/>
    <property name="walkabillity " type="bool" value="true"/>
   </properties>
  </tile>
  <tile id="7">
   <properties>
    <property name="movement cost " type="int" value="1"/>
    <property name="type" value="plain"/>
    <property name="walkabillity " type="bool" value="true"/>
   </properties>
  </tile>
  <tile id="8">
   <properties>
    <property name="movement cost " type="int" value="1"/>
    <property name="type" value="plain"/>
    <property name="walkabillity " type="bool" value="true"/>
   </properties>
  </tile>
  <tile id="9">
   <properties>
    <property name="movement cost " type="int" value="1"/>
    <property name="type" value="plain"/>
    <property name="walkabillity " type="bool" value="true"/>
   </properties>
  </tile>
  <tile id="10">
   <properties>
    <property name="type" value="plain"/>
    <property name="walkabillity " type="bool" value="true"/>
   </properties>
  </tile>
  <tile id="11">
   <properties>
    <property name="movement cost " type="int" value="1"/>
    <property name="type" value="plain"/>
    <property name="walkabillity " type="bool" value="true"/>
   </properties>
  </tile>
  <tile id="12">
   <properties>
    <property name="movement cost " type="int" value="1"/>
    <property name="type" value="plain"/>
    <property name="walkabillity " type="bool" value="true"/>
   </properties>
  </tile>
  <tile id="13">
   <properties>
    <property name="movement cost " type="int" value="1"/>
    <property name="type" value="plain"/>
    <property name="walkabillity " type="bool" value="true"/>
   </properties>
  </tile>
  <tile id="14">
   <properties>
    <property name="movement cost " type="int" value="1"/>
    <property name="type" value="plain"/>
    <property name="walkabillity " type="bool" value="true"/>
   </properties>
  </tile>
  <tile id="15">
   <properties>
    <property name="movement cost " type="int" value="1"/>
    <property name="type" value="plain"/>
    <property name="walkabillity " type="bool" value="true"/>
   </properties>
  </tile>
  <tile id="16">
   <properties>
    <property name="movement cost " type="int" value="1"/>
    <property name="type" value="plain"/>
    <property name="walkabillity " type="bool" value="true"/>
   </properties>
  </tile>
  <tile id="17">
   <properties>
    <property name="movement cost " type="int" value="1"/>
    <property name="type" value="plain"/>
    <property name="walkabillity " type="bool" value="true"/>
   </properties>
  </tile>
  <tile id="18">
   <properties>
    <property name="movement cost " type="int" value="1"/>
    <property name="type" value="plain"/>
    <property name="walkabillity " type="bool" value="true"/>
   </properties>
  </tile>
  <tile id="19">
   <properties>
    <property name="movement cost " type="int" value="1"/>
    <property name="type" value="plain"/>
    <property name="walkabillity " type="bool" value="true"/>
   </properties>
  </tile>
  <tile id="20">
   <properties>
    <property name="movement cost " type="int" value="1"/>
    <property name="type" value="plain"/>
    <property name="walkabillity " type="bool" value="true"/>
   </properties>
  </tile>
  <tile id="21">
   <properties>
    <property name="type" value="plain"/>
    <property name="walkabillity " type="bool" value="true"/>
   </properties>
  </tile>
  <tile id="22">
   <properties>
    <property name="mouvement cost" type="int" value="999"/>
    <property name="type" value="mountain"/>
    <property name="walkabillity " type="bool" value="false"/>
   </properties>
  </tile>
  <tile id="23">
   <properties>
    <property name="mouvement cost" type="int" value="999"/>
    <property name="type" value="mountain"/>
    <property name="walkabillity " type="bool" value="false"/>
   </properties>
  </tile>
  <tile id="24">
   <properties>
    <property name="mouvement cost" type="int" value="999"/>
    <property name="type" value="mountain"/>
    <property name="walkabillity " type="bool" value="false"/>
   </properties>
  </tile>
  <tile id="25">
   <properties>
    <property name="mouvement cost" type="int" value="999"/>
    <property name="type" value="mountain"/>
    <property name="walkabillity " type="bool" value="false"/>
   </properties>
  </tile>
  <tile id="26">
   <properties>
    <property name="movement cost " type="int" value="1"/>
    <property name="type" value="plain"/>
    <property name="walkabillity " type="bool" value="true"/>
   </properties>
  </tile>
  <tile id="27">
   <properties>
    <property name="movement cost " type="int" value="1"/>
    <property name="type" value="plain"/>
    <property name="walkabillity " type="bool" value="true"/>
   </properties>
  </tile>
  <tile id="28">
   <properties>
    <property name="movement cost " type="int" value="1"/>
    <property name="type" value="plain"/>
    <property name="walkabillity " type="bool" value="true"/>
   </properties>
  </tile>
  <tile id="29">
   <properties>
    <property name="movement cost " type="int" value="1"/>
    <property name="type" value="plain"/>
    <property name="walkabillity " type="bool" value="true"/>
   </properties>
  </tile>
  <tile id="30">
   <properties>
    <property name="movement cost " type="int" value="1"/>
    <property name="type" value="plain"/>
    <property name="walkabillity " type="bool" value="true"/>
   </properties>
  </tile>
  <tile id="31">
   <properties>
    <property name="movement cost " type="int" value="1"/>
    <property name="type" value="plain"/>
    <property name="walkabillity " type="bool" value="true"/>
   </properties>
  </tile>
  <tile id="32">
   <properties>
    <property name="movement cost " type="int" value="1"/>
    <property name="type" value="plain"/>
    <property name="walkabillity " type="bool" value="true"/>
   </properties>
  </tile>
  <tile id="33">
   <properties>
    <property name="mouvement cost" type="int" value="999"/>
    <property name="type" value="mountain"/>
    <property name="walkabillity " type="bool" value="false"/>
   </properties>
  </tile>
  <tile id="34">
   <properties>
    <property name="mouvement cost" type="int" value="999"/>
    <property name="type" value="mountain"/>
    <property name="walkabillity " type="bool" value="false"/>
   </properties>
  </tile>
  <tile id="35">
   <properties>
    <property name="mouvement cost" type="int" value="999"/>
    <property name="type" value="mountain"/>
    <property name="walkabillity " type="bool" value="false"/>
   </properties>
  </tile>
  <tile id="36">
   <properties>
    <property name="mouvement cost" type="int" value="999"/>
    <property name="type" value="mountain"/>
    <property name="walkabillity " type="bool" value="false"/>
   </properties>
  </tile>
  <tile id="37">
   <properties>
    <property name="mouvement cost" type="int" value="999"/>
    <property name="type" value="mountain"/>
    <property name="walkabillity " type="bool" value="false"/>
   </properties>
  </tile>
  <tile id="38">
   <properties>
    <property name="mouvement cost" type="int" value="999"/>
    <property name="type" value="mountain"/>
    <property name="walkabillity " type="bool" value="false"/>
   </properties>
  </tile>
  <tile id="39">
   <properties>
    <property name="mouvement cost" type="int" value="999"/>
    <property name="type" value="mountain"/>
    <property name="walkabillity " type="bool" value="false"/>
   </properties>
  </tile>
  <tile id="40">
   <properties>
    <property name="mouvement cost" type="int" value="999"/>
    <property name="type" value="mountain"/>
    <property name="walkabillity " type="bool" value="false"/>
   </properties>
  </tile>
  <tile id="41">
   <properties>
    <property name="mouvement cost" type="int" value="999"/>
    <property name="type" value="mountain"/>
    <property name="walkabillity " type="bool" value="false"/>
   </properties>
  </tile>
  <tile id="42">
   <properties>
    <property name="movement cost " type="int" value="1"/>
    <property name="type" value="plain"/>
    <property name="walkabillity " type="bool" value="true"/>
   </properties>
  </tile>
  <tile id="43">
   <properties>
    <property name="movement cost " type="int" value="1"/>
    <property name="type" value="plain"/>
    <property name="walkabillity " type="bool" value="true"/>
   </properties>
  </tile>
  <tile id="44">
   <properties>
    <property name="walkabillity " type="bool" value="true"/>
   </properties>
  </tile>
  <tile id="45">
   <properties>
    <property name="walkabillity " type="bool" value="true"/>
   </properties>
  </tile>
  <tile id="46">
   <properties>
    <property name="walkabillity " type="bool" value="true"/>
   </properties>
  </tile>
  <tile id="47">
   <properties>
    <property name="walkabillity " type="bool" value="true"/>
   </properties>
  </tile>
  <tile id="48">
   <properties>
    <property name="movement cost " type="int" value="1"/>
    <property name="type" value="plain"/>
    <property name="walkabillity " type="bool" value="true"/>
   </properties>
  </tile>
  <tile id="49">
   <properties>
    <property name="movement cost " type="int" value="1"/>
    <property name="type" value="plain"/>
    <property name="walkabillity " type="bool" value="true"/>
   </properties>
  </tile>
  <tile id="50">
   <properties>
    <property name="movement cost " type="int" value="1"/>
    <property name="type" value="plain"/>
    <property name="walkabillity " type="bool" value="true"/>
   </properties>
  </tile>
  <tile id="51">
   <properties>
    <property name="movement cost " type="int" value="1"/>
    <property name="type" value="plain"/>
    <property name="walkabillity " type="bool" value="true"/>
   </properties>
  </tile>
  <tile id="52">
   <properties>
    <property name="movement cost " type="int" value="1"/>
    <property name="type" value="plain"/>
    <property name="walkabillity " type="bool" value="true"/>
   </properties>
  </tile>
  <tile id="53">
   <properties>
    <property name="movement cost " type="int" value="1"/>
    <property name="type" value="plain"/>
    <property name="walkabillity " type="bool" value="true"/>
   </properties>
  </tile>
  <tile id="54">
   <properties>
    <property name="movement cost " type="int" value="1"/>
    <property name="type" value="plain"/>
    <property name="walkabillity " type="bool" value="true"/>
   </properties>
  </tile>
  <tile id="55">
   <properties>
    <property name="movement cost " type="int" value="1"/>
    <property name="type" value="plain"/>
    <property name="walkabillity " type="bool" value="true"/>
   </properties>
  </tile>
  <tile id="56">
   <properties>
    <property name="movement cost " type="int" value="1"/>
    <property name="type" value="plain"/>
    <property name="walkabillity " type="bool" value="true"/>
   </properties>
  </tile>
  <tile id="57">
   <properties>
    <property name="movement cost " type="int" value="1"/>
    <property name="type" value="plain"/>
    <property name="walkabillity " type="bool" value="true"/>
   </properties>
  </tile>
  <tile id="58">
   <properties>
    <property name="movement cost " type="int" value="1"/>
    <property name="type" value="plain"/>
    <property name="walkabillity " type="bool" value="true"/>
   </properties>
  </tile>
  <tile id="59">
   <properties>
    <property name="movement cost " type="int" value="1"/>
    <property name="type" value="plain"/>
    <property name="walkabillity " type="bool" value="true"/>
   </properties>
  </tile>
  <tile id="60">
   <properties>
    <property name="movement cost " type="int" value="1"/>
    <property name="type" value="plain"/>
    <property name="walkabillity " type="bool" value="true"/>
   </properties>
  </tile>
  <tile id="61">
   <properties>
    <property name="movement cost " type="int" value="1"/>
    <property name="type" value="plain"/>
    <property name="walkabillity " type="bool" value="true"/>
   </properties>
  </tile>
  <tile id="62">
   <properties>
    <property name="movement cost " type="int" value="1"/>
    <property name="type" value="plain"/>
    <property name="walkabillity " type="bool" value="true"/>
   </properties>
  </tile>
  <tile id="63">
   <properties>
    <property name="mouvement cost" type="int" value="999"/>
    <property name="type" value="mountain"/>
    <property name="walkabillity " type="bool" value="false"/>
   </properties>
  </tile>
  <tile id="64">
   <properties>
    <property name="movement cost " type="int" value="1"/>
    <property name="type" value="plain"/>
    <property name="walkabillity " type="bool" value="true"/>
   </properties>
  </tile>
  <tile id="65">
   <properties>
    <property name="movement cost " type="int" value="1"/>
    <property name="type" value="plain"/>
    <property name="walkabillity " type="bool" value="true"/>
   </properties>
  </tile>
  <tile id="66">
   <properties>
    <property name="movement cost " type="int" value="1"/>
    <property name="type" value="plain"/>
    <property name="walkabillity " type="bool" value="true"/>
   </properties>
  </tile>
  <tile id="67">
   <properties>
    <property name="movement cost " type="int" value="1"/>
    <property name="type" value="plain"/>
    <property name="walkabillity " type="bool" value="true"/>
   </properties>
  </tile>
  <tile id="68">
   <properties>
    <property name="movement cost " type="int" value="1"/>
    <property name="type" value="plain"/>
    <property name="walkabillity " type="bool" value="true"/>
   </properties>
  </tile>
  <tile id="69">
   <properties>
    <property name="movement cost " type="int" value="1"/>
    <property name="type" value="plain"/>
    <property name="walkabillity " type="bool" value="true"/>
   </properties>
  </tile>
  <tile id="70">
   <properties>
    <property name="movement cost " type="int" value="1"/>
    <property name="type" value="plain"/>
    <property name="walkabillity " type="bool" value="true"/>
   </properties>
  </tile>
  <tile id="71">
   <properties>
    <property name="movement cost " type="int" value="1"/>
    <property name="type" value="plain"/>
    <property name="walkabillity " type="bool" value="true"/>
   </properties>
  </tile>
  <tile id="72">
   <properties>
    <property name="movement cost " type="int" value="1"/>
    <property name="type" value="plain"/>
    <property name="walkabillity " type="bool" value="true"/>
   </properties>
  </tile>
  <tile id="73">
   <properties>
    <property name="movement cost " type="int" value="1"/>
    <property name="type" value="plain"/>
    <property name="walkabillity " type="bool" value="true"/>
   </properties>
  </tile>
  <tile id="74">
   <properties>
    <property name="mouvement cost" type="int" value="999"/>
    <property name="type" value="mountain"/>
    <property name="walkabillity " type="bool" value="false"/>
   </properties>
  </tile>
  <tile id="75">
   <properties>
    <property name="movement cost " type="int" value="1"/>
    <property name="type" value="plain"/>
    <property name="walkabillity " type="bool" value="true"/>
   </properties>
  </tile>
  <tile id="76">
   <properties>
    <property name="movement cost " type="int" value="1"/>
    <property name="type" value="plain"/>
    <property name="walkabillity " type="bool" value="true"/>
   </properties>
  </tile>
  <tile id="77">
   <properties>
    <property name="type" value="plain"/>
    <property name="walkabillity " type="bool" value="true"/>
   </properties>
  </tile>
  <tile id="78">
   <properties>
    <property name="type" value="plain"/>
    <property name="walkabillity " type="bool" value="true"/>
   </properties>
  </tile>
  <tile id="79">
   <properties>
    <property name="type" value="plain"/>
    <property name="walkabillity " type="bool" value="true"/>
   </properties>
  </tile>
  <tile id="80">
   <properties>
    <property name="movement cost " type="int" value="1"/>
    <property name="type" value="plain"/>
    <property name="walkabillity " type="bool" value="true"/>
   </properties>
  </tile>
  <tile id="81">
   <properties>
    <property name="movement cost " type="int" value="1"/>
    <property name="type" value="plain"/>
    <property name="walkabillity " type="bool" value="true"/>
   </properties>
  </tile>
  <tile id="82">
   <properties>
    <property name="movement cost " type="int" value="1"/>
    <property name="type" value="plain"/>
    <property name="walkabillity " type="bool" value="true"/>
   </properties>
  </tile>
  <tile id="83">
   <properties>
    <property name="walkabillity " type="bool" value="true"/>
   </properties>
  </tile>
  <tile id="84">
   <properties>
    <property name="walkabillity " type="bool" value="true"/>
   </properties>
  </tile>
  <tile id="85">
   <properties>
    <property name="walkabillity " type="bool" value="true"/>
   </properties>
  </tile>
  <tile id="86">
   <properties>
    <property name="walkabillity " type="bool" value="true"/>
   </properties>
  </tile>
  <tile id="87">
   <properties>
    <property name="walkabillity " type="bool" value="true"/>
   </properties>
  </tile>
  <tile id="88">
   <properties>
    <property name="mouvement cost" type="int" value="999"/>
    <property name="type" value="mountain"/>
    <property name="walkabillity " type="bool" value="false"/>
   </properties>
  </tile>
  <tile id="89">
   <properties>
    <property name="mouvement cost" type="int" value="999"/>
    <property name="type" value="mountain"/>
    <property name="walkabillity " type="bool" value="false"/>
   </properties>
  </tile>
  <tile id="90">
   <properties>
    <property name="mouvement cost" type="int" value="999"/>
    <property name="type" value="mountain"/>
    <property name="walkabillity " type="bool" value="false"/>
   </properties>
  </tile>
  <tile id="91">
   <properties>
    <property name="movement cost " type="int" value="1"/>
    <property name="type" value="plain"/>
    <property name="walkabillity " type="bool" value="true"/>
   </properties>
  </tile>
  <tile id="92">
   <properties>
    <property name="movement cost " type="int" value="1"/>
    <property name="type" value="plain"/>
    <property name="walkabillity " type="bool" value="true"/>
   </properties>
  </tile>
  <tile id="93">
   <properties>
    <property name="movement cost " type="int" value="1"/>
    <property name="type" value="plain"/>
    <property name="walkabillity " type="bool" value="true"/>
   </properties>
  </tile>
  <tile id="94">
   <properties>
    <property name="mouvement cost" type="int" value="999"/>
    <property name="type" value="mountain"/>
    <property name="walkabillity " type="bool" value="false"/>
   </properties>
  </tile>
  <tile id="95">
   <properties>
    <property name="mouvement cost" type="int" value="999"/>
    <property name="type" value="mountain"/>
    <property name="walkabillity " type="bool" value="false"/>
   </properties>
  </tile>
  <tile id="96">
   <properties>
    <property name="walkabillity " type="bool" value="true"/>
   </properties>
  </tile>
  <tile id="97">
   <properties>
    <property name="walkabillity " type="bool" value="true"/>
   </properties>
  </tile>
  <tile id="98">
   <properties>
    <property name="walkabillity " type="bool" value="true"/>
   </properties>
  </tile>
 </tileset>
 <tileset firstgid="177" name="Water" tilewidth="16" tileheight="16" tilecount="4" columns="4">
  <image source="Water.png" width="64" height="16"/>
  <tile id="0">
   <properties>
    <property name="movement cost " type="int" value="999"/>
    <property name="type" value="water"/>
    <property name="walkabilitty" type="bool" value="false"/>
   </properties>
  </tile>
  <tile id="1">
   <properties>
    <property name="movement cost " type="int" value="999"/>
    <property name="type" value="water"/>
    <property name="walkabilitty" type="bool" value="false"/>
   </properties>
  </tile>
  <tile id="2">
   <properties>
    <property name="movement cost " type="int" value="999"/>
    <property name="type" value="water"/>
    <property name="walkabilitty" type="bool" value="false"/>
   </properties>
  </tile>
  <tile id="3">
   <properties>
    <property name="movement cost " type="int" value="999"/>
    <property name="type" value="water"/>
    <property name="walkabilitty" type="bool" value="false"/>
   </properties>
  </tile>
 </tileset>
 <tileset firstgid="181" name="Basic_Grass_Biom_things" tilewidth="16" tileheight="16" tilecount="45" columns="9">
  <image source="Basic_Grass_Biom_things.png" width="144" height="80"/>
  <tile id="0">
   <properties>
    <property name="movement cost" type="int" value="999"/>
    <property name="type" value="deco"/>
    <property name="walkability" type="bool" value="false"/>
   </properties>
  </tile>
  <tile id="1">
   <properties>
    <property name="movement cost" type="int" value="999"/>
    <property name="type" value="deco"/>
    <property name="walkability" type="bool" value="false"/>
   </properties>
  </tile>
  <tile id="2">
   <properties>
    <property name="movement cost" type="int" value="999"/>
    <property name="type" value="deco"/>
    <property name="walkability" type="bool" value="false"/>
   </properties>
  </tile>
  <tile id="3">
   <properties>
    <property name="movement cost" type="int" value="999"/>
    <property name="type" value="deco"/>
    <property name="walkability" type="bool" value="false"/>
   </properties>
  </tile>
  <tile id="4">
   <properties>
    <property name="movement cost" type="int" value="999"/>
    <property name="type" value="deco"/>
    <property name="walkability" type="bool" value="false"/>
   </properties>
  </tile>
  <tile id="5">
   <properties>
    <property name="movement cost" type="int" value="999"/>
    <property name="type" value="deco"/>
    <property name="walkability" type="bool" value="false"/>
   </properties>
  </tile>
  <tile id="6">
   <properties>
    <property name="movement cost" type="int" value="999"/>
    <property name="type" value="deco"/>
    <property name="walkability" type="bool" value="false"/>
   </properties>
  </tile>
  <tile id="7">
   <properties>
    <property name="movement cost" type="int" value="999"/>
    <property name="type" value="deco"/>
    <property name="walkability" type="bool" value="false"/>
   </properties>
  </tile>
  <tile id="8">
   <properties>
    <property name="movement cost" type="int" value="999"/>
    <property name="type" value="deco"/>
    <property name="walkability" type="bool" value="false"/>
   </properties>
  </tile>
  <tile id="9">
   <properties>
    <property name="movement cost" type="int" value="999"/>
    <property name="type" value="deco"/>
    <property name="walkability" type="bool" value="false"/>
   </properties>
  </tile>
  <tile id="10">
   <properties>
    <property name="movement cost" type="int" value="999"/>
    <property name="type" value="deco"/>
    <property name="walkability" type="bool" value="false"/>
   </properties>
  </tile>
  <tile id="11">
   <properties>
    <property name="movement cost" type="int" value="999"/>
    <property name="type" value="deco"/>
    <property name="walkability" type="bool" value="false"/>
   </properties>
  </tile>
  <tile id="12">
   <properties>
    <property name="movement cost" type="int" value="999"/>
    <property name="type" value="deco"/>
    <property name="walkability" type="bool" value="false"/>
   </properties>
  </tile>
  <tile id="13">
   <properties>
    <property name="movement cost" type="int" value="999"/>
    <property name="type" value="deco"/>
    <property name="walkability" type="bool" value="false"/>
   </properties>
  </tile>
  <tile id="14">
   <properties>
    <property name="movement cost" type="int" value="999"/>
    <property name="type" value="deco"/>
    <property name="walkability" type="bool" value="false"/>
   </properties>
  </tile>
  <tile id="15">
   <properties>
    <property name="movement cost" type="int" value="999"/>
    <property name="type" value="deco"/>
    <property name="walkability" type="bool" value="false"/>
   </properties>
  </tile>
  <tile id="16">
   <properties>
    <property name="movement cost" type="int" value="999"/>
    <property name="type" value="deco"/>
    <property name="walkability" type="bool" value="false"/>
   </properties>
  </tile>
  <tile id="17">
   <properties>
    <property name="movement cost" type="int" value="999"/>
    <property name="type" value="deco"/>
    <property name="walkability" type="bool" value="false"/>
   </properties>
  </tile>
  <tile id="18">
   <properties>
    <property name="movement cost" type="int" value="999"/>
    <property name="type" value="deco"/>
    <property name="walkability" type="bool" value="false"/>
   </properties>
  </tile>
  <tile id="19">
   <properties>
    <property name="movement cost" type="int" value="999"/>
    <property name="type" value="deco"/>
    <property name="walkability" type="bool" value="false"/>
   </properties>
  </tile>
  <tile id="20">
   <properties>
    <property name="movement cost" type="int" value="999"/>
    <property name="type" value="deco"/>
    <property name="walkability" type="bool" value="false"/>
   </properties>
  </tile>
  <tile id="21">
   <properties>
    <property name="movement cost" type="int" value="999"/>
    <property name="type" value="deco"/>
    <property name="walkability" type="bool" value="false"/>
   </properties>
  </tile>
  <tile id="22">
   <properties>
    <property name="movement cost" type="int" value="999"/>
    <property name="type" value="deco"/>
    <property name="walkability" type="bool" value="false"/>
   </properties>
  </tile>
  <tile id="23">
   <properties>
    <property name="movement cost" type="int" value="999"/>
    <property name="type" value="deco"/>
    <property name="walkability" type="bool" value="false"/>
   </properties>
  </tile>
  <tile id="24">
   <properties>
    <property name="movement cost" type="int" value="999"/>
    <property name="type" value="deco"/>
    <property name="walkability" type="bool" value="false"/>
   </properties>
  </tile>
  <tile id="25">
   <properties>
    <property name="movement cost" type="int" value="999"/>
    <property name="type" value="deco"/>
    <property name="walkability" type="bool" value="false"/>
   </properties>
  </tile>
  <tile id="26">
   <properties>
    <property name="movement cost" type="int" value="999"/>
    <property name="type" value="deco"/>
    <property name="walkability" type="bool" value="false"/>
   </properties>
  </tile>
  <tile id="27">
   <properties>
    <property name="movement cost" type="int" value="999"/>
    <property name="type" value="deco"/>
    <property name="walkability" type="bool" value="false"/>
   </properties>
  </tile>
  <tile id="28">
   <properties>
    <property name="movement cost" type="int" value="999"/>
    <property name="type" value="deco"/>
    <property name="walkability" type="bool" value="false"/>
   </properties>
  </tile>
  <tile id="29">
   <properties>
    <property name="movement cost" type="int" value="999"/>
    <property name="type" value="deco"/>
    <property name="walkability" type="bool" value="false"/>
   </properties>
  </tile>
  <tile id="30">
   <properties>
    <property name="movement cost" type="int" value="999"/>
    <property name="type" value="deco"/>
    <property name="walkability" type="bool" value="false"/>
   </properties>
  </tile>
  <tile id="31">
   <properties>
    <property name="movement cost" type="int" value="999"/>
    <property name="type" value="deco"/>
    <property name="walkability" type="bool" value="false"/>
   </properties>
  </tile>
  <tile id="32">
   <properties>
    <property name="movement cost" type="int" value="999"/>
    <property name="type" value="deco"/>
    <property name="walkability" type="bool" value="false"/>
   </properties>
  </tile>
  <tile id="33">
   <properties>
    <property name="movement cost" type="int" value="999"/>
    <property name="type" value="deco"/>
    <property name="walkability" type="bool" value="false"/>
   </properties>
  </tile>
  <tile id="34">
   <properties>
    <property name="movement cost" type="int" value="999"/>
    <property name="type" value="deco"/>
    <property name="walkability" type="bool" value="false"/>
   </properties>
  </tile>
  <tile id="35">
   <properties>
    <property name="movement cost" type="int" value="999"/>
    <property name="type" value="deco"/>
    <property name="walkability" type="bool" value="false"/>
   </properties>
  </tile>
  <tile id="36">
   <properties>
    <property name="movement cost" type="int" value="999"/>
    <property name="type" value="deco"/>
    <property name="walkability" type="bool" value="false"/>
   </properties>
  </tile>
  <tile id="37">
   <properties>
    <property name="movement cost" type="int" value="999"/>
    <property name="type" value="deco"/>
    <property name="walkability" type="bool" value="false"/>
   </properties>
  </tile>
  <tile id="38">
   <properties>
    <property name="movement cost" type="int" value="999"/>
    <property name="type" value="deco"/>
    <property name="walkability" type="bool" value="false"/>
   </properties>
  </tile>
  <tile id="39">
   <properties>
    <property name="movement cost" type="int" value="999"/>
    <property name="type" value="deco"/>
    <property name="walkability" type="bool" value="false"/>
   </properties>
  </tile>
  <tile id="40">
   <properties>
    <property name="movement cost" type="int" value="999"/>
    <property name="type" value="deco"/>
    <property name="walkability" type="bool" value="false"/>
   </properties>
  </tile>
  <tile id="41">
   <properties>
    <property name="movement cost" type="int" value="999"/>
    <property name="type" value="deco"/>
    <property name="walkability" type="bool" value="false"/>
   </properties>
  </tile>
  <tile id="42">
   <properties>
    <property name="movement cost" type="int" value="999"/>
    <property name="type" value="deco"/>
    <property name="walkability" type="bool" value="false"/>
   </properties>
  </tile>
  <tile id="43">
   <properties>
    <property name="movement cost" type="int" value="999"/>
    <property name="type" value="deco"/>
    <property name="walkability" type="bool" value="false"/>
   </properties>
  </tile>
  <tile id="44">
   <properties>
    <property name="movement cost" type="int" value="999"/>
    <property name="type" value="deco"/>
    <property name="walkability" type="bool" value="false"/>
   </properties>
  </tile>
 </tileset>
 <tileset firstgid="226" name="Tilled_Dirt_v2" tilewidth="16" tileheight="16" tilecount="77" columns="11">
  <image source="Tilled_Dirt_v2.png" width="176" height="112"/>
  <tile id="0">
   <properties>
    <property name="movement cost" type="int" value="1"/>
    <property name="type" value="plain"/>
    <property name="walkability" type="bool" value="true"/>
   </properties>
  </tile>
  <tile id="1">
   <properties>
    <property name="movement cost" type="int" value="1"/>
    <property name="type" value="plain"/>
    <property name="walkability" type="bool" value="true"/>
   </properties>
  </tile>
  <tile id="2">
   <properties>
    <property name="movement cost" type="int" value="1"/>
    <property name="type" value="plain"/>
    <property name="walkability" type="bool" value="true"/>
   </properties>
  </tile>
  <tile id="3">
   <properties>
    <property name="movement cost" type="int" value="1"/>
    <property name="type" value="plain"/>
    <property name="walkability" type="bool" value="true"/>
   </properties>
  </tile>
  <tile id="4">
   <properties>
    <property name="movement cost" type="int" value="1"/>
    <property name="type" value="plain"/>
    <property name="walkability" type="bool" value="true"/>
   </properties>
  </tile>
  <tile id="5">
   <properties>
    <property name="movement cost" type="int" value="1"/>
    <property name="type" value="plain"/>
    <property name="walkability" type="bool" value="true"/>
   </properties>
  </tile>
  <tile id="6">
   <properties>
    <property name="movement cost" type="int" value="1"/>
    <property name="type" value="plain"/>
    <property name="walkability" type="bool" value="true"/>
   </properties>
  </tile>
  <tile id="7">
   <properties>
    <property name="movement cost" type="int" value="1"/>
    <property name="type" value="plain"/>
    <property name="walkability" type="bool" value="true"/>
   </properties>
  </tile>
  <tile id="8">
   <properties>
    <property name="movement cost" type="int" value="1"/>
    <property name="type" value="plain"/>
    <property name="walkability" type="bool" value="true"/>
   </properties>
  </tile>
  <tile id="9">
   <properties>
    <property name="movement cost" type="int" value="1"/>
    <property name="type" value="plain"/>
    <property name="walkability" type="bool" value="true"/>
   </properties>
  </tile>
  <tile id="10">
   <properties>
    <property name="movement cost" type="int" value="1"/>
    <property name="type" value="plain"/>
    <property name="walkability" type="bool" value="true"/>
   </properties>
  </tile>
  <tile id="11">
   <properties>
    <property name="movement cost" type="int" value="1"/>
    <property name="type" value="plain"/>
    <property name="walkability" type="bool" value="true"/>
   </properties>
  </tile>
  <tile id="12">
   <properties>
    <property name="movement cost" type="int" value="1"/>
    <property name="type" value="plain"/>
    <property name="walkability" type="bool" value="true"/>
   </properties>
  </tile>
  <tile id="13">
   <properties>
    <property name="movement cost" type="int" value="1"/>
    <property name="type" value="plain"/>
    <property name="walkability" type="bool" value="true"/>
   </properties>
  </tile>
  <tile id="14">
   <properties>
    <property name="movement cost" type="int" value="1"/>
    <property name="type" value="plain"/>
    <property name="walkability" type="bool" value="true"/>
   </properties>
  </tile>
  <tile id="15">
   <properties>
    <property name="movement cost" type="int" value="1"/>
    <property name="type" value="plain"/>
    <property name="walkability" type="bool" value="true"/>
   </properties>
  </tile>
  <tile id="16">
   <properties>
    <property name="movement cost" type="int" value="1"/>
    <property name="type" value="plain"/>
    <property name="walkability" type="bool" value="true"/>
   </properties>
  </tile>
  <tile id="17">
   <properties>
    <property name="movement cost" type="int" value="1"/>
    <property name="type" value="plain"/>
    <property name="walkability" type="bool" value="true"/>
   </properties>
  </tile>
  <tile id="18">
   <properties>
    <property name="movement cost" type="int" value="1"/>
    <property name="type" value="plain"/>
    <property name="walkability" type="bool" value="true"/>
   </properties>
  </tile>
  <tile id="19">
   <properties>
    <property name="movement cost" type="int" value="1"/>
    <property name="type" value="plain"/>
    <property name="walkability" type="bool" value="true"/>
   </properties>
  </tile>
  <tile id="20">
   <properties>
    <property name="movement cost" type="int" value="1"/>
    <property name="type" value="plain"/>
    <property name="walkability" type="bool" value="true"/>
   </properties>
  </tile>
  <tile id="21">
   <properties>
    <property name="movement cost" type="int" value="1"/>
    <property name="type" value="plain"/>
    <property name="walkability" type="bool" value="true"/>
   </properties>
  </tile>
  <tile id="22">
   <properties>
    <property name="movement cost" type="int" value="1"/>
    <property name="type" value="plain"/>
    <property name="walkability" type="bool" value="true"/>
   </properties>
  </tile>
  <tile id="23">
   <properties>
    <property name="movement cost" type="int" value="1"/>
    <property name="type" value="plain"/>
    <property name="walkability" type="bool" value="true"/>
   </properties>
  </tile>
  <tile id="24">
   <properties>
    <property name="movement cost" type="int" value="1"/>
    <property name="type" value="plain"/>
    <property name="walkability" type="bool" value="true"/>
   </properties>
  </tile>
  <tile id="25">
   <properties>
    <property name="movement cost" type="int" value="1"/>
    <property name="type" value="plain"/>
    <property name="walkability" type="bool" value="true"/>
   </properties>
  </tile>
  <tile id="26">
   <properties>
    <property name="movement cost" type="int" value="1"/>
    <property name="type" value="plain"/>
    <property name="walkability" type="bool" value="true"/>
   </properties>
  </tile>
  <tile id="27">
   <properties>
    <property name="movement cost" type="int" value="1"/>
    <property name="type" value="plain"/>
    <property name="walkability" type="bool" value="true"/>
   </properties>
  </tile>
  <tile id="28">
   <properties>
    <property name="movement cost" type="int" value="1"/>
    <property name="type" value="plain"/>
    <property name="walkability" type="bool" value="true"/>
   </properties>
  </tile>
  <tile id="29">
   <properties>
    <property name="movement cost" type="int" value="1"/>
    <property name="type" value="plain"/>
    <property name="walkability" type="bool" value="true"/>
   </properties>
  </tile>
  <tile id="30">
   <properties>
    <property name="movement cost" type="int" value="1"/>
    <property name="type" value="plain"/>
    <property name="walkability" type="bool" value="true"/>
   </properties>
  </tile>
  <tile id="31">
   <properties>
    <property name="movement cost" type="int" value="1"/>
    <property name="type" value="plain"/>
    <property name="walkability" type="bool" value="true"/>
   </properties>
  </tile>
  <tile id="32">
   <properties>
    <property name="movement cost" type="int" value="1"/>
    <property name="type" value="plain"/>
    <property name="walkability" type="bool" value="true"/>
   </properties>
  </tile>
  <tile id="33">
   <properties>
    <property name="movement cost" type="int" value="1"/>
    <property name="type" value="plain"/>
    <property name="walkability" type="bool" value="true"/>
   </properties>
  </tile>
  <tile id="34">
   <properties>
    <property name="movement cost" type="int" value="1"/>
    <property name="type" value="plain"/>
    <property name="walkability" type="bool" value="true"/>
   </properties>
  </tile>
  <tile id="35">
   <properties>
    <property name="movement cost" type="int" value="1"/>
    <property name="type" value="plain"/>
    <property name="walkability" type="bool" value="true"/>
   </properties>
  </tile>
  <tile id="36">
   <properties>
    <property name="movement cost" type="int" value="1"/>
    <property name="type" value="plain"/>
    <property name="walkability" type="bool" value="true"/>
   </properties>
  </tile>
  <tile id="37">
   <properties>
    <property name="movement cost" type="int" value="1"/>
    <property name="type" value="plain"/>
    <property name="walkability" type="bool" value="true"/>
   </properties>
  </tile>
  <tile id="38">
   <properties>
    <property name="movement cost" type="int" value="1"/>
    <property name="type" value="plain"/>
    <property name="walkability" type="bool" value="true"/>
   </properties>
  </tile>
  <tile id="39">
   <properties>
    <property name="movement cost" type="int" value="1"/>
    <property name="type" value="plain"/>
    <property name="walkability" type="bool" value="true"/>
   </properties>
  </tile>
  <tile id="40">
   <properties>
    <property name="movement cost" type="int" value="1"/>
    <property name="type" value="plain"/>
    <property name="walkability" type="bool" value="true"/>
   </properties>
  </tile>
  <tile id="41">
   <properties>
    <property name="movement cost" type="int" value="1"/>
    <property name="type" value="plain"/>
    <property name="walkability" type="bool" value="true"/>
   </properties>
  </tile>
  <tile id="42">
   <properties>
    <property name="movement cost" type="int" value="1"/>
    <property name="type" value="plain"/>
    <property name="walkability" type="bool" value="true"/>
   </properties>
  </tile>
  <tile id="43">
   <properties>
    <property name="movement cost" type="int" value="1"/>
    <property name="type" value="plain"/>
    <property name="walkability" type="bool" value="true"/>
   </properties>
  </tile>
  <tile id="44">
   <properties>
    <property name="movement cost" type="int" value="1"/>
    <property name="type" value="plain"/>
    <property name="walkability" type="bool" value="true"/>
   </properties>
  </tile>
  <tile id="45">
   <properties>
    <property name="movement cost" type="int" value="1"/>
    <property name="type" value="plain"/>
    <property name="walkability" type="bool" value="true"/>
   </properties>
  </tile>
  <tile id="46">
   <properties>
    <property name="movement cost" type="int" value="1"/>
    <property name="type" value="plain"/>
    <property name="walkability" type="bool" value="true"/>
   </properties>
  </tile>
  <tile id="47">
   <properties>
    <property name="movement cost" type="int" value="1"/>
    <property name="type" value="plain"/>
    <property name="walkability" type="bool" value="true"/>
   </properties>
  </tile>
  <tile id="48">
   <properties>
    <property name="movement cost" type="int" value="1"/>
    <property name="type" value="plain"/>
    <property name="walkability" type="bool" value="true"/>
   </properties>
  </tile>
  <tile id="49">
   <properties>
    <property name="movement cost" type="int" value="1"/>
    <property name="type" value="plain"/>
    <property name="walkability" type="bool" value="true"/>
   </properties>
  </tile>
  <tile id="50">
   <properties>
    <property name="movement cost" type="int" value="1"/>
    <property name="type" value="plain"/>
    <property name="walkability" type="bool" value="true"/>
   </properties>
  </tile>
  <tile id="51">
   <properties>
    <property name="movement cost" type="int" value="1"/>
    <property name="type" value="plain"/>
    <property name="walkability" type="bool" value="true"/>
   </properties>
  </tile>
  <tile id="52">
   <properties>
    <property name="movement cost" type="int" value="1"/>
    <property name="type" value="plain"/>
    <property name="walkability" type="bool" value="true"/>
   </properties>
  </tile>
  <tile id="53">
   <properties>
    <property name="movement cost" type="int" value="1"/>
    <property name="type" value="plain"/>
    <property name="walkability" type="bool" value="true"/>
   </properties>
  </tile>
  <tile id="54">
   <properties>
    <property name="movement cost" type="int" value="1"/>
    <property name="type" value="plain"/>
    <property name="walkability" type="bool" value="true"/>
   </properties>
  </tile>
  <tile id="55">
   <properties>
    <property name="movement cost" type="int" value="1"/>
    <property name="type" value="plain"/>
    <property name="walkability" type="bool" value="true"/>
   </properties>
  </tile>
  <tile id="56">
   <properties>
    <property name="movement cost" type="int" value="1"/>
    <property name="type" value="plain"/>
    <property name="walkability" type="bool" value="true"/>
   </properties>
  </tile>
  <tile id="57">
   <properties>
    <property name="movement cost" type="int" value="1"/>
    <property name="type" value="plain"/>
    <property name="walkability" type="bool" value="true"/>
   </properties>
  </tile>
  <tile id="58">
   <properties>
    <property name="movement cost" type="int" value="1"/>
    <property name="type" value="plain"/>
    <property name="walkability" type="bool" value="true"/>
   </properties>
  </tile>
  <tile id="59">
   <properties>
    <property name="movement cost" type="int" value="1"/>
    <property name="type" value="plain"/>
    <property name="walkability" type="bool" value="true"/>
   </properties>
  </tile>
  <tile id="60">
   <properties>
    <property name="movement cost" type="int" value="1"/>
    <property name="type" value="plain"/>
    <property name="walkability" type="bool" value="true"/>
   </properties>
  </tile>
  <tile id="61">
   <properties>
    <property name="movement cost" type="int" value="1"/>
    <property name="type" value="plain"/>
    <property name="walkability" type="bool" value="true"/>
   </properties>
  </tile>
  <tile id="62">
   <properties>
    <property name="movement cost" type="int" value="1"/>
    <property name="type" value="plain"/>
    <property name="walkability" type="bool" value="true"/>
   </properties>
  </tile>
  <tile id="63">
   <properties>
    <property name="movement cost" type="int" value="1"/>
    <property name="type" value="plain"/>
    <property name="walkability" type="bool" value="true"/>
   </properties>
  </tile>
  <tile id="64">
   <properties>
    <property name="movement cost" type="int" value="1"/>
    <property name="type" value="plain"/>
    <property name="walkability" type="bool" value="true"/>
   </properties>
  </tile>
  <tile id="65">
   <properties>
    <property name="movement cost" type="int" value="1"/>
    <property name="type" value="plain"/>
    <property name="walkability" type="bool" value="true"/>
   </properties>
  </tile>
  <tile id="66">
   <properties>
    <property name="movement cost" type="int" value="1"/>
    <property name="type" value="plain"/>
    <property name="walkability" type="bool" value="true"/>
   </properties>
  </tile>
  <tile id="67">
   <properties>
    <property name="movement cost" type="int" value="1"/>
    <property name="type" value="plain"/>
    <property name="walkability" type="bool" value="true"/>
   </properties>
  </tile>
  <tile id="68">
   <properties>
    <property name="movement cost" type="int" value="1"/>
    <property name="type" value="plain"/>
    <property name="walkability" type="bool" value="true"/>
   </properties>
  </tile>
  <tile id="69">
   <properties>
    <property name="movement cost" type="int" value="1"/>
    <property name="type" value="plain"/>
    <property name="walkability" type="bool" value="true"/>
   </properties>
  </tile>
  <tile id="70">
   <properties>
    <property name="movement cost" type="int" value="1"/>
    <property name="type" value="plain"/>
    <property name="walkability" type="bool" value="true"/>
   </properties>
  </tile>
  <tile id="71">
   <properties>
    <property name="movement cost" type="int" value="1"/>
    <property name="type" value="plain"/>
    <property name="walkability" type="bool" value="true"/>
   </properties>
  </tile>
  <tile id="72">
   <properties>
    <property name="movement cost" type="int" value="1"/>
    <property name="type" value="plain"/>
    <property name="walkability" type="bool" value="true"/>
   </properties>
  </tile>
  <tile id="73">
   <properties>
    <property name="movement cost" type="int" value="1"/>
    <property name="type" value="plain"/>
    <property name="walkability" type="bool" value="true"/>
   </properties>
  </tile>
  <tile id="74">
   <properties>
    <property name="movement cost" type="int" value="1"/>
    <property name="type" value="plain"/>
    <property name="walkability" type="bool" value="true"/>
   </properties>
  </tile>
  <tile id="75">
   <properties>
    <property name="movement cost" type="int" value="1"/>
    <property name="type" value="plain"/>
    <property name="walkability" type="bool" value="true"/>
   </properties>
  </tile>
  <tile id="76">
   <properties>
    <property name="movement cost" type="int" value="1"/>
    <property name="type" value="plain"/>
    <property name="walkability" type="bool" value="true"/>
   </properties>
  </tile>
 </tileset>
 <tileset firstgid="303" name="Wood Bridge" tilewidth="16" tileheight="16" tilecount="15" columns="5">
  <image source="Wood Bridge.png" width="80" height="48"/>
  <tile id="0">
   <properties>
    <property name="movement cost" type="int" value="1"/>
    <property name="type" value="deco"/>
    <property name="walkability" type="bool" value="true"/>
   </properties>
  </tile>
  <tile id="1">
   <properties>
    <property name="movement cost" type="int" value="1"/>
    <property name="type" value="deco"/>
    <property name="walkability" type="bool" value="true"/>
   </properties>
  </tile>
  <tile id="2">
   <properties>
    <property name="movement cost" type="int" value="1"/>
    <property name="type" value="deco"/>
    <property name="walkability" type="bool" value="true"/>
   </properties>
  </tile>
  <tile id="3">
   <properties>
    <property name="movement cost" type="int" value="1"/>
    <property name="type" value="deco"/>
    <property name="walkability" type="bool" value="true"/>
   </properties>
  </tile>
  <tile id="4">
   <properties>
    <property name="movement cost" type="int" value="1"/>
    <property name="type" value="deco"/>
    <property name="walkability" type="bool" value="true"/>
   </properties>
  </tile>
  <tile id="5">
   <properties>
    <property name="movement cost" type="int" value="1"/>
    <property name="type" value="deco"/>
    <property name="walkability" type="bool" value="true"/>
   </properties>
  </tile>
  <tile id="6">
   <properties>
    <property name="movement cost" type="int" value="1"/>
    <property name="type" value="deco"/>
    <property name="walkability" type="bool" value="true"/>
   </properties>
  </tile>
  <tile id="7">
   <properties>
    <property name="movement cost" type="int" value="1"/>
    <property name="type" value="deco"/>
    <property name="walkability" type="bool" value="true"/>
   </properties>
  </tile>
  <tile id="8">
   <properties>
    <property name="movement cost" type="int" value="1"/>
    <property name="type" value="deco"/>
    <property name="walkability" type="bool" value="true"/>
   </properties>
  </tile>
  <tile id="9">
   <properties>
    <property name="movement cost" type="int" value="1"/>
    <property name="type" value="deco"/>
    <property name="walkability" type="bool" value="true"/>
   </properties>
  </tile>
  <tile id="10">
   <properties>
    <property name="movement cost" type="int" value="1"/>
    <property name="type" value="deco"/>
    <property name="walkability" type="bool" value="true"/>
   </properties>
  </tile>
  <tile id="11">
   <properties>
    <property name="movement cost" type="int" value="1"/>
    <property name="type" value="deco"/>
    <property name="walkability" type="bool" value="true"/>
   </properties>
  </tile>
  <tile id="12">
   <properties>
    <property name="movement cost" type="int" value="1"/>
    <property name="type" value="deco"/>
    <property name="walkability" type="bool" value="true"/>
   </properties>
  </tile>
  <tile id="13">
   <properties>
    <property name="movement cost" type="int" value="1"/>
    <property name="type" value="deco"/>
    <property name="walkability" type="bool" value="true"/>
   </properties>
  </tile>
  <tile id="14">
   <properties>
    <property name="movement cost" type="int" value="1"/>
    <property name="type" value="deco"/>
    <property name="walkability" type="bool" value="true"/>
   </properties>
  </tile>
 </tileset>
 <tileset firstgid="318" name="Grass" tilewidth="16" tileheight="16" tilecount="77" columns="11">
  <image source="Grass.png" width="176" height="112"/>
  <tile id="0">
   <properties>
    <property name="movement cost " type="int" value="1"/>
    <property name="type" value="plain"/>
    <property name="walkability" type="bool" value="true"/>
   </properties>
  </tile>
  <tile id="1">
   <properties>
    <property name="movement cost " type="int" value="1"/>
    <property name="type" value="plain"/>
    <property name="walkability" type="bool" value="true"/>
   </properties>
  </tile>
  <tile id="2">
   <properties>
    <property name="movement cost " type="int" value="1"/>
    <property name="type" value="plain"/>
    <property name="walkability" type="bool" value="true"/>
   </properties>
  </tile>
  <tile id="3">
   <properties>
    <property name="movement cost " type="int" value="1"/>
    <property name="type" value="plain"/>
    <property name="walkability" type="bool" value="true"/>
   </properties>
  </tile>
  <tile id="4">
   <properties>
    <property name="movement cost " type="int" value="1"/>
    <property name="type" value="plain"/>
    <property name="walkability" type="bool" value="true"/>
   </properties>
  </tile>
  <tile id="5">
   <properties>
    <property name="movement cost " type="int" value="1"/>
    <property name="type" value="plain"/>
    <property name="walkability" type="bool" value="true"/>
   </properties>
  </tile>
  <tile id="6">
   <properties>
    <property name="movement cost " type="int" value="1"/>
    <property name="type" value="plain"/>
    <property name="walkability" type="bool" value="true"/>
   </properties>
  </tile>
  <tile id="7">
   <properties>
    <property name="movement cost " type="int" value="1"/>
    <property name="type" value="plain"/>
    <property name="walkability" type="bool" value="true"/>
   </properties>
  </tile>
  <tile id="8">
   <properties>
    <property name="movement cost " type="int" value="1"/>
    <property name="type" value="plain"/>
    <property name="walkability" type="bool" value="true"/>
   </properties>
  </tile>
  <tile id="9">
   <properties>
    <property name="movement cost " type="int" value="1"/>
    <property name="type" value="plain"/>
    <property name="walkability" type="bool" value="true"/>
   </properties>
  </tile>
  <tile id="10">
   <properties>
    <property name="movement cost " type="int" value="1"/>
    <property name="type" value="plain"/>
    <property name="walkability" type="bool" value="true"/>
   </properties>
  </tile>
  <tile id="11">
   <properties>
    <property name="movement cost " type="int" value="1"/>
    <property name="type" value="plain"/>
    <property name="walkability" type="bool" value="true"/>
   </properties>
  </tile>
  <tile id="12">
   <properties>
    <property name="movement cost " type="int" value="1"/>
    <property name="type" value="plain"/>
    <property name="walkability" type="bool" value="true"/>
   </properties>
  </tile>
  <tile id="13">
   <properties>
    <property name="movement cost " type="int" value="1"/>
    <property name="type" value="plain"/>
    <property name="walkability" type="bool" value="true"/>
   </properties>
  </tile>
  <tile id="14">
   <properties>
    <property name="movement cost " type="int" value="1"/>
    <property name="type" value="plain"/>
    <property name="walkability" type="bool" value="true"/>
   </properties>
  </tile>
  <tile id="15">
   <properties>
    <property name="movement cost " type="int" value="1"/>
    <property name="type" value="plain"/>
    <property name="walkability" type="bool" value="true"/>
   </properties>
  </tile>
  <tile id="16">
   <properties>
    <property name="movement cost " type="int" value="1"/>
    <property name="type" value="plain"/>
    <property name="walkability" type="bool" value="true"/>
   </properties>
  </tile>
  <tile id="17">
   <properties>
    <property name="movement cost " type="int" value="1"/>
    <property name="type" value="plain"/>
    <property name="walkability" type="bool" value="true"/>
   </properties>
  </tile>
  <tile id="18">
   <properties>
    <property name="movement cost " type="int" value="1"/>
    <property name="type" value="plain"/>
    <property name="walkability" type="bool" value="true"/>
   </properties>
  </tile>
  <tile id="19">
   <properties>
    <property name="movement cost " type="int" value="1"/>
    <property name="type" value="plain"/>
    <property name="walkability" type="bool" value="true"/>
   </properties>
  </tile>
  <tile id="20">
   <properties>
    <property name="movement cost " type="int" value="1"/>
    <property name="type" value="plain"/>
    <property name="walkability" type="bool" value="true"/>
   </properties>
  </tile>
  <tile id="21">
   <properties>
    <property name="movement cost " type="int" value="1"/>
    <property name="type" value="plain"/>
    <property name="walkability" type="bool" value="true"/>
   </properties>
  </tile>
  <tile id="22">
   <properties>
    <property name="movement cost " type="int" value="1"/>
    <property name="type" value="plain"/>
    <property name="walkability" type="bool" value="true"/>
   </properties>
  </tile>
  <tile id="23">
   <properties>
    <property name="movement cost " type="int" value="1"/>
    <property name="type" value="plain"/>
    <property name="walkability" type="bool" value="true"/>
   </properties>
  </tile>
  <tile id="24">
   <properties>
    <property name="movement cost " type="int" value="1"/>
    <property name="type" value="plain"/>
    <property name="walkability" type="bool" value="true"/>
   </properties>
  </tile>
  <tile id="25">
   <properties>
    <property name="movement cost " type="int" value="1"/>
    <property name="type" value="plain"/>
    <property name="walkability" type="bool" value="true"/>
   </properties>
  </tile>
  <tile id="26">
   <properties>
    <property name="movement cost " type="int" value="1"/>
    <property name="type" value="plain"/>
    <property name="walkability" type="bool" value="true"/>
   </properties>
  </tile>
  <tile id="27">
   <properties>
    <property name="movement cost " type="int" value="1"/>
    <property name="type" value="plain"/>
    <property name="walkability" type="bool" value="true"/>
   </properties>
  </tile>
  <tile id="28">
   <properties>
    <property name="movement cost " type="int" value="1"/>
    <property name="type" value="plain"/>
    <property name="walkability" type="bool" value="true"/>
   </properties>
  </tile>
  <tile id="29">
   <properties>
    <property name="movement cost " type="int" value="1"/>
    <property name="type" value="plain"/>
    <property name="walkability" type="bool" value="true"/>
   </properties>
  </tile>
  <tile id="30">
   <properties>
    <property name="movement cost " type="int" value="1"/>
    <property name="type" value="plain"/>
    <property name="walkability" type="bool" value="true"/>
   </properties>
  </tile>
  <tile id="31">
   <properties>
    <property name="movement cost " type="int" value="1"/>
    <property name="type" value="plain"/>
    <property name="walkability" type="bool" value="true"/>
   </properties>
  </tile>
  <tile id="32">
   <properties>
    <property name="movement cost " type="int" value="1"/>
    <property name="type" value="plain"/>
    <property name="walkability" type="bool" value="true"/>
   </properties>
  </tile>
  <tile id="33">
   <properties>
    <property name="movement cost " type="int" value="1"/>
    <property name="type" value="plain"/>
    <property name="walkability" type="bool" value="true"/>
   </properties>
  </tile>
  <tile id="34">
   <properties>
    <property name="movement cost " type="int" value="1"/>
    <property name="type" value="plain"/>
    <property name="walkability" type="bool" value="true"/>
   </properties>
  </tile>
  <tile id="35">
   <properties>
    <property name="movement cost " type="int" value="1"/>
    <property name="type" value="plain"/>
    <property name="walkability" type="bool" value="true"/>
   </properties>
  </tile>
  <tile id="36">
   <properties>
    <property name="movement cost " type="int" value="1"/>
    <property name="type" value="plain"/>
    <property name="walkability" type="bool" value="true"/>
   </properties>
  </tile>
  <tile id="37">
   <properties>
    <property name="movement cost " type="int" value="1"/>
    <property name="type" value="plain"/>
    <property name="walkability" type="bool" value="true"/>
   </properties>
  </tile>
  <tile id="38">
   <properties>
    <property name="movement cost " type="int" value="1"/>
    <property name="type" value="plain"/>
    <property name="walkability" type="bool" value="true"/>
   </properties>
  </tile>
  <tile id="39">
   <properties>
    <property name="movement cost " type="int" value="1"/>
    <property name="type" value="plain"/>
    <property name="walkability" type="bool" value="true"/>
   </properties>
  </tile>
  <tile id="40">
   <properties>
    <property name="movement cost " type="int" value="1"/>
    <property name="type" value="plain"/>
    <property name="walkability" type="bool" value="true"/>
   </properties>
  </tile>
  <tile id="41">
   <properties>
    <property name="movement cost " type="int" value="1"/>
    <property name="type" value="plain"/>
    <property name="walkability" type="bool" value="true"/>
   </properties>
  </tile>
  <tile id="42">
   <properties>
    <property name="movement cost " type="int" value="1"/>
    <property name="type" value="plain"/>
    <property name="walkability" type="bool" value="true"/>
   </properties>
  </tile>
  <tile id="43">
   <properties>
    <property name="movement cost " type="int" value="1"/>
    <property name="type" value="plain"/>
    <property name="walkability" type="bool" value="true"/>
   </properties>
  </tile>
  <tile id="44">
   <properties>
    <property name="movement cost " type="int" value="1"/>
    <property name="type" value="plain"/>
    <property name="walkability" type="bool" value="true"/>
   </properties>
  </tile>
  <tile id="45">
   <properties>
    <property name="movement cost " type="int" value="1"/>
    <property name="type" value="plain"/>
    <property name="walkability" type="bool" value="true"/>
   </properties>
  </tile>
  <tile id="46">
   <properties>
    <property name="movement cost " type="int" value="1"/>
    <property name="type" value="plain"/>
    <property name="walkability" type="bool" value="true"/>
   </properties>
  </tile>
  <tile id="47">
   <properties>
    <property name="movement cost " type="int" value="1"/>
    <property name="type" value="plain"/>
    <property name="walkability" type="bool" value="true"/>
   </properties>
  </tile>
  <tile id="48">
   <properties>
    <property name="movement cost " type="int" value="1"/>
    <property name="type" value="plain"/>
    <property name="walkability" type="bool" value="true"/>
   </properties>
  </tile>
  <tile id="49">
   <properties>
    <property name="movement cost " type="int" value="1"/>
    <property name="type" value="plain"/>
    <property name="walkability" type="bool" value="true"/>
   </properties>
  </tile>
  <tile id="50">
   <properties>
    <property name="movement cost " type="int" value="1"/>
    <property name="type" value="plain"/>
    <property name="walkability" type="bool" value="true"/>
   </properties>
  </tile>
  <tile id="51">
   <properties>
    <property name="movement cost " type="int" value="1"/>
    <property name="type" value="plain"/>
    <property name="walkability" type="bool" value="true"/>
   </properties>
  </tile>
  <tile id="52">
   <properties>
    <property name="movement cost " type="int" value="1"/>
    <property name="type" value="plain"/>
    <property name="walkability" type="bool" value="true"/>
   </properties>
  </tile>
  <tile id="53">
   <properties>
    <property name="movement cost " type="int" value="1"/>
    <property name="type" value="plain"/>
    <property name="walkability" type="bool" value="true"/>
   </properties>
  </tile>
  <tile id="54">
   <properties>
    <property name="movement cost " type="int" value="1"/>
    <property name="type" value="plain"/>
    <property name="walkability" type="bool" value="true"/>
   </properties>
  </tile>
  <tile id="55">
   <properties>
    <property name="movement cost " type="int" value="1"/>
    <property name="type" value="plain"/>
    <property name="walkability" type="bool" value="true"/>
   </properties>
  </tile>
  <tile id="56">
   <properties>
    <property name="movement cost " type="int" value="1"/>
    <property name="type" value="plain"/>
    <property name="walkability" type="bool" value="true"/>
   </properties>
  </tile>
  <tile id="57">
   <properties>
    <property name="movement cost " type="int" value="1"/>
    <property name="type" value="plain"/>
    <property name="walkability" type="bool" value="true"/>
   </properties>
  </tile>
  <tile id="58">
   <properties>
    <property name="movement cost " type="int" value="1"/>
    <property name="type" value="plain"/>
    <property name="walkability" type="bool" value="true"/>
   </properties>
  </tile>
  <tile id="59">
   <properties>
    <property name="movement cost " type="int" value="1"/>
    <property name="type" value="plain"/>
    <property name="walkability" type="bool" value="true"/>
   </properties>
  </tile>
  <tile id="60">
   <properties>
    <property name="movement cost " type="int" value="1"/>
    <property name="type" value="plain"/>
    <property name="walkability" type="bool" value="true"/>
   </properties>
  </tile>
  <tile id="61">
   <properties>
    <property name="movement cost " type="int" value="1"/>
    <property name="type" value="plain"/>
    <property name="walkability" type="bool" value="true"/>
   </properties>
  </tile>
  <tile id="62">
   <properties>
    <property name="movement cost " type="int" value="1"/>
    <property name="type" value="plain"/>
    <property name="walkability" type="bool" value="true"/>
   </properties>
  </tile>
  <tile id="63">
   <properties>
    <property name="movement cost " type="int" value="1"/>
    <property name="type" value="plain"/>
    <property name="walkability" type="bool" value="true"/>
   </properties>
  </tile>
  <tile id="64">
   <properties>
    <property name="movement cost " type="int" value="1"/>
    <property name="type" value="plain"/>
    <property name="walkability" type="bool" value="true"/>
   </properties>
  </tile>
  <tile id="65">
   <properties>
    <property name="movement cost " type="int" value="1"/>
    <property name="type" value="plain"/>
    <property name="walkability" type="bool" value="true"/>
   </properties>
  </tile>
  <tile id="66">
   <properties>
    <property name="movement cost " type="int" value="1"/>
    <property name="type" value="plain"/>
    <property name="walkability" type="bool" value="true"/>
   </properties>
  </tile>
  <tile id="67">
   <properties>
    <property name="movement cost " type="int" value="1"/>
    <property name="type" value="plain"/>
    <property name="walkability" type="bool" value="true"/>
   </properties>
  </tile>
  <tile id="68">
   <properties>
    <property name="movement cost " type="int" value="1"/>
    <property name="type" value="plain"/>
    <property name="walkability" type="bool" value="true"/>
   </properties>
  </tile>
  <tile id="69">
   <properties>
    <property name="movement cost " type="int" value="1"/>
    <property name="type" value="plain"/>
    <property name="walkability" type="bool" value="true"/>
   </properties>
  </tile>
  <tile id="70">
   <properties>
    <property name="movement cost " type="int" value="1"/>
    <property name="type" value="plain"/>
    <property name="walkability" type="bool" value="true"/>
   </properties>
  </tile>
  <tile id="71">
   <properties>
    <property name="movement cost " type="int" value="1"/>
    <property name="type" value="plain"/>
    <property name="walkability" type="bool" value="true"/>
   </properties>
  </tile>
  <tile id="72">
   <properties>
    <property name="movement cost " type="int" value="1"/>
    <property name="type" value="plain"/>
    <property name="walkability" type="bool" value="true"/>
   </properties>
  </tile>
  <tile id="73">
   <properties>
    <property name="movement cost " type="int" value="1"/>
    <property name="type" value="plain"/>
    <property name="walkability" type="bool" value="true"/>
   </properties>
  </tile>
  <tile id="74">
   <properties>
    <property name="movement cost " type="int" value="1"/>
    <property name="type" value="plain"/>
    <property name="walkability" type="bool" value="true"/>
   </properties>
  </tile>
  <tile id="75">
   <properties>
    <property name="movement cost " type="int" value="1"/>
    <property name="type" value="plain"/>
    <property name="walkability" type="bool" value="true"/>
   </properties>
  </tile>
  <tile id="76">
   <properties>
    <property name="movement cost " type="int" value="1"/>
    <property name="type" value="plain"/>
    <property name="walkability" type="bool" value="true"/>
   </properties>
  </tile>
 </tileset>
 <tileset firstgid="395" name="Tilled_Dirt_Wide" tilewidth="16" tileheight="16" tilecount="77" columns="11">
  <image source="Tilled_Dirt_Wide.png" width="176" height="112"/>
  <tile id="0">
   <properties>
    <property name="movement cost" type="int" value="1"/>
    <property name="type" value="plain"/>
    <property name="walkability" type="bool" value="true"/>
   </properties>
  </tile>
  <tile id="1">
   <properties>
    <property name="movement cost" type="int" value="1"/>
    <property name="type" value="plain"/>
    <property name="walkability" type="bool" value="true"/>
   </properties>
  </tile>
  <tile id="2">
   <properties>
    <property name="movement cost" type="int" value="1"/>
    <property name="type" value="plain"/>
    <property name="walkability" type="bool" value="true"/>
   </properties>
  </tile>
  <tile id="3">
   <properties>
    <property name="movement cost" type="int" value="1"/>
    <property name="type" value="plain"/>
    <property name="walkability" type="bool" value="true"/>
   </properties>
  </tile>
  <tile id="4">
   <properties>
    <property name="movement cost" type="int" value="1"/>
    <property name="type" value="plain"/>
    <property name="walkability" type="bool" value="true"/>
   </properties>
  </tile>
  <tile id="5">
   <properties>
    <property name="movement cost" type="int" value="1"/>
    <property name="type" value="plain"/>
    <property name="walkability" type="bool" value="true"/>
   </properties>
  </tile>
  <tile id="6">
   <properties>
    <property name="movement cost" type="int" value="1"/>
    <property name="type" value="plain"/>
    <property name="walkability" type="bool" value="true"/>
   </properties>
  </tile>
  <tile id="7">
   <properties>
    <property name="movement cost" type="int" value="1"/>
    <property name="type" value="plain"/>
    <property name="walkability" type="bool" value="true"/>
   </properties>
  </tile>
  <tile id="8">
   <properties>
    <property name="movement cost" type="int" value="1"/>
    <property name="type" value="plain"/>
    <property name="walkability" type="bool" value="true"/>
   </properties>
  </tile>
  <tile id="9">
   <properties>
    <property name="movement cost" type="int" value="1"/>
    <property name="type" value="plain"/>
    <property name="walkability" type="bool" value="true"/>
   </properties>
  </tile>
  <tile id="10">
   <properties>
    <property name="movement cost" type="int" value="1"/>
    <property name="type" value="plain"/>
    <property name="walkability" type="bool" value="true"/>
   </properties>
  </tile>
  <tile id="11">
   <properties>
    <property name="movement cost" type="int" value="1"/>
    <property name="type" value="plain"/>
    <property name="walkability" type="bool" value="true"/>
   </properties>
  </tile>
  <tile id="12">
   <properties>
    <property name="movement cost" type="int" value="1"/>
    <property name="type" value="plain"/>
    <property name="walkability" type="bool" value="true"/>
   </properties>
  </tile>
  <tile id="13">
   <properties>
    <property name="movement cost" type="int" value="1"/>
    <property name="type" value="plain"/>
    <property name="walkability" type="bool" value="true"/>
   </properties>
  </tile>
  <tile id="14">
   <properties>
    <property name="movement cost" type="int" value="1"/>
    <property name="type" value="plain"/>
    <property name="walkability" type="bool" value="true"/>
   </properties>
  </tile>
  <tile id="15">
   <properties>
    <property name="movement cost" type="int" value="1"/>
    <property name="type" value="plain"/>
    <property name="walkability" type="bool" value="true"/>
   </properties>
  </tile>
  <tile id="16">
   <properties>
    <property name="movement cost" type="int" value="1"/>
    <property name="type" value="plain"/>
    <property name="walkability" type="bool" value="true"/>
   </properties>
  </tile>
  <tile id="17">
   <properties>
    <property name="movement cost" type="int" value="1"/>
    <property name="type" value="plain"/>
    <property name="walkability" type="bool" value="true"/>
   </properties>
  </tile>
  <tile id="18">
   <properties>
    <property name="movement cost" type="int" value="1"/>
    <property name="type" value="plain"/>
    <property name="walkability" type="bool" value="true"/>
   </properties>
  </tile>
  <tile id="19">
   <properties>
    <property name="movement cost" type="int" value="1"/>
    <property name="type" value="plain"/>
    <property name="walkability" type="bool" value="true"/>
   </properties>
  </tile>
  <tile id="20">
   <properties>
    <property name="movement cost" type="int" value="1"/>
    <property name="type" value="plain"/>
    <property name="walkability" type="bool" value="true"/>
   </properties>
  </tile>
  <tile id="21">
   <properties>
    <property name="movement cost" type="int" value="1"/>
    <property name="type" value="plain"/>
    <property name="walkability" type="bool" value="true"/>
   </properties>
  </tile>
  <tile id="22">
   <properties>
    <property name="movement cost" type="int" value="1"/>
    <property name="type" value="plain"/>
    <property name="walkability" type="bool" value="true"/>
   </properties>
  </tile>
  <tile id="23">
   <properties>
    <property name="movement cost" type="int" value="1"/>
    <property name="type" value="plain"/>
    <property name="walkability" type="bool" value="true"/>
   </properties>
  </tile>
  <tile id="24">
   <properties>
    <property name="movement cost" type="int" value="1"/>
    <property name="type" value="plain"/>
    <property name="walkability" type="bool" value="true"/>
   </properties>
  </tile>
  <tile id="25">
   <properties>
    <property name="movement cost" type="int" value="1"/>
    <property name="type" value="plain"/>
    <property name="walkability" type="bool" value="true"/>
   </properties>
  </tile>
  <tile id="26">
   <properties>
    <property name="movement cost" type="int" value="1"/>
    <property name="type" value="plain"/>
    <property name="walkability" type="bool" value="true"/>
   </properties>
  </tile>
  <tile id="27">
   <properties>
    <property name="movement cost" type="int" value="1"/>
    <property name="type" value="plain"/>
    <property name="walkability" type="bool" value="true"/>
   </properties>
  </tile>
  <tile id="28">
   <properties>
    <property name="movement cost" type="int" value="1"/>
    <property name="type" value="plain"/>
    <property name="walkability" type="bool" value="true"/>
   </properties>
  </tile>
  <tile id="29">
   <properties>
    <property name="movement cost" type="int" value="1"/>
    <property name="type" value="plain"/>
    <property name="walkability" type="bool" value="true"/>
   </properties>
  </tile>
  <tile id="30">
   <properties>
    <property name="movement cost" type="int" value="1"/>
    <property name="type" value="plain"/>
    <property name="walkability" type="bool" value="true"/>
   </properties>
  </tile>
  <tile id="31">
   <properties>
    <property name="movement cost" type="int" value="1"/>
    <property name="type" value="plain"/>
    <property name="walkability" type="bool" value="true"/>
   </properties>
  </tile>
  <tile id="32">
   <properties>
    <property name="movement cost" type="int" value="1"/>
    <property name="type" value="plain"/>
    <property name="walkability" type="bool" value="true"/>
   </properties>
  </tile>
  <tile id="33">
   <properties>
    <property name="movement cost" type="int" value="1"/>
    <property name="type" value="plain"/>
    <property name="walkability" type="bool" value="true"/>
   </properties>
  </tile>
  <tile id="34">
   <properties>
    <property name="movement cost" type="int" value="1"/>
    <property name="type" value="plain"/>
    <property name="walkability" type="bool" value="true"/>
   </properties>
  </tile>
  <tile id="35">
   <properties>
    <property name="movement cost" type="int" value="1"/>
    <property name="type" value="plain"/>
    <property name="walkability" type="bool" value="true"/>
   </properties>
  </tile>
  <tile id="36">
   <properties>
    <property name="movement cost" type="int" value="1"/>
    <property name="type" value="plain"/>
    <property name="walkability" type="bool" value="true"/>
   </properties>
  </tile>
  <tile id="37">
   <properties>
    <property name="movement cost" type="int" value="1"/>
    <property name="type" value="plain"/>
    <property name="walkability" type="bool" value="true"/>
   </properties>
  </tile>
  <tile id="38">
   <properties>
    <property name="movement cost" type="int" value="1"/>
    <property name="type" value="plain"/>
    <property name="walkability" type="bool" value="true"/>
   </properties>
  </tile>
  <tile id="39">
   <properties>
    <property name="movement cost" type="int" value="1"/>
    <property name="type" value="plain"/>
    <property name="walkability" type="bool" value="true"/>
   </properties>
  </tile>
  <tile id="40">
   <properties>
    <property name="movement cost" type="int" value="1"/>
    <property name="type" value="plain"/>
    <property name="walkability" type="bool" value="true"/>
   </properties>
  </tile>
  <tile id="41">
   <properties>
    <property name="movement cost" type="int" value="1"/>
    <property name="type" value="plain"/>
    <property name="walkability" type="bool" value="true"/>
   </properties>
  </tile>
  <tile id="42">
   <properties>
    <property name="movement cost" type="int" value="1"/>
    <property name="type" value="plain"/>
    <property name="walkability" type="bool" value="true"/>
   </properties>
  </tile>
  <tile id="43">
   <properties>
    <property name="movement cost" type="int" value="1"/>
    <property name="type" value="plain"/>
    <property name="walkability" type="bool" value="true"/>
   </properties>
  </tile>
  <tile id="44">
   <properties>
    <property name="movement cost" type="int" value="1"/>
    <property name="type" value="plain"/>
    <property name="walkability" type="bool" value="true"/>
   </properties>
  </tile>
  <tile id="45">
   <properties>
    <property name="movement cost" type="int" value="1"/>
    <property name="type" value="plain"/>
    <property name="walkability" type="bool" value="true"/>
   </properties>
  </tile>
  <tile id="46">
   <properties>
    <property name="movement cost" type="int" value="1"/>
    <property name="type" value="plain"/>
    <property name="walkability" type="bool" value="true"/>
   </properties>
  </tile>
  <tile id="47">
   <properties>
    <property name="movement cost" type="int" value="1"/>
    <property name="type" value="plain"/>
    <property name="walkability" type="bool" value="true"/>
   </properties>
  </tile>
  <tile id="48">
   <properties>
    <property name="movement cost" type="int" value="1"/>
    <property name="type" value="plain"/>
    <property name="walkability" type="bool" value="true"/>
   </properties>
  </tile>
  <tile id="49">
   <properties>
    <property name="movement cost" type="int" value="1"/>
    <property name="type" value="plain"/>
    <property name="walkability" type="bool" value="true"/>
   </properties>
  </tile>
  <tile id="50">
   <properties>
    <property name="movement cost" type="int" value="1"/>
    <property name="type" value="plain"/>
    <property name="walkability" type="bool" value="true"/>
   </properties>
  </tile>
  <tile id="51">
   <properties>
    <property name="movement cost" type="int" value="1"/>
    <property name="type" value="plain"/>
    <property name="walkability" type="bool" value="true"/>
   </properties>
  </tile>
  <tile id="52">
   <properties>
    <property name="movement cost" type="int" value="1"/>
    <property name="type" value="plain"/>
    <property name="walkability" type="bool" value="true"/>
   </properties>
  </tile>
  <tile id="53">
   <properties>
    <property name="movement cost" type="int" value="1"/>
    <property name="type" value="plain"/>
    <property name="walkability" type="bool" value="true"/>
   </properties>
  </tile>
  <tile id="54">
   <properties>
    <property name="movement cost" type="int" value="1"/>
    <property name="type" value="plain"/>
    <property name="walkability" type="bool" value="true"/>
   </properties>
  </tile>
  <tile id="55">
   <properties>
    <property name="movement cost" type="int" value="1"/>
    <property name="type" value="plain"/>
    <property name="walkability" type="bool" value="true"/>
   </properties>
  </tile>
  <tile id="56">
   <properties>
    <property name="movement cost" type="int" value="1"/>
    <property name="type" value="plain"/>
    <property name="walkability" type="bool" value="true"/>
   </properties>
  </tile>
  <tile id="57">
   <properties>
    <property name="movement cost" type="int" value="1"/>
    <property name="type" value="plain"/>
    <property name="walkability" type="bool" value="true"/>
   </properties>
  </tile>
  <tile id="58">
   <properties>
    <property name="movement cost" type="int" value="1"/>
    <property name="type" value="plain"/>
    <property name="walkability" type="bool" value="true"/>
   </properties>
  </tile>
  <tile id="59">
   <properties>
    <property name="movement cost" type="int" value="1"/>
    <property name="type" value="plain"/>
    <property name="walkability" type="bool" value="true"/>
   </properties>
  </tile>
  <tile id="60">
   <properties>
    <property name="movement cost" type="int" value="1"/>
    <property name="type" value="plain"/>
    <property name="walkability" type="bool" value="true"/>
   </properties>
  </tile>
  <tile id="61">
   <properties>
    <property name="movement cost" type="int" value="1"/>
    <property name="type" value="plain"/>
    <property name="walkability" type="bool" value="true"/>
   </properties>
  </tile>
  <tile id="62">
   <properties>
    <property name="movement cost" type="int" value="1"/>
    <property name="type" value="plain"/>
    <property name="walkability" type="bool" value="true"/>
   </properties>
  </tile>
  <tile id="63">
   <properties>
    <property name="movement cost" type="int" value="1"/>
    <property name="type" value="plain"/>
    <property name="walkability" type="bool" value="true"/>
   </properties>
  </tile>
  <tile id="64">
   <properties>
    <property name="movement cost" type="int" value="1"/>
    <property name="type" value="plain"/>
    <property name="walkability" type="bool" value="true"/>
   </properties>
  </tile>
  <tile id="65">
   <properties>
    <property name="movement cost" type="int" value="1"/>
    <property name="type" value="plain"/>
    <property name="walkability" type="bool" value="true"/>
   </properties>
  </tile>
  <tile id="66">
   <properties>
    <property name="movement cost" type="int" value="1"/>
    <property name="type" value="plain"/>
    <property name="walkability" type="bool" value="true"/>
   </properties>
  </tile>
  <tile id="67">
   <properties>
    <property name="movement cost" type="int" value="1"/>
    <property name="type" value="plain"/>
    <property name="walkability" type="bool" value="true"/>
   </properties>
  </tile>
  <tile id="68">
   <properties>
    <property name="movement cost" type="int" value="1"/>
    <property name="type" value="plain"/>
    <property name="walkability" type="bool" value="true"/>
   </properties>
  </tile>
  <tile id="69">
   <properties>
    <property name="movement cost" type="int" value="1"/>
    <property name="type" value="plain"/>
    <property name="walkability" type="bool" value="true"/>
   </properties>
  </tile>
  <tile id="70">
   <properties>
    <property name="movement cost" type="int" value="1"/>
    <property name="type" value="plain"/>
    <property name="walkability" type="bool" value="true"/>
   </properties>
  </tile>
  <tile id="71">
   <properties>
    <property name="movement cost" type="int" value="1"/>
    <property name="type" value="plain"/>
    <property name="walkability" type="bool" value="true"/>
   </properties>
  </tile>
  <tile id="72">
   <properties>
    <property name="movement cost" type="int" value="1"/>
    <property name="type" value="plain"/>
    <property name="walkability" type="bool" value="true"/>
   </properties>
  </tile>
  <tile id="73">
   <properties>
    <property name="movement cost" type="int" value="1"/>
    <property name="type" value="plain"/>
    <property name="walkability" type="bool" value="true"/>
   </properties>
  </tile>
  <tile id="74">
   <properties>
    <property name="movement cost" type="int" value="1"/>
    <property name="type" value="plain"/>
    <property name="walkability" type="bool" value="true"/>
   </properties>
  </tile>
  <tile id="75">
   <properties>
    <property name="movement cost" type="int" value="1"/>
    <property name="type" value="plain"/>
    <property name="walkability" type="bool" value="true"/>
   </properties>
  </tile>
  <tile id="76">
   <properties>
    <property name="movement cost" type="int" value="1"/>
    <property name="type" value="plain"/>
    <property name="walkability" type="bool" value="true"/>
   </properties>
  </tile>
 </tileset>
 <tileset firstgid="472" name="Dungeon_Tileset" tilewidth="16" tileheight="16" tilecount="156" columns="12">
  <image source="Dungeon_Tileset.png" width="192" height="208"/>
  <tile id="0">
   <properties>
    <property name="movement_cost" type="int" value="999"/>
    <property name="type" value="plain"/>
    <property name="wallkability" type="bool" value="false"/>
   </properties>
  </tile>
  <tile id="1">
   <properties>
    <property name="movement_cost" type="int" value="999"/>
    <property name="type" value="plain"/>
    <property name="wallkability" type="bool" value="false"/>
   </properties>
  </tile>
  <tile id="2">
   <properties>
    <property name="movement_cost" type="int" value="999"/>
    <property name="type" value="plain"/>
    <property name="wallkability" type="bool" value="false"/>
   </properties>
  </tile>
  <tile id="3">
   <properties>
    <property name="movement_cost" type="int" value="999"/>
    <property name="type" value="plain"/>
    <property name="wallkability" type="bool" value="false"/>
   </properties>
  </tile>
  <tile id="4">
   <properties>
    <property name="movement_cost" type="int" value="999"/>
    <property name="type" value="plain"/>
    <property name="wallkability" type="bool" value="false"/>
   </properties>
  </tile>
  <tile id="5">
   <properties>
    <property name="movement_cost" type="int" value="999"/>
    <property name="type" value="plain"/>
    <property name="wallkability" type="bool" value="false"/>
   </properties>
  </tile>
  <tile id="6">
   <properties>
    <property name="movement_cost" type="int" value="999"/>
    <property name="type" value="plain"/>
    <property name="wallkability" type="bool" value="false"/>
   </properties>
  </tile>
  <tile id="7">
   <properties>
    <property name="movement_cost" type="int" value="999"/>
    <property name="type" value="plain"/>
    <property name="wallkability" type="bool" value="false"/>
   </properties>
  </tile>
  <tile id="8">
   <properties>
    <property name="movement_cost" type="int" value="999"/>
    <property name="type" value="plain"/>
    <property name="wallkability" type="bool" value="false"/>
   </properties>
  </tile>
  <tile id="9">
   <properties>
    <property name="movement_cost" type="int" value="999"/>
    <property name="type" value="plain"/>
    <property name="wallkability" type="bool" value="false"/>
   </properties>
  </tile>
  <tile id="10">
   <properties>
    <property name="movement_cost" type="int" value="999"/>
    <property name="type" value="plain"/>
    <property name="wallkability" type="bool" value="false"/>
   </properties>
  </tile>
  <tile id="11">
   <properties>
    <property name="movement_cost" type="int" value="999"/>
   </properties>
  </tile>
  <tile id="12">
   <properties>
    <property name="movement_cost" type="int" value="999"/>
    <property name="type" value="plain"/>
    <property name="wallkability" type="bool" value="false"/>
   </properties>
  </tile>
  <tile id="13">
   <properties>
    <property name="movement_cost" type="int" value="999"/>
    <property name="type" value="plain"/>
    <property name="wallkability" type="bool" value="false"/>
   </properties>
  </tile>
  <tile id="14">
   <properties>
    <property name="movement_cost" type="int" value="999"/>
    <property name="type" value="plain"/>
    <property name="wallkability" type="bool" value="false"/>
   </properties>
  </tile>
  <tile id="15">
   <properties>
    <property name="movement_cost" type="int" value="999"/>
    <property name="type" value="plain"/>
    <property name="wallkability" type="bool" value="false"/>
   </properties>
  </tile>
  <tile id="16">
   <properties>
    <property name="movement_cost" type="int" value="999"/>
    <property name="type" value="plain"/>
    <property name="wallkability" type="bool" value="false"/>
   </properties>
  </tile>
  <tile id="17">
   <properties>
    <property name="movement_cost" type="int" value="999"/>
    <property name="type" value="plain"/>
    <property name="wallkability" type="bool" value="false"/>
   </properties>
  </tile>
  <tile id="18">
   <properties>
    <property name="movement_cost" type="int" value="999"/>
    <property name="type" value="plain"/>
    <property name="wallkability" type="bool" value="false"/>
   </properties>
  </tile>
  <tile id="19">
   <properties>
    <property name="movement_cost" type="int" value="999"/>
    <property name="type" value="plain"/>
    <property name="wallkability" type="bool" value="false"/>
   </properties>
  </tile>
  <tile id="20">
   <properties>
    <property name="movement_cost" type="int" value="999"/>
    <property name="type" value="plain"/>
    <property name="wallkability" type="bool" value="false"/>
   </properties>
  </tile>
  <tile id="21">
   <properties>
    <property name="movement_cost" type="int" value="999"/>
    <property name="type" value="plain"/>
    <property name="wallkability" type="bool" value="false"/>
   </properties>
  </tile>
  <tile id="22">
   <properties>
    <property name="movement_cost" type="int" value="999"/>
    <property name="type" value="plain"/>
    <property name="wallkability" type="bool" value="false"/>
   </properties>
  </tile>
  <tile id="23">
   <properties>
    <property name="movement_cost" type="int" value="999"/>
   </properties>
  </tile>
  <tile id="24">
   <properties>
    <property name="movement_cost" type="int" value="999"/>
    <property name="type" value="plain"/>
    <property name="wallkability" type="bool" value="false"/>
   </properties>
  </tile>
  <tile id="25">
   <properties>
    <property name="movement_cost" type="int" value="999"/>
    <property name="type" value="plain"/>
    <property name="wallkability" type="bool" value="false"/>
   </properties>
  </tile>
  <tile id="26">
   <properties>
    <property name="movement_cost" type="int" value="999"/>
    <property name="type" value="plain"/>
    <property name="wallkability" type="bool" value="false"/>
   </properties>
  </tile>
  <tile id="27">
   <properties>
    <property name="movement_cost" type="int" value="999"/>
    <property name="type" value="plain"/>
    <property name="wallkability" type="bool" value="false"/>
   </properties>
  </tile>
  <tile id="28">
   <properties>
    <property name="movement_cost" type="int" value="999"/>
    <property name="type" value="plain"/>
    <property name="wallkability" type="bool" value="false"/>
   </properties>
  </tile>
  <tile id="29">
   <properties>
    <property name="movement_cost" type="int" value="999"/>
    <property name="type" value="plain"/>
    <property name="wallkability" type="bool" value="false"/>
   </properties>
  </tile>
  <tile id="30">
   <properties>
    <property name="movement_cost" type="int" value="999"/>
    <property name="type" value="plain"/>
    <property name="wallkability" type="bool" value="false"/>
   </properties>
  </tile>
  <tile id="31">
   <properties>
    <property name="movement_cost" type="int" value="999"/>
    <property name="type" value="plain"/>
    <property name="wallkability" type="bool" value="false"/>
   </properties>
  </tile>
  <tile id="32">
   <properties>
    <property name="movement_cost" type="int" value="999"/>
    <property name="type" value="plain"/>
    <property name="wallkability" type="bool" value="false"/>
   </properties>
  </tile>
  <tile id="33">
   <properties>
    <property name="movement_cost" type="int" value="999"/>
    <property name="type" value="plain"/>
    <property name="wallkability" type="bool" value="false"/>
   </properties>
  </tile>
  <tile id="34">
   <properties>
    <property name="movement_cost" type="int" value="999"/>
    <property name="type" value="plain"/>
    <property name="wallkability" type="bool" value="false"/>
   </properties>
  </tile>
  <tile id="35">
   <properties>
    <property name="movement_cost" type="int" value="999"/>
   </properties>
  </tile>
  <tile id="36">
   <properties>
    <property name="movement_cost" type="int" value="999"/>
    <property name="type" value="plain"/>
    <property name="wallkability" type="bool" value="false"/>
   </properties>
  </tile>
  <tile id="37">
   <properties>
    <property name="movement_cost" type="int" value="999"/>
    <property name="type" value="plain"/>
    <property name="wallkability" type="bool" value="false"/>
   </properties>
  </tile>
  <tile id="38">
   <properties>
    <property name="movement_cost" type="int" value="999"/>
    <property name="type" value="plain"/>
    <property name="wallkability" type="bool" value="false"/>
   </properties>
  </tile>
  <tile id="39">
   <properties>
    <property name="movement_cost" type="int" value="999"/>
    <property name="type" value="plain"/>
    <property name="wallkability" type="bool" value="false"/>
   </properties>
  </tile>
  <tile id="40">
   <properties>
    <property name="movement_cost" type="int" value="999"/>
    <property name="type" value="plain"/>
    <property name="wallkability" type="bool" value="false"/>
   </properties>
  </tile>
  <tile id="41">
   <properties>
    <property name="movement_cost" type="int" value="999"/>
    <property name="type" value="plain"/>
    <property name="wallkability" type="bool" value="false"/>
   </properties>
  </tile>
  <tile id="42">
   <properties>
    <property name="movement_cost" type="int" value="999"/>
    <property name="type" value="plain"/>
    <property name="wallkability" type="bool" value="false"/>
   </properties>
  </tile>
  <tile id="43">
   <properties>
    <property name="movement_cost" type="int" value="999"/>
    <property name="type" value="plain"/>
    <property name="wallkability" type="bool" value="false"/>
   </properties>
  </tile>
  <tile id="44">
   <properties>
    <property name="movement_cost" type="int" value="999"/>
    <property name="type" value="plain"/>
    <property name="wallkability" type="bool" value="false"/>
   </properties>
  </tile>
  <tile id="45">
   <properties>
    <property name="movement_cost" type="int" value="999"/>
    <property name="type" value="plain"/>
    <property name="wallkability" type="bool" value="false"/>
   </properties>
  </tile>
  <tile id="46">
   <properties>
    <property name="movement_cost" type="int" value="999"/>
    <property name="type" value="plain"/>
    <property name="wallkability" type="bool" value="false"/>
   </properties>
  </tile>
  <tile id="47">
   <properties>
    <property name="movement_cost" type="int" value="999"/>
   </properties>
  </tile>
  <tile id="48">
   <properties>
    <property name="movement_cost" type="int" value="999"/>
    <property name="type" value="plain"/>
    <property name="wallkability" type="bool" value="false"/>
   </properties>
  </tile>
  <tile id="49">
   <properties>
    <property name="movement_cost" type="int" value="999"/>
    <property name="type" value="plain"/>
    <property name="wallkability" type="bool" value="false"/>
   </properties>
  </tile>
  <tile id="50">
   <properties>
    <property name="movement_cost" type="int" value="999"/>
    <property name="type" value="plain"/>
    <property name="wallkability" type="bool" value="false"/>
   </properties>
  </tile>
  <tile id="51">
   <properties>
    <property name="movement_cost" type="int" value="999"/>
    <property name="type" value="plain"/>
    <property name="wallkability" type="bool" value="false"/>
   </properties>
  </tile>
  <tile id="52">
   <properties>
    <property name="movement_cost" type="int" value="999"/>
    <property name="type" value="plain"/>
    <property name="wallkability" type="bool" value="false"/>
   </properties>
  </tile>
  <tile id="53">
   <properties>
    <property name="movement_cost" type="int" value="999"/>
    <property name="type" value="plain"/>
    <property name="wallkability" type="bool" value="false"/>
   </properties>
  </tile>
  <tile id="54">
   <properties>
    <property name="movement_cost" type="int" value="1"/>
    <property name="type" value="plain"/>
    <property name="walkability" type="bool" value="true"/>
   </properties>
  </tile>
  <tile id="55">
   <properties>
    <property name="movement_cost" type="int" value="999"/>
    <property name="type" value="plain"/>
    <property name="wallkability" type="bool" value="false"/>
   </properties>
  </tile>
  <tile id="56">
   <properties>
    <property name="movement_cost" type="int" value="1"/>
    <property name="type" value="plain"/>
    <property name="wallkability" type="bool" value="false"/>
   </properties>
  </tile>
  <tile id="57">
   <properties>
    <property name="movement_cost" type="int" value="1"/>
    <property name="type" value="plain"/>
    <property name="walkability" type="bool" value="true"/>
   </properties>
  </tile>
  <tile id="58">
   <properties>
    <property name="movement_cost" type="int" value="1"/>
    <property name="type" value="plain"/>
    <property name="walkability" type="bool" value="true"/>
   </properties>
  </tile>
  <tile id="59">
   <properties>
    <property name="movement_cost" type="int" value="1"/>
    <property name="type" value="plain"/>
    <property name="walkability" type="bool" value="true"/>
   </properties>
  </tile>
  <tile id="60">
   <properties>
    <property name="movement_cost" type="int" value="999"/>
    <property name="type" value="plain"/>
    <property name="wallkability" type="bool" value="false"/>
   </properties>
  </tile>
  <tile id="61">
   <properties>
    <property name="movement_cost" type="int" value="999"/>
    <property name="type" value="plain"/>
    <property name="wallkability" type="bool" value="false"/>
   </properties>
  </tile>
  <tile id="62">
   <properties>
    <property name="movement_cost" type="int" value="999"/>
    <property name="type" value="plain"/>
    <property name="wallkability" type="bool" value="false"/>
   </properties>
  </tile>
  <tile id="63">
   <properties>
    <property name="movement_cost" type="int" value="999"/>
    <property name="type" value="plain"/>
    <property name="wallkability" type="bool" value="false"/>
   </properties>
  </tile>
  <tile id="64">
   <properties>
    <property name="movement_cost" type="int" value="999"/>
    <property name="type" value="plain"/>
    <property name="wallkability" type="bool" value="false"/>
   </properties>
  </tile>
  <tile id="65">
   <properties>
    <property name="movement_cost" type="int" value="999"/>
    <property name="type" value="plain"/>
    <property name="wallkability" type="bool" value="false"/>
   </properties>
  </tile>
  <tile id="66">
   <properties>
    <property name="movement_cost" type="int" value="1"/>
    <property name="type" value="plain"/>
    <property name="walkability" type="bool" value="true"/>
   </properties>
  </tile>
  <tile id="67">
   <properties>
    <property name="movement_cost" type="int" value="1"/>
    <property name="type" value="plain"/>
    <property name="walkability" type="bool" value="true"/>
   </properties>
  </tile>
  <tile id="68">
   <properties>
    <property name="movement_cost" type="int" value="1"/>
    <property name="type" value="plain"/>
    <property name="walkability" type="bool" value="true"/>
   </properties>
  </tile>
  <tile id="69">
   <properties>
    <property name="movement_cost" type="int" value="1"/>
    <property name="type" value="plain"/>
    <property name="walkability" type="bool" value="true"/>
   </properties>
  </tile>
  <tile id="70">
   <properties>
    <property name="movement_cost" type="int" value="1"/>
    <property name="type" value="plain"/>
    <property name="walkability" type="bool" value="true"/>
   </properties>
  </tile>
  <tile id="71">
   <properties>
    <property name="movement_cost" type="int" value="1"/>
    <property name="type" value="plain"/>
    <property name="walkability" type="bool" value="true"/>
   </properties>
  </tile>
  <tile id="72">
   <properties>
    <property name="movement_cost" type="int" value="999"/>
    <property name="type" value="plain"/>
    <property name="wallkability" type="bool" value="false"/>
   </properties>
  </tile>
  <tile id="73">
   <properties>
    <property name="movement_cost" type="int" value="999"/>
    <property name="type" value="plain"/>
    <property name="wallkability" type="bool" value="false"/>
   </properties>
  </tile>
  <tile id="74">
   <properties>
    <property name="movement_cost" type="int" value="999"/>
    <property name="type" value="plain"/>
    <property name="wallkability" type="bool" value="false"/>
   </properties>
  </tile>
  <tile id="75">
   <properties>
    <property name="movement_cost" type="int" value="999"/>
    <property name="type" value="plain"/>
    <property name="wallkability" type="bool" value="false"/>
   </properties>
  </tile>
  <tile id="76">
   <properties>
    <property name="movement_cost" type="int" value="999"/>
    <property name="type" value="plain"/>
    <property name="wallkability" type="bool" value="false"/>
   </properties>
  </tile>
  <tile id="77">
   <properties>
    <property name="movement_cost" type="int" value="999"/>
    <property name="type" value="plain"/>
    <property name="wallkability" type="bool" value="false"/>
   </properties>
  </tile>
  <tile id="78">
   <properties>
    <property name="movement_cost" type="int" value="999"/>
    <property name="type" value="plain"/>
    <property name="wallkability" type="bool" value="false"/>
   </properties>
  </tile>
  <tile id="79">
   <properties>
    <property name="movement_cost" type="int" value="999"/>
    <property name="type" value="plain"/>
    <property name="wallkability" type="bool" value="false"/>
   </properties>
  </tile>
  <tile id="80">
   <properties>
    <property name="movement_cost" type="int" value="999"/>
    <property name="type" value="plain"/>
    <property name="wallkability" type="bool" value="false"/>
   </properties>
  </tile>
  <tile id="81">
   <properties>
    <property name="movement_cost" type="int" value="999"/>
    <property name="type" value="plain"/>
    <property name="wallkability" type="bool" value="false"/>
   </properties>
  </tile>
  <tile id="82">
   <properties>
    <property name="movement_cost" type="int" value="999"/>
    <property name="type" value="plain"/>
    <property name="wallkability" type="bool" value="false"/>
   </properties>
  </tile>
  <tile id="83">
   <properties>
    <property name="movement_cost" type="int" value="999"/>
    <property name="type" value="plain"/>
    <property name="wallkability" type="bool" value="false"/>
   </properties>
  </tile>
  <tile id="84">
   <properties>
    <property name="movement_cost" type="int" value="999"/>
    <property name="type" value="plain"/>
    <property name="wallkability" type="bool" value="false"/>
   </properties>
  </tile>
  <tile id="85">
   <properties>
    <property name="movement_cost" type="int" value="999"/>
    <property name="type" value="plain"/>
    <property name="wallkability" type="bool" value="false"/>
   </properties>
  </tile>
  <tile id="86">
   <properties>
    <property name="movement_cost" type="int" value="999"/>
    <property name="type" value="plain"/>
    <property name="wallkability" type="bool" value="false"/>
   </properties>
  </tile>
  <tile id="87">
   <properties>
    <property name="movement_cost" type="int" value="999"/>
    <property name="type" value="plain"/>
    <property name="wallkability" type="bool" value="false"/>
   </properties>
  </tile>
  <tile id="88">
   <properties>
    <property name="movement_cost" type="int" value="999"/>
    <property name="type" value="plain"/>
    <property name="wallkability" type="bool" value="false"/>
   </properties>
  </tile>
  <tile id="89">
   <properties>
    <property name="movement_cost" type="int" value="999"/>
    <property name="type" value="plain"/>
    <property name="wallkability" type="bool" value="false"/>
   </properties>
  </tile>
  <tile id="90">
   <properties>
    <property name="movement_cost" type="int" value="999"/>
    <property name="type" value="plain"/>
    <property name="wallkability" type="bool" value="false"/>
   </properties>
  </tile>
  <tile id="91">
   <properties>
    <property name="movement_cost" type="int" value="999"/>
    <property name="type" value="plain"/>
    <property name="wallkability" type="bool" value="false"/>
   </properties>
  </tile>
  <tile id="92">
   <properties>
    <property name="movement_cost" type="int" value="999"/>
    <property name="type" value="plain"/>
    <property name="wallkability" type="bool" value="false"/>
   </properties>
  </tile>
  <tile id="93">
   <properties>
    <property name="movement_cost" type="int" value="999"/>
    <property name="type" value="plain"/>
    <property name="wallkability" type="bool" value="false"/>
   </properties>
  </tile>
  <tile id="94">
   <properties>
    <property name="movement_cost" type="int" value="999"/>
    <property name="type" value="plain"/>
    <property name="wallkability" type="bool" value="false"/>
   </properties>
  </tile>
  <tile id="95">
   <properties>
    <property name="movement_cost" type="int" value="999"/>
    <property name="type" value="plain"/>
    <property name="wallkability" type="bool" value="false"/>
   </properties>
  </tile>
  <tile id="96">
   <properties>
    <property name="movement_cost" type="int" value="999"/>
    <property name="type" value="plain"/>
    <property name="wallkability" type="bool" value="false"/>
   </properties>
  </tile>
  <tile id="97">
   <properties>
    <property name="movement_cost" type="int" value="999"/>
    <property name="type" value="plain"/>
    <property name="wallkability" type="bool" value="false"/>
   </properties>
  </tile>
  <tile id="98">
   <properties>
    <property name="movement_cost" type="int" value="999"/>
    <property name="type" value="plain"/>
    <property name="wallkability" type="bool" value="false"/>
   </properties>
  </tile>
  <tile id="99">
   <properties>
    <property name="movement_cost" type="int" value="999"/>
    <property name="type" value="plain"/>
    <property name="wallkability" type="bool" value="false"/>
   </properties>
  </tile>
  <tile id="100">
   <properties>
    <property name="movement_cost" type="int" value="999"/>
    <property name="type" value="plain"/>
    <property name="wallkability" type="bool" value="false"/>
   </properties>
  </tile>
  <tile id="101">
   <properties>
    <property name="movement_cost" type="int" value="999"/>
    <property name="type" value="plain"/>
    <property name="wallkability" type="bool" value="false"/>
   </properties>
  </tile>
  <tile id="102">
   <properties>
    <property name="movement_cost" type="int" value="999"/>
    <property name="type" value="plain"/>
    <property name="wallkability" type="bool" value="false"/>
   </properties>
  </tile>
  <tile id="103">
   <properties>
    <property name="movement_cost" type="int" value="999"/>
    <property name="type" value="plain"/>
    <property name="wallkability" type="bool" value="false"/>
   </properties>
  </tile>
  <tile id="104">
   <properties>
    <property name="movement_cost" type="int" value="999"/>
    <property name="type" value="plain"/>
    <property name="wallkability" type="bool" value="false"/>
   </properties>
  </tile>
  <tile id="105">
   <properties>
    <property name="movement_cost" type="int" value="999"/>
    <property name="type" value="plain"/>
    <property name="wallkability" type="bool" value="false"/>
   </properties>
  </tile>
  <tile id="106">
   <properties>
    <property name="movement_cost" type="int" value="999"/>
    <property name="type" value="plain"/>
    <property name="wallkability" type="bool" value="false"/>
   </properties>
  </tile>
  <tile id="107">
   <properties>
    <property name="movement_cost" type="int" value="999"/>
    <property name="type" value="plain"/>
    <property name="wallkability" type="bool" value="false"/>
   </properties>
  </tile>
  <tile id="108">
   <properties>
    <property name="movement_cost" type="int" value="999"/>
    <property name="type" value="plain"/>
    <property name="wallkability" type="bool" value="false"/>
   </properties>
  </tile>
  <tile id="109">
   <properties>
    <property name="movement_cost" type="int" value="999"/>
    <property name="type" value="plain"/>
    <property name="wallkability" type="bool" value="false"/>
   </properties>
  </tile>
  <tile id="110">
   <properties>
    <property name="movement_cost" type="int" value="999"/>
    <property name="type" value="plain"/>
    <property name="wallkability" type="bool" value="false"/>
   </properties>
  </tile>
  <tile id="111">
   <properties>
    <property name="movement_cost" type="int" value="999"/>
    <property name="type" value="plain"/>
    <property name="wallkability" type="bool" value="false"/>
   </properties>
  </tile>
  <tile id="112">
   <properties>
    <property name="movement_cost" type="int" value="999"/>
    <property name="type" value="plain"/>
    <property name="wallkability" type="bool" value="false"/>
   </properties>
  </tile>
  <tile id="113">
   <properties>
    <property name="movement_cost" type="int" value="999"/>
    <property name="type" value="plain"/>
    <property name="wallkability" type="bool" value="false"/>
   </properties>
  </tile>
  <tile id="114">
   <properties>
    <property name="movement_cost" type="int" value="999"/>
    <property name="type" value="plain"/>
    <property name="wallkability" type="bool" value="false"/>
   </properties>
  </tile>
  <tile id="115">
   <properties>
    <property name="movement_cost" type="int" value="999"/>
    <property name="type" value="plain"/>
    <property name="wallkability" type="bool" value="false"/>
   </properties>
  </tile>
  <tile id="116">
   <properties>
    <property name="movement_cost" type="int" value="999"/>
    <property name="type" value="plain"/>
    <property name="wallkability" type="bool" value="false"/>
   </properties>
  </tile>
  <tile id="117">
   <properties>
    <property name="movement_cost" type="int" value="999"/>
    <property name="type" value="plain"/>
    <property name="wallkability" type="bool" value="false"/>
   </properties>
  </tile>
  <tile id="118">
   <properties>
    <property name="movement_cost" type="int" value="999"/>
    <property name="type" value="plain"/>
    <property name="wallkability" type="bool" value="false"/>
   </properties>
  </tile>
  <tile id="119">
   <properties>
    <property name="movement_cost" type="int" value="999"/>
    <property name="type" value="plain"/>
    <property name="wallkability" type="bool" value="false"/>
   </properties>
  </tile>
  <tile id="120">
   <properties>
    <property name="movement_cost" type="int" value="999"/>
    <property name="type" value="plain"/>
    <property name="wallkability" type="bool" value="false"/>
   </properties>
  </tile>
  <tile id="121">
   <properties>
    <property name="movement_cost" type="int" value="999"/>
    <property name="type" value="plain"/>
    <property name="wallkability" type="bool" value="false"/>
   </properties>
  </tile>
  <tile id="122">
   <properties>
    <property name="movement_cost" type="int" value="999"/>
    <property name="type" value="plain"/>
    <property name="wallkability" type="bool" value="false"/>
   </properties>
  </tile>
  <tile id="123">
   <properties>
    <property name="movement_cost" type="int" value="999"/>
    <property name="type" value="plain"/>
    <property name="wallkability" type="bool" value="false"/>
   </properties>
  </tile>
  <tile id="124">
   <properties>
    <property name="movement_cost" type="int" value="999"/>
    <property name="type" value="plain"/>
    <property name="wallkability" type="bool" value="false"/>
   </properties>
  </tile>
  <tile id="125">
   <properties>
    <property name="movement_cost" type="int" value="999"/>
    <property name="type" value="plain"/>
    <property name="wallkability" type="bool" value="false"/>
   </properties>
  </tile>
  <tile id="126">
   <properties>
    <property name="movement_cost" type="int" value="999"/>
    <property name="type" value="plain"/>
    <property name="wallkability" type="bool" value="false"/>
   </properties>
  </tile>
  <tile id="127">
   <properties>
    <property name="movement_cost" type="int" value="999"/>
    <property name="type" value="plain"/>
    <property name="wallkability" type="bool" value="false"/>
   </properties>
  </tile>
  <tile id="128">
   <properties>
    <property name="movement_cost" type="int" value="999"/>
    <property name="type" value="plain"/>
    <property name="wallkability" type="bool" value="false"/>
   </properties>
  </tile>
  <tile id="129">
   <properties>
    <property name="movement_cost" type="int" value="999"/>
    <property name="type" value="plain"/>
    <property name="wallkability" type="bool" value="false"/>
   </properties>
  </tile>
  <tile id="130">
   <properties>
    <property name="movement_cost" type="int" value="999"/>
    <property name="type" value="plain"/>
    <property name="wallkability" type="bool" value="false"/>
   </properties>
  </tile>
  <tile id="131">
   <properties>
    <property name="movement_cost" type="int" value="999"/>
    <property name="type" value="plain"/>
    <property name="wallkability" type="bool" value="false"/>
   </properties>
  </tile>
  <tile id="132">
   <properties>
    <property name="movement_cost" type="int" value="1"/>
    <property name="type" value="plain"/>
    <property name="walkability" type="bool" value="true"/>
   </properties>
  </tile>
  <tile id="133">
   <properties>
    <property name="movement_cost" type="int" value="1"/>
    <property name="type" value="plain"/>
    <property name="walkability" type="bool" value="true"/>
   </properties>
  </tile>
  <tile id="134">
   <properties>
    <property name="movement_cost" type="int" value="1"/>
    <property name="type" value="plain"/>
    <property name="walkability" type="bool" value="true"/>
   </properties>
  </tile>
  <tile id="135">
   <properties>
    <property name="movement_cost" type="int" value="1"/>
    <property name="type" value="plain"/>
    <property name="walkability" type="bool" value="true"/>
   </properties>
  </tile>
  <tile id="136">
   <properties>
    <property name="movement_cost" type="int" value="1"/>
    <property name="type" value="plain"/>
    <property name="walkability" type="bool" value="true"/>
   </properties>
  </tile>
  <tile id="137">
   <properties>
    <property name="movement_cost" type="int" value="1"/>
    <property name="type" value="plain"/>
    <property name="walkability" type="bool" value="true"/>
   </properties>
  </tile>
  <tile id="138">
   <properties>
    <property name="movement_cost" type="int" value="1"/>
    <property name="type" value="plain"/>
    <property name="walkability" type="bool" value="true"/>
   </properties>
  </tile>
  <tile id="139">
   <properties>
    <property name="movement_cost" type="int" value="1"/>
    <property name="type" value="plain"/>
    <property name="walkability" type="bool" value="true"/>
   </properties>
  </tile>
  <tile id="140">
   <properties>
    <property name="movement_cost" type="int" value="1"/>
    <property name="type" value="plain"/>
    <property name="walkability" type="bool" value="true"/>
   </properties>
  </tile>
  <tile id="141">
   <properties>
    <property name="movement_cost" type="int" value="1"/>
    <property name="type" value="plain"/>
    <property name="walkability" type="bool" value="true"/>
   </properties>
  </tile>
  <tile id="142">
   <properties>
    <property name="movement_cost" type="int" value="999"/>
    <property name="type" value="plain"/>
    <property name="wallkability" type="bool" value="false"/>
   </properties>
  </tile>
  <tile id="143">
   <properties>
    <property name="movement_cost" type="int" value="999"/>
    <property name="type" value="plain"/>
    <property name="wallkability" type="bool" value="false"/>
   </properties>
  </tile>
  <tile id="144">
   <properties>
    <property name="movement_cost" type="int" value="1"/>
    <property name="type" value="plain"/>
    <property name="walkability" type="bool" value="true"/>
   </properties>
  </tile>
  <tile id="145">
   <properties>
    <property name="movement_cost" type="int" value="1"/>
    <property name="type" value="plain"/>
    <property name="walkability" type="bool" value="true"/>
   </properties>
  </tile>
  <tile id="146">
   <properties>
    <property name="movement_cost" type="int" value="1"/>
    <property name="type" value="plain"/>
    <property name="walkability" type="bool" value="true"/>
   </properties>
  </tile>
  <tile id="147">
   <properties>
    <property name="movement_cost" type="int" value="1"/>
    <property name="type" value="plain"/>
    <property name="walkability" type="bool" value="true"/>
   </properties>
  </tile>
  <tile id="148">
   <properties>
    <property name="movement_cost" type="int" value="1"/>
    <property name="type" value="plain"/>
    <property name="walkability" type="bool" value="true"/>
   </properties>
  </tile>
  <tile id="149">
   <properties>
    <property name="movement_cost" type="int" value="1"/>
    <property name="type" value="plain"/>
    <property name="walkability" type="bool" value="true"/>
   </properties>
  </tile>
  <tile id="150">
   <properties>
    <property name="movement_cost" type="int" value="1"/>
    <property name="type" value="plain"/>
    <property name="walkability" type="bool" value="true"/>
   </properties>
  </tile>
  <tile id="151">
   <properties>
    <property name="movement_cost" type="int" value="1"/>
    <property name="type" value="plain"/>
    <property name="walkability" type="bool" value="true"/>
   </properties>
  </tile>
  <tile id="152">
   <properties>
    <property name="movement_cost" type="int" value="1"/>
    <property name="type" value="plain"/>
    <property name="walkability" type="bool" value="true"/>
   </properties>
  </tile>
  <tile id="153">
   <properties>
    <property name="movement_cost" type="int" value="1"/>
    <property name="type" value="plain"/>
    <property name="walkability" type="bool" value="true"/>
   </properties>
  </tile>
  <tile id="154">
   <properties>
    <property name="movement_cost" type="int" value="999"/>
    <property name="type" value="plain"/>
    <property name="wallkability" type="bool" value="false"/>
   </properties>
  </tile>
  <tile id="155">
   <properties>
    <property name="movement_cost" type="int" value="999"/>
    <property name="type" value="plain"/>
    <property name="wallkability" type="bool" value="false"/>
   </properties>
  </tile>
 </tileset>
 <tileset firstgid="628" name="Paths" tilewidth="16" tileheight="16" tilecount="16" columns="4">
  <image source="Paths.png" width="64" height="64"/>
  <tile id="0">
   <properties>
    <property name="movement cost " type="int" value="1"/>
    <property name="type" value="deco"/>
    <property name="walkability" type="bool" value="true"/>
   </properties>
  </tile>
  <tile id="1">
   <properties>
    <property name="movement cost " type="int" value="1"/>
    <property name="type" value="deco"/>
    <property name="walkability" type="bool" value="true"/>
   </properties>
  </tile>
  <tile id="2">
   <properties>
    <property name="movement cost " type="int" value="1"/>
    <property name="type" value="deco"/>
    <property name="walkability" type="bool" value="true"/>
   </properties>
  </tile>
  <tile id="3">
   <properties>
    <property name="movement cost " type="int" value="1"/>
    <property name="type" value="deco"/>
    <property name="walkability" type="bool" value="true"/>
   </properties>
  </tile>
  <tile id="4">
   <properties>
    <property name="movement cost " type="int" value="1"/>
    <property name="type" value="deco"/>
    <property name="walkability" type="bool" value="true"/>
   </properties>
  </tile>
  <tile id="5">
   <properties>
    <property name="movement cost " type="int" value="1"/>
    <property name="type" value="deco"/>
    <property name="walkability" type="bool" value="true"/>
   </properties>
  </tile>
  <tile id="6">
   <properties>
    <property name="movement cost " type="int" value="1"/>
    <property name="type" value="deco"/>
    <property name="walkability" type="bool" value="true"/>
   </properties>
  </tile>
  <tile id="7">
   <properties>
    <property name="movement cost " type="int" value="1"/>
    <property name="type" value="deco"/>
    <property name="walkability" type="bool" value="true"/>
   </properties>
  </tile>
  <tile id="8">
   <properties>
    <property name="movement cost " type="int" value="1"/>
    <property name="type" value="deco"/>
    <property name="walkability" type="bool" value="true"/>
   </properties>
  </tile>
  <tile id="9">
   <properties>
    <property name="movement cost " type="int" value="1"/>
    <property name="type" value="deco"/>
    <property name="walkability" type="bool" value="true"/>
   </properties>
  </tile>
  <tile id="10">
   <properties>
    <property name="movement cost " type="int" value="1"/>
    <property name="type" value="deco"/>
    <property name="walkability" type="bool" value="true"/>
   </properties>
  </tile>
  <tile id="11">
   <properties>
    <property name="movement cost " type="int" value="1"/>
    <property name="type" value="deco"/>
    <property name="walkability" type="bool" value="true"/>
   </properties>
  </tile>
  <tile id="12">
   <properties>
    <property name="movement cost " type="int" value="1"/>
    <property name="type" value="deco"/>
    <property name="walkability" type="bool" value="true"/>
   </properties>
  </tile>
  <tile id="13">
   <properties>
    <property name="movement cost " type="int" value="1"/>
    <property name="type" value="deco"/>
    <property name="walkability" type="bool" value="true"/>
   </properties>
  </tile>
  <tile id="14">
   <properties>
    <property name="movement cost " type="int" value="1"/>
    <property name="type" value="deco"/>
    <property name="walkability" type="bool" value="true"/>
   </properties>
  </tile>
  <tile id="15">
   <properties>
    <property name="movement cost " type="int" value="1"/>
    <property name="type" value="deco"/>
    <property name="walkability" type="bool" value="true"/>
   </properties>
  </tile>
 </tileset>
 <layer id="1" name="ground" width="40" height="70">
  <data encoding="csv">
13,13,13,13,13,13,13,13,13,13,13,13,13,13,385,13,13,373,13,13,13,13,385,385,13,13,13,13,13,13,330,330,330,330,330,330,330,330,330,330,
13,13,13,385,385,13,13,13,13,385,385,13,13,13,385,13,13,375,13,13,13,13,385,13,13,13,386,389,13,13,330,330,330,330,330,330,330,330,330,330,
13,13,13,13,13,13,13,13,13,13,101,101,101,101,101,385,13,13,13,13,13,13,13,13,385,13,13,13,13,13,330,330,330,330,330,330,330,330,330,330,
13,13,376,13,13,385,13,13,13,13,13,13,13,90,13,13,389,13,13,375,13,13,375,13,373,13,13,13,13,13,330,330,330,330,330,330,330,330,330,330,
13,13,13,13,13,13,13,13,13,13,13,13,13,13,13,13,386,13,373,13,13,13,13,13,13,386,13,13,13,13,330,330,330,330,330,330,330,330,330,330,
13,13,13,13,13,13,13,13,13,13,13,13,13,13,376,13,13,13,13,13,13,13,13,13,13,13,13,13,13,13,330,330,330,330,330,330,330,330,330,330,
13,13,13,13,13,13,385,385,13,13,13,13,13,385,13,13,13,13,13,13,13,13,13,13,13,13,13,13,13,13,330,330,330,330,330,330,330,330,330,330,
13,375,375,389,389,13,385,13,13,387,13,373,13,13,13,13,13,13,13,13,13,13,13,13,13,13,13,13,13,13,330,330,330,330,330,330,330,330,330,330,
13,13,377,375,90,375,13,13,13,13,13,13,13,13,13,13,13,13,13,13,13,13,13,13,13,13,13,13,13,13,238,238,330,330,330,330,330,330,330,330,
13,13,374,375,375,13,13,13,13,13,13,13,13,13,13,13,13,13,13,13,13,13,13,13,13,13,13,13,13,13,238,238,330,330,330,330,330,330,330,330,
13,378,13,385,13,377,13,13,13,13,13,13,13,13,13,13,13,13,13,13,13,13,13,13,13,13,13,13,13,13,238,238,238,238,330,330,330,330,330,330,
13,13,13,13,13,13,13,13,13,13,13,13,13,13,13,13,13,13,13,13,13,13,13,13,13,13,13,13,13,13,238,238,238,238,238,330,330,330,330,330,
13,13,13,389,13,13,13,13,13,13,13,13,13,13,13,13,13,13,13,13,13,13,13,13,13,13,13,13,13,13,238,282,238,238,238,330,330,330,330,330,
13,13,13,13,13,385,13,13,13,13,13,13,13,13,13,13,13,13,13,13,13,13,13,13,13,13,13,13,13,238,238,238,238,238,238,238,238,238,238,330,
13,13,13,13,385,385,13,13,13,13,13,13,13,13,13,13,13,13,13,13,13,13,13,13,13,13,13,13,13,13,238,238,294,238,238,238,282,238,238,238,
13,378,13,13,13,13,13,13,13,13,13,13,13,13,13,13,13,13,13,13,13,13,13,13,13,13,375,13,13,13,238,238,238,238,238,238,282,238,238,238,
13,13,13,13,13,13,13,13,13,13,13,386,13,385,13,330,13,13,13,13,13,13,13,13,13,389,13,13,13,13,330,330,238,238,238,238,238,238,238,238,
13,13,13,13,13,13,13,13,13,13,375,13,385,13,13,13,13,13,13,386,385,13,13,13,13,13,13,13,13,13,330,330,238,238,282,238,238,238,238,238,
13,13,13,13,13,13,13,13,13,13,13,387,386,13,13,13,389,13,375,385,13,386,13,13,13,375,13,13,375,13,330,330,330,238,238,238,238,238,282,238,
13,13,13,13,13,13,375,13,13,385,13,385,13,13,13,13,13,13,13,330,13,13,13,13,13,375,13,13,13,13,330,330,330,330,330,330,238,238,238,238,
238,238,238,238,238,330,330,330,330,330,330,330,330,330,330,330,330,330,330,330,330,330,330,330,330,330,330,330,330,330,330,330,330,330,330,330,238,238,238,238,
238,238,238,238,330,330,330,330,330,330,330,330,330,330,330,330,330,330,330,330,330,330,330,330,330,330,330,330,330,330,330,330,330,330,330,330,330,330,238,238,
238,238,238,238,330,330,330,330,330,330,330,330,330,330,330,330,330,330,330,330,330,330,330,330,330,330,330,330,330,330,330,330,330,330,330,330,330,330,330,238,
238,238,238,330,330,330,330,330,330,330,330,330,330,330,330,330,330,178,179,180,177,178,330,330,330,330,330,330,330,330,330,330,330,330,330,330,330,330,330,330,
238,238,330,330,330,330,330,330,330,330,179,180,177,178,179,180,177,178,179,180,177,178,179,180,177,178,179,180,330,330,330,330,330,330,330,330,330,330,330,330,
238,330,330,330,330,178,179,180,177,178,179,180,177,178,179,180,177,178,179,180,177,178,179,180,177,178,179,180,177,178,179,330,330,330,330,330,330,330,330,330,
330,330,330,180,177,178,179,180,177,178,179,180,177,178,179,180,177,178,179,180,177,178,179,180,177,178,179,180,177,178,179,180,330,330,330,330,330,330,330,330,
330,178,179,180,177,178,179,180,177,178,179,180,177,178,179,180,177,178,179,180,177,178,179,180,177,178,179,180,177,178,179,180,177,178,179,330,330,330,330,330,
177,177,179,180,177,178,179,180,177,178,179,180,177,178,179,180,177,178,179,180,177,178,179,180,177,178,179,180,177,178,179,180,177,178,179,180,177,178,179,180,
177,178,179,180,177,178,179,180,177,178,179,180,177,178,179,180,177,178,179,180,177,178,179,180,177,178,179,180,177,178,179,180,177,178,179,180,177,178,179,180,
177,178,179,180,177,178,179,180,177,178,179,180,177,178,179,180,177,178,179,180,177,178,179,180,177,178,179,180,177,178,179,180,177,178,179,180,177,178,179,180,
177,178,179,180,177,178,179,180,177,178,179,180,177,178,179,180,177,178,179,180,177,178,179,180,177,178,179,180,177,178,179,180,177,178,179,180,177,178,179,180,
177,178,179,180,177,178,179,180,177,178,179,180,177,178,179,180,177,178,179,180,177,178,179,180,177,178,179,180,177,178,179,180,177,178,179,180,177,178,179,180,
177,178,179,180,177,178,179,180,177,178,179,180,177,178,179,180,178,179,180,604,605,178,179,180,177,178,179,180,177,178,179,180,177,178,179,180,177,178,179,180,
177,178,179,180,177,178,179,180,177,178,179,180,177,178,179,180,178,179,180,616,617,178,179,180,177,178,179,180,177,178,179,180,177,178,179,180,177,178,179,180,
177,178,179,180,177,178,179,180,177,178,179,180,177,178,179,180,178,179,180,541,543,178,179,180,177,178,179,180,177,178,179,180,177,178,179,180,177,178,179,180,
177,178,179,180,177,178,179,180,177,178,179,180,177,178,179,180,178,179,180,541,543,178,179,180,177,178,179,180,177,178,179,180,177,178,179,180,177,178,179,180,
606,606,606,606,606,606,606,606,606,606,606,606,606,606,606,606,606,606,606,608,609,606,606,606,606,606,606,606,606,606,606,606,606,606,606,606,606,606,606,606,
609,608,609,608,609,608,609,608,609,608,609,608,609,608,609,608,609,608,609,620,621,608,609,608,609,608,609,608,609,608,609,608,609,608,609,608,609,608,609,608,
621,620,621,620,621,620,621,620,621,620,621,620,621,620,621,620,621,620,621,608,609,620,621,620,621,620,621,620,621,620,621,620,621,620,621,620,621,620,621,620,
609,608,609,608,609,608,609,608,609,608,609,608,609,608,609,608,609,608,609,620,621,608,609,608,609,608,609,608,609,608,609,608,609,608,609,608,609,608,609,608,
621,620,621,620,621,620,621,620,621,620,621,620,621,620,621,620,621,620,621,574,575,576,621,620,621,620,621,620,621,620,621,620,621,620,621,620,621,620,621,620,
609,608,609,608,609,608,609,608,609,608,609,608,609,608,609,608,609,608,609,598,599,600,609,608,609,608,609,608,609,608,609,608,609,608,609,608,609,608,609,608,
621,620,621,620,621,620,621,620,621,620,621,620,621,620,621,620,621,620,621,620,621,620,621,620,621,620,621,620,621,620,621,620,621,620,621,620,621,620,621,620,
609,608,609,608,609,608,609,608,609,608,609,608,609,608,609,608,609,608,609,608,609,608,609,608,609,608,609,608,609,608,541,542,542,542,543,608,609,608,609,608,
621,620,621,620,621,620,621,620,621,620,621,620,621,620,621,620,621,620,621,620,621,620,621,620,621,620,621,620,621,620,541,542,542,542,543,620,621,620,621,620,
609,608,609,608,609,608,609,608,609,608,609,608,609,608,609,608,609,608,609,608,609,608,609,608,609,608,609,608,609,608,609,608,609,608,609,608,609,608,609,608,
621,620,621,620,621,620,621,620,621,620,621,620,621,620,621,620,621,620,621,620,621,620,621,620,621,620,621,620,621,620,621,620,621,620,621,620,621,620,621,620,
609,608,609,608,609,608,609,608,609,608,609,608,609,608,609,608,609,608,609,608,609,608,609,608,609,608,609,608,609,608,609,608,609,608,609,608,609,608,609,608,
621,620,621,620,621,620,621,620,621,620,621,620,621,620,621,620,621,620,621,620,621,620,621,620,621,620,621,620,621,620,621,620,621,620,621,620,621,620,621,620,
609,608,609,608,609,608,609,608,609,608,609,608,609,608,609,608,609,608,609,608,609,608,609,608,609,608,609,608,609,608,609,608,574,575,576,608,609,608,609,608,
621,620,621,620,621,620,621,620,621,620,621,620,621,620,621,620,621,620,621,620,621,620,621,620,621,620,621,620,621,620,621,574,587,587,587,620,621,620,621,620,
609,608,609,608,609,608,609,608,609,608,609,608,609,608,609,608,609,608,609,608,609,608,609,608,609,608,609,608,609,608,574,587,587,587,587,608,609,608,609,608,
621,608,609,620,621,574,575,575,576,620,621,620,621,620,621,620,621,620,621,620,621,620,621,620,621,620,621,620,621,574,587,587,587,587,600,620,621,620,621,620,
609,620,621,608,609,587,587,587,587,608,609,608,609,608,609,608,609,608,609,608,609,608,609,608,609,608,609,574,587,587,587,587,609,608,609,608,609,608,609,608,
621,608,609,620,621,598,599,599,600,620,621,620,621,620,621,620,621,620,621,620,621,620,621,620,621,620,574,587,587,587,587,600,621,620,621,620,621,620,621,620,
609,620,621,608,609,608,609,608,609,608,609,608,609,608,609,608,609,608,609,608,609,608,609,608,609,608,598,587,587,587,609,608,609,608,609,608,609,608,609,608,
621,608,609,620,621,620,621,620,621,620,621,620,621,620,621,620,621,620,621,620,621,620,621,620,621,620,621,598,587,600,621,620,621,620,621,620,621,620,621,620,
609,608,609,608,609,608,609,608,609,608,609,608,609,608,609,608,609,608,609,608,609,608,609,608,609,608,609,608,609,608,609,608,609,608,609,608,609,608,609,608,
621,620,621,620,621,620,621,620,621,620,621,620,621,620,621,620,621,620,621,620,621,620,621,620,621,620,621,620,621,620,621,620,621,620,621,620,621,620,621,620,
609,608,609,608,609,608,609,608,609,608,609,608,609,608,609,608,609,608,609,608,609,608,609,608,609,608,609,608,609,608,609,608,609,608,609,608,609,608,609,608,
621,620,621,620,621,620,621,620,621,620,621,620,621,620,621,620,621,620,621,620,621,620,621,620,621,620,621,620,621,620,621,620,621,620,621,620,621,620,621,620,
609,608,609,608,609,608,609,608,609,608,609,608,609,608,609,608,609,608,609,608,609,608,609,608,609,608,609,608,609,608,609,608,609,608,609,608,609,608,609,608,
621,620,621,620,621,620,621,620,621,620,621,620,621,620,621,620,621,620,621,620,621,620,621,620,621,620,621,620,621,620,621,620,621,620,621,620,621,620,621,620,
609,608,609,608,609,608,609,608,609,608,609,608,609,608,609,608,609,608,609,608,609,608,609,608,609,608,609,608,609,608,609,608,609,608,609,608,609,608,609,608,
621,620,621,620,621,620,621,620,621,620,621,620,621,620,621,620,621,620,621,620,621,620,621,620,621,620,621,620,621,620,621,620,621,620,621,620,621,620,621,620,
609,608,609,608,609,608,609,608,609,608,609,608,609,608,609,608,609,608,609,608,609,608,609,608,609,608,609,608,609,608,609,608,609,608,609,608,609,608,609,608,
621,620,621,620,621,620,621,620,621,620,621,620,621,620,621,620,621,620,621,620,621,620,621,620,621,620,621,620,621,620,621,620,621,620,621,620,621,620,621,620,
609,608,609,608,609,608,609,608,609,608,609,608,609,608,609,608,609,608,609,608,609,608,609,608,609,608,609,608,609,608,609,608,609,608,609,608,609,608,609,608,
621,620,621,620,621,620,621,620,621,620,621,620,621,620,621,620,621,620,621,620,621,620,621,620,621,620,621,620,621,620,621,620,621,620,621,620,621,620,621,620
</data>
 </layer>
 <layer id="2" name="lhidhabl3oulya" width="40" height="70">
  <data encoding="csv">
0,0,0,0,0,0,13,0,0,0,0,0,0,0,0,91,0,0,0,0,0,0,0,0,0,0,0,0,0,0,0,0,0,0,0,0,0,0,0,0,
0,0,0,0,0,13,13,0,0,0,0,13,0,0,0,91,0,0,0,0,0,0,0,0,0,0,0,0,0,0,0,0,0,0,0,0,0,0,0,0,
0,196,0,0,0,0,13,0,0,127,101,101,101,101,101,102,0,0,0,0,0,0,0,0,0,0,0,0,0,0,0,0,0,0,0,0,0,0,0,0,
0,0,0,131,132,0,13,0,186,91,196,0,0,215,330,330,0,0,0,0,186,0,0,0,0,0,0,0,0,0,0,0,0,0,0,0,0,0,0,0,
101,101,101,142,143,101,101,101,101,102,0,0,0,0,0,0,0,0,0,0,0,0,0,0,0,0,0,188,189,0,0,0,0,0,0,0,0,0,0,0,
0,0,0,153,154,0,0,0,0,0,0,0,0,0,0,0,0,0,0,0,0,180,177,0,0,0,0,0,0,0,0,0,0,0,0,0,0,0,0,0,
0,0,0,0,0,0,0,0,0,0,0,0,0,0,0,0,0,0,0,0,0,180,177,178,0,0,0,0,0,0,0,0,0,0,0,0,0,0,0,0,
0,0,0,0,90,0,0,0,0,0,0,0,0,0,0,294,281,281,0,178,179,180,177,179,179,180,0,0,0,0,0,0,0,0,0,0,0,0,0,0,
0,0,0,0,90,0,0,0,0,0,0,0,0,281,281,281,283,281,281,178,179,180,177,179,179,180,0,0,0,0,0,0,0,0,0,0,0,0,0,0,
0,0,0,0,90,0,0,0,0,186,0,0,294,292,294,281,281,282,177,178,179,180,177,177,0,0,0,0,0,0,0,0,0,0,0,0,0,0,0,0,
0,0,0,0,90,0,0,0,0,0,0,281,281,293,281,281,282,282,177,178,179,180,177,178,281,293,293,0,0,0,0,0,0,0,0,0,0,0,0,0,
0,0,0,0,0,0,0,0,0,0,0,292,281,282,281,294,0,180,177,178,179,180,177,178,281,293,281,0,0,0,0,0,0,0,0,0,0,0,0,0,
0,0,196,0,0,0,0,0,0,281,294,283,281,281,281,292,0,180,177,178,179,180,177,0,0,297,281,293,0,0,0,0,0,0,0,0,0,0,0,0,
0,0,0,0,0,0,0,281,281,293,281,281,293,0,0,0,0,0,0,178,179,180,177,0,0,297,297,0,281,281,0,0,0,0,0,0,0,0,0,0,
0,0,0,0,0,0,0,292,282,281,281,292,281,0,0,0,0,0,0,0,0,0,0,0,0,0,0,0,0,281,0,0,0,0,0,0,0,0,0,0,
196,0,196,186,0,0,0,281,281,283,281,281,0,0,0,182,183,0,0,0,0,0,0,0,0,0,0,0,0,0,0,0,0,0,0,0,0,0,0,0,
0,0,0,0,282,281,294,281,281,0,0,0,0,0,0,206,192,0,0,0,0,0,0,0,0,0,0,0,0,0,0,0,0,0,0,0,0,0,0,0,
0,0,281,281,283,281,281,292,281,0,0,0,0,0,0,0,0,0,0,0,0,0,0,0,0,0,0,0,0,0,0,0,0,0,0,0,0,0,0,0,
0,282,283,281,281,281,294,281,0,0,0,0,0,0,196,0,0,0,0,0,0,0,0,0,0,0,0,0,0,0,0,0,0,0,0,0,0,0,0,0,
293,281,292,281,282,0,0,0,0,0,0,0,0,0,0,0,0,0,0,0,0,0,0,0,0,0,0,0,0,0,0,0,0,0,0,0,0,0,0,0,
0,0,0,0,0,0,0,0,0,0,0,0,0,0,0,0,0,0,0,0,0,0,0,0,0,0,0,0,0,0,0,0,0,0,0,0,0,0,0,0,
0,0,0,0,0,0,0,0,0,0,0,0,0,0,0,0,0,0,0,0,0,0,0,0,0,0,0,0,0,0,0,0,0,0,0,0,0,0,0,0,
0,0,0,0,0,0,0,0,0,0,0,0,0,0,0,0,0,0,0,0,0,0,0,0,0,0,0,0,0,0,0,0,0,0,0,0,0,0,0,0,
0,0,0,0,0,0,0,0,0,0,0,0,0,0,0,0,0,0,0,0,0,0,0,0,0,0,0,0,0,0,0,0,0,0,0,0,0,0,0,0,
0,0,0,0,0,0,0,0,0,0,0,0,0,0,0,407,407,407,407,407,407,407,407,0,0,0,0,0,0,0,0,0,0,0,0,0,0,0,0,0,
0,0,0,0,0,0,0,0,407,407,407,407,407,407,407,407,0,0,0,0,0,0,407,407,407,407,407,407,0,0,0,0,0,0,0,0,0,0,0,0,
0,0,0,0,407,407,407,407,407,0,0,0,0,0,0,0,0,0,0,0,0,0,0,0,0,0,0,407,407,407,407,407,0,0,0,0,0,0,0,0,
0,0,407,407,407,0,0,0,0,0,0,0,0,0,0,0,0,0,0,0,0,0,0,0,0,0,0,0,0,0,0,407,0,0,0,0,0,0,0,0,
0,407,407,0,0,0,0,0,0,0,0,0,0,0,0,0,0,0,0,0,0,0,0,0,0,0,0,0,0,0,0,407,407,407,407,0,0,0,179,180,
407,407,0,0,0,0,0,0,0,0,0,0,0,0,0,0,0,0,0,0,0,0,0,0,0,0,0,0,0,0,0,0,0,0,407,407,407,407,407,407,
407,0,0,0,0,0,0,0,0,0,0,0,0,0,0,0,0,0,0,0,0,0,0,0,0,0,0,0,0,0,0,0,0,0,0,0,0,407,407,407,
0,0,0,0,0,0,0,0,0,0,0,0,0,0,0,0,0,0,0,0,0,0,0,0,0,0,0,0,0,0,0,0,0,0,0,0,0,0,0,0,
0,0,0,0,0,0,0,0,0,0,0,0,0,0,0,0,0,0,0,0,0,0,0,0,0,0,0,0,0,0,0,0,0,0,0,0,0,0,0,0,
0,0,0,0,0,0,0,0,0,0,0,0,0,0,0,0,0,0,0,0,0,0,0,0,0,0,0,0,0,0,0,0,0,0,0,0,0,0,0,0,
0,0,0,0,0,0,0,0,0,0,0,0,0,0,0,0,0,0,0,0,0,0,0,0,0,0,0,0,0,0,0,0,0,0,0,0,0,0,0,0,
0,0,0,0,0,0,0,0,0,0,0,0,0,0,0,0,0,0,0,0,0,0,0,0,0,0,0,0,0,0,0,0,0,0,0,0,0,0,0,0,
0,0,0,0,0,0,0,0,0,0,0,0,0,0,0,0,0,0,481,0,0,483,0,0,0,0,0,0,0,0,0,0,0,0,0,0,0,0,0,0,
0,0,0,0,0,0,0,0,0,0,0,0,0,0,0,0,0,0,0,0,0,0,0,0,0,0,0,604,605,604,605,604,605,604,605,604,605,604,605,604,
0,0,0,0,0,0,0,0,0,0,0,0,0,0,0,0,0,0,0,0,0,0,0,0,0,0,0,616,617,616,617,616,617,616,617,616,617,616,617,616,
0,0,0,0,0,0,0,0,0,0,0,0,0,0,0,0,0,0,0,0,0,0,0,0,0,0,0,604,605,604,605,604,605,604,605,604,605,604,605,604,
0,0,0,0,0,0,0,0,0,0,0,0,0,0,0,0,0,0,0,0,0,0,0,0,0,0,0,616,617,616,617,616,617,616,617,616,617,616,617,616,
0,0,0,0,0,0,0,0,0,0,0,0,0,0,0,0,0,0,0,0,0,0,0,0,0,0,0,604,605,604,605,604,605,604,605,604,605,604,605,604,
0,0,0,0,0,0,0,0,0,0,0,0,0,0,0,0,0,0,0,0,0,0,0,0,0,0,0,616,617,616,617,616,617,616,617,616,617,616,617,616,
0,0,0,0,0,0,0,0,0,0,0,0,0,0,0,0,0,0,0,0,0,0,0,0,0,0,0,616,617,616,617,616,617,616,617,616,617,616,617,616,
0,0,0,0,0,0,0,0,0,0,0,0,0,0,0,0,0,0,0,0,0,0,0,0,0,0,0,0,0,0,0,0,0,0,0,0,0,0,0,0,
0,0,0,0,0,0,0,0,0,0,0,0,0,0,0,0,0,0,0,0,0,0,0,0,0,0,0,0,0,0,0,0,0,0,0,0,0,0,0,0,
0,0,0,0,0,0,0,0,0,0,0,0,0,0,0,0,0,0,0,0,0,0,0,0,0,0,0,0,0,0,0,0,0,0,0,0,0,0,0,0,
0,0,0,0,0,0,0,0,0,0,0,0,0,0,0,0,0,0,0,0,0,0,0,0,0,0,0,0,0,0,0,0,0,0,0,0,0,0,0,0,
0,0,0,0,0,0,0,0,0,0,0,0,0,0,0,0,0,0,0,0,0,0,0,0,0,0,0,0,0,0,0,0,0,0,0,0,0,0,0,0,
0,0,0,0,0,0,0,0,0,0,0,0,0,0,0,0,0,0,0,0,0,0,0,0,0,0,0,0,0,0,0,0,0,0,0,0,0,0,0,0,
0,0,0,0,0,0,0,0,0,0,0,0,0,0,0,0,0,0,0,0,0,0,0,0,0,0,0,0,0,0,0,0,0,0,0,0,0,0,0,0,
0,0,0,0,0,0,0,0,0,0,0,0,0,0,0,0,0,0,0,0,0,0,0,0,0,0,0,0,0,0,0,0,0,0,0,0,0,0,0,0,
0,0,0,0,0,0,0,0,0,0,0,0,0,0,0,0,0,0,0,0,0,0,0,0,0,0,0,0,0,0,0,0,0,0,0,0,0,0,0,0,
0,0,0,0,0,0,0,0,0,0,0,0,0,0,0,0,0,0,0,0,0,0,0,0,0,0,310,311,311,311,311,311,311,311,311,311,312,0,0,0,
0,0,0,0,0,0,0,0,0,0,0,0,0,0,0,0,0,0,0,0,0,0,0,0,0,0,0,0,0,0,0,0,0,0,0,0,0,0,0,0,
472,473,474,474,475,502,503,504,475,474,0,0,0,0,0,0,0,0,0,0,0,0,0,0,0,0,0,0,0,0,0,0,0,0,0,0,0,0,0,0,
484,485,486,486,487,514,515,516,487,486,0,0,0,0,0,0,0,0,0,0,0,0,0,0,0,0,0,0,0,0,0,0,0,0,0,0,0,0,0,0,
496,497,498,498,499,0,0,620,499,498,526,0,0,0,0,0,0,0,0,0,0,0,0,0,0,0,0,0,0,0,0,0,0,0,0,0,0,0,0,0,
0,0,0,0,0,0,0,608,609,608,538,539,526,0,0,0,0,0,0,0,0,0,0,0,0,0,0,0,0,0,0,0,0,0,0,0,0,0,0,0,
0,0,0,0,0,0,0,620,621,620,540,540,538,539,0,0,0,0,0,0,0,0,0,0,0,0,0,0,0,0,0,0,0,0,0,0,0,0,0,0,
0,0,0,0,0,0,0,0,0,0,0,0,0,0,0,0,0,0,0,0,0,0,0,0,0,0,0,0,0,0,0,0,0,0,0,0,0,0,0,0,
0,0,0,0,0,0,0,0,0,0,0,0,0,0,0,0,0,0,0,0,0,0,0,0,0,0,0,0,0,0,0,0,0,0,0,0,0,0,0,0,
0,0,0,0,0,0,0,0,0,0,0,0,0,0,0,0,0,0,0,0,0,0,0,0,0,0,0,0,0,0,0,0,0,0,0,0,0,0,0,0,
0,0,0,0,0,0,0,0,0,0,0,574,575,576,0,0,0,0,0,0,0,0,0,0,0,0,0,0,0,0,0,0,0,0,0,0,0,0,0,0,
0,0,0,0,0,0,0,0,0,0,574,587,587,587,0,0,0,0,0,0,0,0,0,0,0,0,0,0,0,0,0,0,0,0,0,0,0,0,0,0,
0,0,0,0,0,0,0,0,0,0,586,587,599,600,0,0,0,0,0,0,0,0,0,0,0,0,0,0,0,0,0,0,0,0,0,0,0,0,0,0,
0,0,0,0,0,0,0,0,0,598,587,588,0,0,0,0,0,0,0,0,0,0,0,0,0,0,0,0,0,0,0,0,0,0,0,0,0,0,0,0,
0,0,0,0,0,0,0,0,0,0,0,0,0,0,0,0,0,0,0,0,0,0,0,0,0,0,0,0,0,0,0,0,0,0,0,0,0,0,0,0,
0,0,0,0,0,0,0,0,0,0,0,0,0,0,0,0,0,0,0,0,0,0,0,0,0,0,0,0,0,0,0,0,0,0,0,0,0,0,0,0,
0,0,0,0,0,0,0,0,0,0,0,0,0,0,0,0,0,0,0,0,0,0,0,0,0,0,0,0,0,0,0,0,0,0,0,0,0,0,0,0
</data>
 </layer>
 <layer id="4" name="hajat" width="40" height="70">
  <data encoding="csv">
0,0,0,0,0,0,0,0,0,0,0,0,0,0,0,0,0,0,0,0,0,0,0,0,0,0,0,0,0,0,0,0,0,0,0,0,0,0,0,0,
0,181,0,0,0,0,0,0,0,0,0,0,0,0,0,0,0,0,0,0,0,0,0,0,0,0,0,0,0,0,0,0,0,0,0,0,0,0,0,0,
0,190,0,0,0,0,0,0,181,0,0,101,182,183,101,102,0,0,0,0,181,0,0,0,0,0,0,0,0,0,0,0,0,0,0,0,0,0,0,0,
0,0,0,0,0,0,0,0,190,0,198,330,191,192,330,330,0,0,0,0,190,0,0,0,0,0,0,182,183,0,0,0,0,0,0,0,0,0,0,0,
0,0,0,0,0,0,0,0,0,0,0,0,0,0,0,0,0,0,0,0,226,287,287,286,228,0,0,191,192,0,0,0,0,0,0,181,0,0,0,0,
0,0,0,0,0,0,0,0,0,0,0,0,0,0,0,0,226,286,286,228,300,248,285,283,295,287,0,0,0,0,0,0,0,0,0,190,0,0,0,0,
0,0,0,0,0,0,0,0,0,0,0,0,0,0,226,286,296,282,283,295,296,0,248,285,283,292,281,0,287,0,0,0,0,0,0,0,0,0,0,0,
0,0,0,0,90,0,0,0,0,0,0,0,226,286,296,0,0,282,283,284,298,0,0,248,298,285,293,292,282,283,0,0,0,0,0,0,0,0,0,0,
0,0,0,0,90,0,0,0,182,183,0,226,296,0,0,0,0,0,0,301,0,225,0,179,224,300,281,281,281,293,0,0,0,0,0,0,0,182,183,0,
0,0,0,0,90,0,0,0,191,192,0,296,0,0,0,0,0,0,298,250,0,0,0,0,282,282,292,283,292,282,0,0,0,0,0,0,0,191,192,0,
0,0,0,0,90,0,0,0,0,0,0,0,0,0,0,0,0,305,311,306,306,306,306,306,307,294,281,281,294,281,0,0,0,0,0,0,0,0,0,0,
0,0,0,0,0,0,0,0,226,286,198,0,0,0,0,0,282,0,0,222,223,0,0,0,0,0,0,283,294,281,0,0,0,0,0,0,0,0,0,0,
0,0,197,0,0,0,226,286,296,0,0,0,0,0,0,0,282,287,287,228,0,224,289,283,282,293,0,292,281,292,0,0,0,0,0,0,0,0,0,0,
0,0,0,0,0,0,300,0,0,0,0,0,0,284,298,298,285,281,281,295,287,287,296,281,293,293,284,285,0,282,0,0,0,0,0,0,0,0,0,0,
0,0,182,183,0,0,300,0,0,0,0,0,0,301,0,0,248,285,281,282,281,281,281,281,284,249,250,248,285,0,0,0,0,0,0,0,0,0,0,0,
197,0,191,192,286,286,296,0,0,0,0,0,284,250,0,182,183,248,298,298,285,293,281,284,215,0,0,0,248,298,0,0,0,0,0,0,0,0,0,0,
0,226,286,296,0,0,0,0,0,284,298,298,250,0,0,191,192,0,0,0,248,297,249,250,0,0,0,182,183,0,0,0,0,0,0,0,0,0,0,0,
226,296,0,0,0,0,0,0,0,290,0,0,0,0,0,0,0,0,0,13,0,0,0,0,203,0,0,191,192,0,0,0,0,0,0,0,0,0,0,0,
296,0,0,0,0,0,0,0,284,250,215,0,0,0,204,0,0,0,0,0,0,0,219,220,221,0,0,0,0,0,0,0,0,0,0,0,0,0,0,0,
0,0,0,0,0,284,298,298,250,0,0,0,0,0,0,0,0,0,0,0,0,0,0,0,0,0,0,0,0,0,0,0,0,0,0,0,0,0,0,0,
0,0,0,0,0,0,0,0,0,0,0,0,0,0,0,0,0,0,0,0,0,0,0,0,0,0,0,0,0,0,0,0,0,0,0,0,0,0,0,0,
0,451,0,0,0,0,0,0,0,0,0,0,0,0,0,0,0,0,0,0,0,0,0,0,0,0,0,0,0,0,182,183,0,0,0,0,0,0,0,0,
0,461,0,13,13,0,0,0,0,0,0,0,0,0,0,0,226,287,287,287,287,287,228,0,0,0,0,0,0,0,191,192,0,0,0,0,0,0,0,0,
0,13,13,0,0,0,0,0,0,226,287,287,287,287,287,287,296,407,407,407,407,407,295,287,287,287,287,287,228,0,0,0,0,0,0,181,0,0,0,0,
13,13,0,0,226,287,287,287,287,296,407,407,407,407,407,407,407,0,0,303,303,0,407,407,407,407,407,407,295,286,286,228,0,0,0,190,0,0,0,0,
13,13,226,287,296,407,407,407,407,407,0,0,0,0,0,0,0,0,0,308,308,0,0,0,0,0,0,0,407,407,407,295,228,0,0,0,0,0,0,0,
226,287,296,407,407,0,0,0,0,0,0,0,0,0,0,0,0,0,0,308,308,0,0,0,0,0,0,0,0,0,0,407,295,287,287,287,228,0,0,0,
296,407,407,0,0,0,0,0,0,0,0,0,0,0,0,0,0,0,0,308,308,0,0,0,0,0,0,0,0,0,0,407,407,407,407,407,295,287,287,287,
407,0,0,0,0,0,0,0,0,0,0,0,0,0,0,0,0,0,0,308,308,0,0,0,0,0,0,0,0,0,0,0,0,0,0,407,407,407,407,407,
0,0,0,0,0,0,0,0,0,0,0,0,0,0,0,0,0,0,0,308,308,0,0,0,0,0,0,0,0,0,0,0,0,0,0,0,0,0,0,0,
0,0,0,0,0,0,0,0,0,0,0,0,0,0,0,0,0,0,0,308,308,0,0,0,0,0,0,0,0,0,0,0,0,0,0,0,0,0,0,0,
0,0,0,0,0,0,0,0,0,0,0,0,0,0,0,0,0,0,0,308,308,0,0,0,0,0,0,0,0,0,0,0,0,0,0,0,0,0,0,0,
0,0,0,0,0,0,0,0,0,0,0,0,0,0,0,0,0,0,0,308,308,0,0,0,0,0,0,0,0,0,0,0,0,0,0,0,0,0,0,0,
0,0,0,0,0,0,0,0,0,0,0,0,0,0,0,0,0,0,0,313,313,0,0,0,0,0,0,0,0,0,0,0,0,0,0,0,0,0,0,0,
0,0,0,0,0,0,0,0,0,0,0,0,0,0,0,0,0,0,551,0,0,551,0,0,0,0,0,0,0,0,0,0,0,0,0,0,0,0,0,0,
0,0,0,0,0,0,0,0,0,0,0,0,0,0,0,0,0,0,615,0,0,615,0,0,0,0,0,0,0,0,0,0,0,0,0,0,0,0,0,0,
481,482,483,481,482,483,481,482,483,481,482,483,481,482,483,481,482,483,615,0,0,615,481,482,483,481,482,483,481,482,483,481,482,483,481,482,483,481,482,483,
0,0,0,0,0,0,0,0,0,0,0,0,0,0,0,0,0,0,626,0,0,627,0,0,0,0,568,0,0,0,0,0,0,0,0,0,0,0,0,0,
0,0,0,0,0,0,527,0,0,0,0,0,0,0,0,0,0,0,0,0,0,0,0,0,0,0,568,0,0,0,0,0,0,0,0,0,0,0,0,0,
0,0,0,0,0,0,0,0,0,0,0,0,0,0,0,0,0,0,0,0,0,0,0,0,0,0,568,0,0,0,0,0,0,0,0,0,0,0,0,0,
0,0,0,0,0,0,0,0,0,0,0,0,0,0,0,0,0,0,0,0,0,0,0,0,0,0,568,0,0,0,0,0,0,0,0,0,0,0,0,0,
0,0,0,527,0,0,0,0,0,0,0,0,0,0,0,0,0,0,0,0,0,0,0,0,0,0,568,0,0,0,0,0,0,0,0,0,0,0,0,0,
0,0,0,0,0,551,0,0,0,0,0,0,0,0,0,0,0,0,0,0,0,0,0,0,0,0,568,0,0,0,0,0,0,0,0,0,0,0,0,0,
0,0,551,0,0,563,0,0,0,0,0,0,0,0,0,0,0,0,0,0,0,0,0,0,0,0,592,594,596,594,0,0,0,0,0,596,593,596,593,597,
0,0,563,0,551,590,0,0,0,527,0,0,0,0,0,0,0,0,0,0,0,0,0,0,0,0,0,0,0,578,0,0,0,0,0,566,0,0,0,0,
0,0,578,0,563,0,0,0,0,0,0,0,0,0,0,0,0,0,0,0,0,0,0,0,0,0,0,0,0,0,0,0,0,0,0,527,0,0,0,0,
0,0,0,0,0,0,0,0,0,0,0,0,0,0,0,0,0,0,0,0,0,0,0,0,0,0,0,0,0,0,0,0,0,0,0,0,0,0,0,0,
472,473,474,473,473,474,474,473,473,477,0,0,0,0,0,0,0,0,0,0,0,0,0,0,0,0,0,0,527,0,0,0,0,0,0,0,0,0,0,0,
484,485,486,485,485,486,486,485,485,489,0,0,0,0,527,0,0,0,0,0,0,0,0,0,0,0,0,0,0,0,0,0,0,0,0,0,0,0,0,0,
496,497,498,497,497,498,498,497,497,501,0,0,0,0,0,0,0,0,0,0,527,0,0,0,0,0,0,0,0,0,0,0,0,0,0,0,0,0,0,0,
568,0,0,0,0,0,0,0,0,573,0,0,0,0,0,0,0,0,0,0,0,0,0,0,0,0,0,0,0,0,0,0,0,0,0,0,0,0,0,0,
568,0,0,0,0,0,0,0,0,573,0,0,0,0,0,0,0,0,0,0,0,0,0,0,0,0,0,0,0,0,0,0,0,0,0,0,0,0,0,0,
568,0,0,0,0,0,0,0,0,573,0,0,0,0,0,0,0,0,0,0,0,0,0,0,0,0,0,0,0,0,0,0,0,0,0,0,0,0,0,0,
568,0,0,0,0,0,0,0,0,573,0,0,0,0,0,0,0,0,0,0,0,0,0,0,0,0,0,0,0,0,0,0,0,0,0,0,0,0,0,0,
580,0,0,0,0,0,0,0,0,585,0,0,0,0,0,0,0,0,0,0,0,0,0,0,0,0,0,0,0,0,0,0,0,0,0,0,0,0,0,0,
0,0,0,0,0,0,0,0,0,0,0,0,0,0,0,0,0,0,0,0,0,0,0,0,0,0,0,0,0,0,0,0,0,0,0,0,0,0,0,0,
0,0,0,552,0,0,0,0,0,0,0,0,0,0,0,0,0,0,0,0,0,0,0,0,0,0,0,0,0,0,0,0,0,0,0,0,0,0,0,0,
0,0,0,564,566,0,0,0,590,0,621,0,0,527,0,0,0,0,0,0,0,0,0,0,0,0,0,0,0,0,0,0,0,0,0,0,0,527,0,0,
0,608,609,608,609,608,609,608,609,608,609,608,609,608,609,0,0,0,0,0,0,0,527,0,0,0,0,0,0,0,0,0,0,0,0,0,0,0,0,0,
0,620,621,620,621,620,621,620,621,620,621,620,621,620,621,0,0,0,0,0,0,0,0,0,0,0,0,0,0,0,0,0,0,0,0,0,0,0,0,0,
0,0,0,0,0,0,0,0,0,0,0,0,0,0,0,0,0,0,0,0,0,0,0,0,0,0,0,0,0,0,0,0,0,0,0,0,0,0,0,0,
0,0,0,0,0,0,0,0,0,0,0,0,0,0,0,0,0,0,0,0,0,0,0,0,0,0,0,0,0,527,0,0,0,0,0,0,0,0,0,0,
0,0,527,0,0,0,0,0,0,527,0,0,0,0,0,0,0,0,0,0,0,0,0,0,0,0,0,0,0,0,0,0,0,0,0,0,0,0,0,0,
0,0,0,0,0,0,0,0,0,0,0,0,0,0,0,0,0,0,0,0,0,0,0,0,0,0,0,0,0,0,0,0,0,0,0,0,0,0,0,0,
0,0,0,0,0,0,0,0,0,0,0,0,0,0,0,0,0,0,0,0,0,0,0,0,0,0,0,0,0,0,551,0,527,0,0,0,0,0,0,0,
0,0,0,0,0,0,0,0,0,0,0,0,0,0,0,0,0,0,0,0,0,0,0,0,0,0,0,0,0,0,563,0,0,0,0,0,0,0,0,0,
0,0,0,0,0,0,0,0,0,0,0,0,0,0,0,0,0,0,0,0,0,0,0,0,0,0,0,0,0,0,0,0,590,551,0,0,0,0,0,0,
0,0,0,0,0,0,0,0,0,0,0,527,0,0,0,0,0,0,0,0,0,0,0,527,0,0,0,0,0,565,0,0,0,563,0,0,0,0,0,0,
0,0,0,0,527,0,0,0,0,0,0,0,0,0,0,0,0,0,0,0,0,0,0,0,0,0,0,0,0,0,551,0,0,0,0,0,0,0,0,0,
0,0,0,0,0,0,0,0,0,0,0,0,0,0,0,0,0,0,0,0,0,0,0,0,0,0,0,0,0,578,563,0,0,0,0,0,0,0,0,0
</data>
 </layer>
 <objectgroup id="5" name="spawn_point">
  <object id="2689" x="534.5" y="103">
   <properties>
    <property name="enemy_type" value="RollingPinGiraffe"/>
    <property name="spawn_rate" type="int" value="6"/>
    <property name="spawn_type" value="random"/>
   </properties>
   <point/>
  </object>
  <object id="2690" x="600" y="263.5">
   <properties>
    <property name="enemy_type" value="RollingPinGiraffe"/>
    <property name="spawn_rate" type="int" value="6"/>
    <property name="spawn_type" value="random"/>
   </properties>
   <point/>
  </object>
  <object id="2691" x="119" y="293.5">
   <properties>
    <property name="enemy_type" value="WhiskGiraffe"/>
    <property name="spawn_rate" type="int" value="6"/>
    <property name="spawn_type" value="random"/>
   </properties>
   <point/>
  </object>
  <object id="2692" x="69" y="152.5">
   <properties>
    <property name="enemy_type" value="RollingPingiraffe"/>
    <property name="spawn_rate" type="int" value="6"/>
    <property name="spawn_type" value="random"/>
   </properties>
   <point/>
  </object>
  <object id="2693" x="71.5" y="51.5">
   <properties>
    <property name="enemy_type" value="RollingPingiraffe"/>
    <property name="spawn_rate" type="int" value="6"/>
    <property name="spawn_type" value="random"/>
   </properties>
   <point/>
  </object>
  <object id="2694" x="326.5" y="292.5">
   <properties>
    <property name="enemy_type" value="WhiskGiraffe"/>
    <property name="spawn_rate" type="int" value="6"/>
    <property name="spawn_type" value="random"/>
   </properties>
   <point/>
  </object>
  <object id="2695" x="455" y="184">
   <properties>
    <property name="enemy_type" value="PanGiraffe"/>
    <property name="spawn_rate" type="int" value="6"/>
    <property name="spawn_type" value="random"/>
   </properties>
   <point/>
  </object>
  <object id="2696" x="553.5" y="629.5">
   <properties>
    <property name="enemy_type" value="RollingPinGiraffe"/>
    <property name="spawn_rate" type="int" value="5"/>
    <property name="spawn_type" value="random"/>
   </properties>
   <point/>
  </object>
  <object id="2697" x="24.5" y="632.5">
   <properties>
    <property name="enemy_type" value="RollingPinGiraffe"/>
    <property name="spawn_rate" type="int" value="5"/>
    <property name="spawn_type" value="random"/>
   </properties>
   <point/>
  </object>
  <object id="2698" x="199" y="680.5">
   <properties>
    <property name="enemy_type" value="WhiskGiraffe"/>
    <property name="spawn_rate" type="int" value="5"/>
    <property name="spawn_type" value="random"/>
   </properties>
   <point/>
  </object>
  <object id="2700" x="376" y="727.5">
   <properties>
    <property name="enemy_type" value="WhiskGiraffe"/>
    <property name="spawn_rate" type="int" value="5"/>
    <property name="spawn_type" value="random"/>
   </properties>
   <point/>
  </object>
  <object id="2701" x="198" y="807">
   <properties>
    <property name="enemy_type" value="PanGiraffe"/>
    <property name="spawn_rate" type="int" value="5"/>
    <property name="spawn_type" value="random"/>
   </properties>
   <point/>
  </object>
  <object id="2702" x="296" y="906">
   <properties>
    <property name="enemy_type" value="RollingPinGiraffe"/>
    <property name="spawn_rate" type="int" value="5"/>
    <property name="spawn_type" value="random"/>
   </properties>
   <point/>
  </object>
  <object id="2703" x="293.5" y="1018.5">
   <properties>
    <property name="enemy_type" value="WhiskGiraffe"/>
    <property name="spawn_rate" type="int" value="5"/>
    <property name="spawn_type" value="random"/>
   </properties>
   <point/>
  </object>
  <object id="2704" x="552.667" y="968.667">
   <properties>
    <property name="enemy_type" value="PanGiraffe"/>
    <property name="spawn_rate" type="int" value="5"/>
    <property name="spawn_type" value="random"/>
   </properties>
   <point/>
  </object>
  <object id="2705" x="616" y="824">
   <properties>
    <property name="enemy_type" value="PanGiraffe"/>
    <property name="spawn_rate" type="int" value="5"/>
    <property name="spawn_type" value="random"/>
   </properties>
   <point/>
  </object>
  <object id="2706" x="53.3333" y="1028.67">
   <properties>
    <property name="enemy_type" value="PanGiraffe"/>
    <property name="spawn_rate" type="int" value="5"/>
    <property name="spawn_type" value="random"/>
   </properties>
   <point/>
  </object>
  <object id="2707" x="424.667" y="809.333">
   <properties>
    <property name="enemy_type" value="WhiskGiraffe"/>
    <property name="spawn_rate" type="int" value="5"/>
    <property name="spawn_type" value="random"/>
   </properties>
   <point/>
  </object>
  <object id="2708" x="600" y="1047.33">
   <properties>
    <property name="enemy_type" value="RollingWhiskGiraffe"/>
    <property name="spawn_rate" type="int" value="5"/>
    <property name="spawn_type" value="random"/>
   </properties>
   <point/>
  </object>
 </objectgroup>
 <objectgroup id="6" name="buildings" locked="1">
  <object id="71" x="0.173122" y="-0.0692302" width="14.6589" height="14.6589">
   <properties>
    <property name="building_type" value="empty"/>
    <property name="can_build" type="bool" value="true"/>
    <property name="is_starting_building" type="bool" value="false"/>
   </properties>
  </object>
  <object id="116" x="-0.196763" y="48.3857" width="14.6589" height="14.6589">
   <properties>
    <property name="building_type" value="empty"/>
    <property name="can_build" type="bool" value="true"/>
    <property name="is_starting_building" type="bool" value="false"/>
   </properties>
  </object>
  <object id="125" x="0.438467" y="96.4759" width="14.6589" height="14.6589">
   <properties>
    <property name="building_type" value="empty"/>
    <property name="can_build" type="bool" value="true"/>
    <property name="is_starting_building" type="bool" value="false"/>
   </properties>
  </object>
  <object id="134" x="-0.566648" y="144.556" width="14.6589" height="14.6589">
   <properties>
    <property name="building_type" value="empty"/>
    <property name="can_build" type="bool" value="true"/>
    <property name="is_starting_building" type="bool" value="false"/>
   </properties>
  </object>
  <object id="143" x="-0.196763" y="193.751" width="14.6589" height="14.6589">
   <properties>
    <property name="building_type" value="empty"/>
    <property name="can_build" type="bool" value="true"/>
    <property name="is_starting_building" type="bool" value="false"/>
   </properties>
  </object>
  <object id="161" x="0.543007" y="288.441" width="14.6589" height="14.6589">
   <properties>
    <property name="building_type" value="empty"/>
    <property name="can_build" type="bool" value="true"/>
    <property name="is_starting_building" type="bool" value="false"/>
   </properties>
  </object>
  <object id="170" x="48.998" y="272.536" width="14.6589" height="14.6589">
   <properties>
    <property name="building_type" value="empty"/>
    <property name="can_build" type="bool" value="true"/>
    <property name="is_starting_building" type="bool" value="false"/>
   </properties>
  </object>
  <object id="205" x="193.623" y="272.536" width="14.6589" height="14.6589">
   <properties>
    <property name="building_type" value="empty"/>
    <property name="can_build" type="bool" value="true"/>
    <property name="is_starting_building" type="bool" value="false"/>
   </properties>
  </object>
  <object id="223" x="289.053" y="272.536" width="14.6589" height="14.6589">
   <properties>
    <property name="building_type" value="empty"/>
    <property name="can_build" type="bool" value="true"/>
    <property name="is_starting_building" type="bool" value="false"/>
   </properties>
  </object>
  <object id="179" x="96.3433" y="272.536" width="14.6589" height="14.6589">
   <properties>
    <property name="building_type" value="empty"/>
    <property name="can_build" type="bool" value="true"/>
    <property name="is_starting_building" type="bool" value="false"/>
   </properties>
  </object>
  <object id="204" x="240.968" y="272.536" width="14.6589" height="14.6589">
   <properties>
    <property name="building_type" value="empty"/>
    <property name="can_build" type="bool" value="true"/>
    <property name="is_starting_building" type="bool" value="false"/>
   </properties>
  </object>
  <object id="222" x="336.399" y="272.536" width="14.6589" height="14.6589">
   <properties>
    <property name="building_type" value="empty"/>
    <property name="can_build" type="bool" value="true"/>
    <property name="is_starting_building" type="bool" value="false"/>
   </properties>
  </object>
  <object id="188" x="145.168" y="272.536" width="14.6589" height="14.6589">
   <properties>
    <property name="building_type" value="empty"/>
    <property name="can_build" type="bool" value="true"/>
    <property name="is_starting_building" type="bool" value="false"/>
   </properties>
  </object>
  <object id="72" x="0.778135" y="16.5756" width="14.6589" height="14.6589">
   <properties>
    <property name="building_type" value="empty"/>
    <property name="can_build" type="bool" value="true"/>
    <property name="is_starting_building" type="bool" value="false"/>
   </properties>
  </object>
  <object id="122" x="-0.33152" y="112.746" width="14.6589" height="14.6589">
   <properties>
    <property name="building_type" value="empty"/>
    <property name="can_build" type="bool" value="true"/>
    <property name="is_starting_building" type="bool" value="false"/>
   </properties>
  </object>
  <object id="131" x="0.0383651" y="161.201" width="14.6589" height="14.6589">
   <properties>
    <property name="building_type" value="empty"/>
    <property name="can_build" type="bool" value="true"/>
    <property name="is_starting_building" type="bool" value="false"/>
   </properties>
  </object>
  <object id="140" x="1.14802" y="209.286" width="14.6589" height="14.6589">
   <properties>
    <property name="building_type" value="empty"/>
    <property name="can_build" type="bool" value="true"/>
    <property name="is_starting_building" type="bool" value="false"/>
   </properties>
  </object>
  <object id="149" x="0.40825" y="257.371" width="14.6589" height="14.6589">
   <properties>
    <property name="building_type" value="empty"/>
    <property name="can_build" type="bool" value="true"/>
    <property name="is_starting_building" type="bool" value="false"/>
   </properties>
  </object>
  <object id="158" x="1.14802" y="305.086" width="14.6589" height="14.6589">
   <properties>
    <property name="building_type" value="empty"/>
    <property name="can_build" type="bool" value="true"/>
    <property name="is_starting_building" type="bool" value="false"/>
   </properties>
  </object>
  <object id="167" x="49.603" y="289.181" width="14.6589" height="14.6589">
   <properties>
    <property name="building_type" value="empty"/>
    <property name="can_build" type="bool" value="true"/>
    <property name="is_starting_building" type="bool" value="false"/>
   </properties>
  </object>
  <object id="199" x="194.228" y="288.848" width="14.6589" height="14.6589">
   <properties>
    <property name="building_type" value="empty"/>
    <property name="can_build" type="bool" value="true"/>
    <property name="is_starting_building" type="bool" value="false"/>
   </properties>
  </object>
  <object id="217" x="289.658" y="289.181" width="14.6589" height="14.6589">
   <properties>
    <property name="building_type" value="empty"/>
    <property name="can_build" type="bool" value="true"/>
    <property name="is_starting_building" type="bool" value="false"/>
   </properties>
  </object>
  <object id="176" x="96.9483" y="289.181" width="14.6589" height="14.6589">
   <properties>
    <property name="building_type" value="empty"/>
    <property name="can_build" type="bool" value="true"/>
    <property name="is_starting_building" type="bool" value="false"/>
   </properties>
  </object>
  <object id="198" x="241.573" y="289.181" width="14.6589" height="14.6589">
   <properties>
    <property name="building_type" value="empty"/>
    <property name="can_build" type="bool" value="true"/>
    <property name="is_starting_building" type="bool" value="false"/>
   </properties>
  </object>
  <object id="216" x="337.004" y="289.181" width="14.6589" height="14.6589">
   <properties>
    <property name="building_type" value="empty"/>
    <property name="can_build" type="bool" value="true"/>
    <property name="is_starting_building" type="bool" value="false"/>
   </properties>
  </object>
  <object id="234" x="432.064" y="288.811" width="14.6589" height="14.6589">
   <properties>
    <property name="building_type" value="empty"/>
    <property name="can_build" type="bool" value="true"/>
    <property name="is_starting_building" type="bool" value="false"/>
   </properties>
  </object>
  <object id="185" x="145.403" y="289.181" width="14.6589" height="14.6589">
   <properties>
    <property name="building_type" value="empty"/>
    <property name="can_build" type="bool" value="true"/>
    <property name="is_starting_building" type="bool" value="false"/>
   </properties>
  </object>
  <object id="73" x="32.3915" y="0.300655" width="14.6589" height="14.6589">
   <properties>
    <property name="building_type" value="empty"/>
    <property name="can_build" type="bool" value="true"/>
    <property name="is_starting_building" type="bool" value="false"/>
   </properties>
  </object>
  <object id="115" x="32.0216" y="48.7556" width="14.6589" height="14.6589">
   <properties>
    <property name="building_type" value="empty"/>
    <property name="can_build" type="bool" value="true"/>
    <property name="is_starting_building" type="bool" value="false"/>
   </properties>
  </object>
  <object id="124" x="31.9068" y="96.5958" width="14.6589" height="14.6589">
   <properties>
    <property name="building_type" value="empty"/>
    <property name="can_build" type="bool" value="true"/>
    <property name="is_starting_building" type="bool" value="false"/>
   </properties>
  </object>
  <object id="133" x="31.6517" y="144.926" width="14.6589" height="14.6589">
   <properties>
    <property name="building_type" value="empty"/>
    <property name="can_build" type="bool" value="true"/>
    <property name="is_starting_building" type="bool" value="false"/>
   </properties>
  </object>
  <object id="160" x="32.7614" y="288.811" width="14.6589" height="14.6589">
   <properties>
    <property name="building_type" value="empty"/>
    <property name="can_build" type="bool" value="true"/>
    <property name="is_starting_building" type="bool" value="false"/>
   </properties>
  </object>
  <object id="169" x="81.2163" y="272.906" width="14.6589" height="14.6589">
   <properties>
    <property name="building_type" value="empty"/>
    <property name="can_build" type="bool" value="true"/>
    <property name="is_starting_building" type="bool" value="false"/>
   </properties>
  </object>
  <object id="203" x="225.841" y="272.906" width="14.6589" height="14.6589">
   <properties>
    <property name="building_type" value="empty"/>
    <property name="can_build" type="bool" value="true"/>
    <property name="is_starting_building" type="bool" value="false"/>
   </properties>
  </object>
  <object id="239" x="416.332" y="272.536" width="14.6589" height="14.6589">
   <properties>
    <property name="building_type" value="empty"/>
    <property name="can_build" type="bool" value="true"/>
    <property name="is_starting_building" type="bool" value="false"/>
   </properties>
  </object>
  <object id="178" x="128.562" y="272.906" width="14.6589" height="14.6589">
   <properties>
    <property name="building_type" value="empty"/>
    <property name="can_build" type="bool" value="true"/>
    <property name="is_starting_building" type="bool" value="false"/>
   </properties>
  </object>
  <object id="202" x="273.187" y="272.906" width="14.6589" height="14.6589">
   <properties>
    <property name="building_type" value="empty"/>
    <property name="can_build" type="bool" value="true"/>
    <property name="is_starting_building" type="bool" value="false"/>
   </properties>
  </object>
  <object id="220" x="368.617" y="272.906" width="14.6589" height="14.6589">
   <properties>
    <property name="building_type" value="empty"/>
    <property name="can_build" type="bool" value="true"/>
    <property name="is_starting_building" type="bool" value="false"/>
   </properties>
  </object>
  <object id="238" x="463.678" y="272.536" width="14.6589" height="14.6589">
   <properties>
    <property name="building_type" value="empty"/>
    <property name="can_build" type="bool" value="true"/>
    <property name="is_starting_building" type="bool" value="false"/>
   </properties>
  </object>
  <object id="187" x="177.386" y="272.906" width="14.6589" height="14.6589">
   <properties>
    <property name="building_type" value="empty"/>
    <property name="can_build" type="bool" value="true"/>
    <property name="is_starting_building" type="bool" value="false"/>
   </properties>
  </object>
  <object id="111" x="16.7018" y="80.4717" width="14.6589" height="14.6589">
   <properties>
    <property name="building_type" value="empty"/>
    <property name="can_build" type="bool" value="true"/>
    <property name="is_starting_building" type="bool" value="false"/>
   </properties>
  </object>
  <object id="120" x="15.087" y="128.312" width="14.6589" height="14.6589">
   <properties>
    <property name="building_type" value="empty"/>
    <property name="can_build" type="bool" value="true"/>
    <property name="is_starting_building" type="bool" value="false"/>
   </properties>
  </object>
  <object id="129" x="15.4569" y="176.767" width="14.6589" height="14.6589">
   <properties>
    <property name="building_type" value="empty"/>
    <property name="can_build" type="bool" value="true"/>
    <property name="is_starting_building" type="bool" value="false"/>
   </properties>
  </object>
  <object id="138" x="16.5665" y="224.852" width="14.6589" height="14.6589">
   <properties>
    <property name="building_type" value="empty"/>
    <property name="can_build" type="bool" value="true"/>
    <property name="is_starting_building" type="bool" value="false"/>
   </properties>
  </object>
  <object id="147" x="15.8268" y="272.937" width="14.6589" height="14.6589">
   <properties>
    <property name="building_type" value="empty"/>
    <property name="can_build" type="bool" value="true"/>
    <property name="is_starting_building" type="bool" value="false"/>
   </properties>
  </object>
  <object id="165" x="65.0215" y="304.747" width="14.6589" height="14.6589">
   <properties>
    <property name="building_type" value="empty"/>
    <property name="can_build" type="bool" value="true"/>
    <property name="is_starting_building" type="bool" value="false"/>
   </properties>
  </object>
  <object id="195" x="209.647" y="304.747" width="14.6589" height="14.6589">
   <properties>
    <property name="building_type" value="empty"/>
    <property name="can_build" type="bool" value="true"/>
    <property name="is_starting_building" type="bool" value="false"/>
   </properties>
  </object>
  <object id="213" x="305.077" y="304.747" width="14.6589" height="14.6589">
   <properties>
    <property name="building_type" value="empty"/>
    <property name="can_build" type="bool" value="true"/>
    <property name="is_starting_building" type="bool" value="false"/>
   </properties>
  </object>
  <object id="231" x="400.137" y="304.377" width="14.6589" height="14.6589">
   <properties>
    <property name="building_type" value="empty"/>
    <property name="can_build" type="bool" value="true"/>
    <property name="is_starting_building" type="bool" value="false"/>
   </properties>
  </object>
  <object id="174" x="112.367" y="304.747" width="14.6589" height="14.6589">
   <properties>
    <property name="building_type" value="empty"/>
    <property name="can_build" type="bool" value="true"/>
    <property name="is_starting_building" type="bool" value="false"/>
   </properties>
  </object>
  <object id="193" x="256.992" y="304.747" width="14.6589" height="14.6589">
   <properties>
    <property name="building_type" value="empty"/>
    <property name="can_build" type="bool" value="true"/>
    <property name="is_starting_building" type="bool" value="false"/>
   </properties>
  </object>
  <object id="211" x="352.422" y="304.747" width="14.6589" height="14.6589">
   <properties>
    <property name="building_type" value="empty"/>
    <property name="can_build" type="bool" value="true"/>
    <property name="is_starting_building" type="bool" value="false"/>
   </properties>
  </object>
  <object id="229" x="447.483" y="304.377" width="14.6589" height="14.6589">
   <properties>
    <property name="building_type" value="empty"/>
    <property name="can_build" type="bool" value="true"/>
    <property name="is_starting_building" type="bool" value="false"/>
   </properties>
  </object>
  <object id="183" x="161.192" y="304.747" width="14.6589" height="14.6589">
   <properties>
    <property name="building_type" value="empty"/>
    <property name="can_build" type="bool" value="true"/>
    <property name="is_starting_building" type="bool" value="false"/>
   </properties>
  </object>
  <object id="75" x="32.4897" y="32.5117" width="14.6589" height="14.6589">
   <properties>
    <property name="building_type" value="empty"/>
    <property name="can_build" type="bool" value="true"/>
    <property name="is_starting_building" type="bool" value="false"/>
   </properties>
  </object>
  <object id="118" x="31.3801" y="128.682" width="14.6589" height="14.6589">
   <properties>
    <property name="building_type" value="empty"/>
    <property name="can_build" type="bool" value="true"/>
    <property name="is_starting_building" type="bool" value="false"/>
   </properties>
  </object>
  <object id="127" x="31.7499" y="177.137" width="14.6589" height="14.6589">
   <properties>
    <property name="building_type" value="empty"/>
    <property name="can_build" type="bool" value="true"/>
    <property name="is_starting_building" type="bool" value="false"/>
   </properties>
  </object>
  <object id="145" x="32.1198" y="273.307" width="14.6589" height="14.6589">
   <properties>
    <property name="building_type" value="empty"/>
    <property name="can_build" type="bool" value="true"/>
    <property name="is_starting_building" type="bool" value="false"/>
   </properties>
  </object>
  <object id="163" x="81.3146" y="305.117" width="14.6589" height="14.6589">
   <properties>
    <property name="building_type" value="empty"/>
    <property name="can_build" type="bool" value="true"/>
    <property name="is_starting_building" type="bool" value="false"/>
   </properties>
  </object>
  <object id="191" x="225.94" y="305.117" width="14.6589" height="14.6589">
   <properties>
    <property name="building_type" value="empty"/>
    <property name="can_build" type="bool" value="true"/>
    <property name="is_starting_building" type="bool" value="false"/>
   </properties>
  </object>
  <object id="209" x="321.37" y="305.117" width="14.6589" height="14.6589">
   <properties>
    <property name="building_type" value="empty"/>
    <property name="can_build" type="bool" value="true"/>
    <property name="is_starting_building" type="bool" value="false"/>
   </properties>
  </object>
  <object id="227" x="416.431" y="304.747" width="14.6589" height="14.6589">
   <properties>
    <property name="building_type" value="empty"/>
    <property name="can_build" type="bool" value="true"/>
    <property name="is_starting_building" type="bool" value="false"/>
   </properties>
  </object>
  <object id="172" x="128.66" y="305.117" width="14.6589" height="14.6589">
   <properties>
    <property name="building_type" value="empty"/>
    <property name="can_build" type="bool" value="true"/>
    <property name="is_starting_building" type="bool" value="false"/>
   </properties>
  </object>
  <object id="190" x="273.285" y="305.117" width="14.6589" height="14.6589">
   <properties>
    <property name="building_type" value="empty"/>
    <property name="can_build" type="bool" value="true"/>
    <property name="is_starting_building" type="bool" value="false"/>
   </properties>
  </object>
  <object id="208" x="368.715" y="305.117" width="14.6589" height="14.6589">
   <properties>
    <property name="building_type" value="empty"/>
    <property name="can_build" type="bool" value="true"/>
    <property name="is_starting_building" type="bool" value="false"/>
   </properties>
  </object>
  <object id="226" x="463.776" y="304.747" width="14.6589" height="14.6589">
   <properties>
    <property name="building_type" value="empty"/>
    <property name="can_build" type="bool" value="true"/>
    <property name="is_starting_building" type="bool" value="false"/>
   </properties>
  </object>
  <object id="181" x="177.485" y="304.747" width="14.6589" height="14.6589">
   <properties>
    <property name="building_type" value="empty"/>
    <property name="can_build" type="bool" value="true"/>
    <property name="is_starting_building" type="bool" value="false"/>
   </properties>
  </object>
  <object id="76" x="0.759708" y="32.1418" width="14.6589" height="14.6589">
   <properties>
    <property name="building_type" value="empty"/>
    <property name="can_build" type="bool" value="true"/>
    <property name="is_starting_building" type="bool" value="false"/>
   </properties>
  </object>
  <object id="110" x="0.389823" y="80.5967" width="14.6589" height="14.6589">
   <properties>
    <property name="building_type" value="empty"/>
    <property name="can_build" type="bool" value="true"/>
    <property name="is_starting_building" type="bool" value="false"/>
   </properties>
  </object>
  <object id="119" x="-0.349948" y="128.312" width="14.6589" height="14.6589">
   <properties>
    <property name="building_type" value="empty"/>
    <property name="can_build" type="bool" value="true"/>
    <property name="is_starting_building" type="bool" value="false"/>
   </properties>
  </object>
  <object id="128" x="0.0199375" y="176.767" width="14.6589" height="14.6589">
   <properties>
    <property name="building_type" value="empty"/>
    <property name="can_build" type="bool" value="true"/>
    <property name="is_starting_building" type="bool" value="false"/>
   </properties>
  </object>
  <object id="137" x="1.12959" y="224.852" width="14.6589" height="14.6589">
   <properties>
    <property name="building_type" value="empty"/>
    <property name="can_build" type="bool" value="true"/>
    <property name="is_starting_building" type="bool" value="false"/>
   </properties>
  </object>
  <object id="146" x="0.389823" y="272.937" width="14.6589" height="14.6589">
   <properties>
    <property name="building_type" value="empty"/>
    <property name="can_build" type="bool" value="true"/>
    <property name="is_starting_building" type="bool" value="false"/>
   </properties>
  </object>
  <object id="164" x="49.5846" y="304.747" width="14.6589" height="14.6589">
   <properties>
    <property name="building_type" value="empty"/>
    <property name="can_build" type="bool" value="true"/>
    <property name="is_starting_building" type="bool" value="false"/>
   </properties>
  </object>
  <object id="194" x="193.543" y="304.747" width="14.6589" height="14.6589">
   <properties>
    <property name="building_type" value="empty"/>
    <property name="can_build" type="bool" value="true"/>
    <property name="is_starting_building" type="bool" value="false"/>
   </properties>
  </object>
  <object id="212" x="289.64" y="304.747" width="14.6589" height="14.6589">
   <properties>
    <property name="building_type" value="empty"/>
    <property name="can_build" type="bool" value="true"/>
    <property name="is_starting_building" type="bool" value="false"/>
   </properties>
  </object>
  <object id="230" x="384.701" y="304.377" width="14.6589" height="14.6589">
   <properties>
    <property name="building_type" value="empty"/>
    <property name="can_build" type="bool" value="true"/>
    <property name="is_starting_building" type="bool" value="false"/>
   </properties>
  </object>
  <object id="173" x="96.9299" y="304.747" width="14.6589" height="14.6589">
   <properties>
    <property name="building_type" value="empty"/>
    <property name="can_build" type="bool" value="true"/>
    <property name="is_starting_building" type="bool" value="false"/>
   </properties>
  </object>
  <object id="192" x="241.555" y="304.747" width="14.6589" height="14.6589">
   <properties>
    <property name="building_type" value="empty"/>
    <property name="can_build" type="bool" value="true"/>
    <property name="is_starting_building" type="bool" value="false"/>
   </properties>
  </object>
  <object id="210" x="336.985" y="304.747" width="14.6589" height="14.6589">
   <properties>
    <property name="building_type" value="empty"/>
    <property name="can_build" type="bool" value="true"/>
    <property name="is_starting_building" type="bool" value="false"/>
   </properties>
  </object>
  <object id="228" x="432.046" y="304.377" width="14.6589" height="14.6589">
   <properties>
    <property name="building_type" value="empty"/>
    <property name="can_build" type="bool" value="true"/>
    <property name="is_starting_building" type="bool" value="false"/>
   </properties>
  </object>
  <object id="182" x="145.385" y="305.117" width="14.6589" height="14.6589">
   <properties>
    <property name="building_type" value="empty"/>
    <property name="can_build" type="bool" value="true"/>
    <property name="is_starting_building" type="bool" value="false"/>
   </properties>
  </object>
  <object id="123" x="15.3894" y="112.407" width="14.6589" height="14.6589">
   <properties>
    <property name="building_type" value="empty"/>
    <property name="can_build" type="bool" value="true"/>
    <property name="is_starting_building" type="bool" value="false"/>
   </properties>
  </object>
  <object id="132" x="15.7592" y="160.862" width="14.6589" height="14.6589">
   <properties>
    <property name="building_type" value="empty"/>
    <property name="can_build" type="bool" value="true"/>
    <property name="is_starting_building" type="bool" value="false"/>
   </properties>
  </object>
  <object id="141" x="16.8689" y="208.947" width="14.6589" height="14.6589">
   <properties>
    <property name="building_type" value="empty"/>
    <property name="can_build" type="bool" value="true"/>
    <property name="is_starting_building" type="bool" value="false"/>
   </properties>
  </object>
  <object id="150" x="16.1291" y="257.032" width="14.6589" height="14.6589">
   <properties>
    <property name="building_type" value="empty"/>
    <property name="can_build" type="bool" value="true"/>
    <property name="is_starting_building" type="bool" value="false"/>
   </properties>
  </object>
  <object id="159" x="16.8689" y="304.747" width="14.6589" height="14.6589">
   <properties>
    <property name="building_type" value="empty"/>
    <property name="can_build" type="bool" value="true"/>
    <property name="is_starting_building" type="bool" value="false"/>
   </properties>
  </object>
  <object id="168" x="65.3239" y="288.842" width="14.6589" height="14.6589">
   <properties>
    <property name="building_type" value="empty"/>
    <property name="can_build" type="bool" value="true"/>
    <property name="is_starting_building" type="bool" value="false"/>
   </properties>
  </object>
  <object id="219" x="305.379" y="288.842" width="14.6589" height="14.6589">
   <properties>
    <property name="building_type" value="empty"/>
    <property name="can_build" type="bool" value="true"/>
    <property name="is_starting_building" type="bool" value="false"/>
   </properties>
  </object>
  <object id="237" x="400.44" y="288.472" width="14.6589" height="14.6589">
   <properties>
    <property name="building_type" value="empty"/>
    <property name="can_build" type="bool" value="true"/>
    <property name="is_starting_building" type="bool" value="false"/>
   </properties>
  </object>
  <object id="200" x="257.294" y="288.842" width="14.6589" height="14.6589">
   <properties>
    <property name="building_type" value="empty"/>
    <property name="can_build" type="bool" value="true"/>
    <property name="is_starting_building" type="bool" value="false"/>
   </properties>
  </object>
  <object id="236" x="447.785" y="288.472" width="14.6589" height="14.6589">
   <properties>
    <property name="building_type" value="empty"/>
    <property name="can_build" type="bool" value="true"/>
    <property name="is_starting_building" type="bool" value="false"/>
   </properties>
  </object>
  <object id="79" x="32.7813" y="16.6066" width="14.6589" height="14.6589">
   <properties>
    <property name="building_type" value="empty"/>
    <property name="can_build" type="bool" value="true"/>
    <property name="is_starting_building" type="bool" value="false"/>
   </properties>
  </object>
  <object id="121" x="31.6717" y="112.777" width="14.6589" height="14.6589">
   <properties>
    <property name="building_type" value="empty"/>
    <property name="can_build" type="bool" value="true"/>
    <property name="is_starting_building" type="bool" value="false"/>
   </properties>
  </object>
  <object id="130" x="32.0416" y="161.232" width="14.6589" height="14.6589">
   <properties>
    <property name="building_type" value="empty"/>
    <property name="can_build" type="bool" value="true"/>
    <property name="is_starting_building" type="bool" value="false"/>
   </properties>
  </object>
  <object id="139" x="33.1512" y="209.317" width="14.6589" height="14.6589">
   <properties>
    <property name="building_type" value="empty"/>
    <property name="can_build" type="bool" value="true"/>
    <property name="is_starting_building" type="bool" value="false"/>
   </properties>
  </object>
  <object id="148" x="32.4114" y="257.402" width="14.6589" height="14.6589">
   <properties>
    <property name="building_type" value="empty"/>
    <property name="can_build" type="bool" value="true"/>
    <property name="is_starting_building" type="bool" value="false"/>
   </properties>
  </object>
  <object id="157" x="32.8179" y="305.117" width="14.6589" height="14.6589">
   <properties>
    <property name="building_type" value="empty"/>
    <property name="can_build" type="bool" value="true"/>
    <property name="is_starting_building" type="bool" value="false"/>
   </properties>
  </object>
  <object id="166" x="81.6062" y="289.212" width="14.6589" height="14.6589">
   <properties>
    <property name="building_type" value="empty"/>
    <property name="can_build" type="bool" value="true"/>
    <property name="is_starting_building" type="bool" value="false"/>
   </properties>
  </object>
  <object id="233" x="416.722" y="288.842" width="14.6589" height="14.6589">
   <properties>
    <property name="building_type" value="empty"/>
    <property name="can_build" type="bool" value="true"/>
    <property name="is_starting_building" type="bool" value="false"/>
   </properties>
  </object>
  <object id="175" x="128.951" y="289.212" width="14.6589" height="14.6589">
   <properties>
    <property name="building_type" value="empty"/>
    <property name="can_build" type="bool" value="true"/>
    <property name="is_starting_building" type="bool" value="false"/>
   </properties>
  </object>
  <object id="196" x="273.577" y="289.212" width="14.6589" height="14.6589">
   <properties>
    <property name="building_type" value="empty"/>
    <property name="can_build" type="bool" value="true"/>
    <property name="is_starting_building" type="bool" value="false"/>
   </properties>
  </object>
  <object id="232" x="464.067" y="288.842" width="14.6589" height="14.6589">
   <properties>
    <property name="building_type" value="empty"/>
    <property name="can_build" type="bool" value="true"/>
    <property name="is_starting_building" type="bool" value="false"/>
   </properties>
  </object>
  <object id="184" x="177.776" y="289.212" width="14.6589" height="14.6589">
   <properties>
    <property name="building_type" value="empty"/>
    <property name="can_build" type="bool" value="true"/>
    <property name="is_starting_building" type="bool" value="false"/>
   </properties>
  </object>
  <object id="80" x="15.9051" y="-0.100233" width="14.6589" height="14.6589">
   <properties>
    <property name="building_type" value="empty"/>
    <property name="can_build" type="bool" value="true"/>
    <property name="is_starting_building" type="bool" value="false"/>
   </properties>
  </object>
  <object id="117" x="15.5352" y="48.3547" width="14.6589" height="14.6589">
   <properties>
    <property name="building_type" value="empty"/>
    <property name="can_build" type="bool" value="true"/>
    <property name="is_starting_building" type="bool" value="false"/>
   </properties>
  </object>
  <object id="126" x="15.6704" y="96.0699" width="14.6589" height="14.6589">
   <properties>
    <property name="building_type" value="empty"/>
    <property name="can_build" type="bool" value="true"/>
    <property name="is_starting_building" type="bool" value="false"/>
   </properties>
  </object>
  <object id="135" x="15.1653" y="144.525" width="14.6589" height="14.6589">
   <properties>
    <property name="building_type" value="empty"/>
    <property name="can_build" type="bool" value="true"/>
    <property name="is_starting_building" type="bool" value="false"/>
   </properties>
  </object>
  <object id="144" x="15.5352" y="193.72" width="14.6589" height="14.6589">
   <properties>
    <property name="building_type" value="empty"/>
    <property name="can_build" type="bool" value="true"/>
    <property name="is_starting_building" type="bool" value="false"/>
   </properties>
  </object>
  <object id="153" x="16.2749" y="240.695" width="14.6589" height="14.6589">
   <properties>
    <property name="building_type" value="empty"/>
    <property name="can_build" type="bool" value="true"/>
    <property name="is_starting_building" type="bool" value="false"/>
   </properties>
  </object>
  <object id="162" x="16.2749" y="288.41" width="14.6589" height="14.6589">
   <properties>
    <property name="building_type" value="empty"/>
    <property name="can_build" type="bool" value="true"/>
    <property name="is_starting_building" type="bool" value="false"/>
   </properties>
  </object>
  <object id="171" x="64.7299" y="272.505" width="14.6589" height="14.6589">
   <properties>
    <property name="building_type" value="empty"/>
    <property name="can_build" type="bool" value="true"/>
    <property name="is_starting_building" type="bool" value="false"/>
   </properties>
  </object>
  <object id="207" x="209.355" y="272.505" width="14.6589" height="14.6589">
   <properties>
    <property name="building_type" value="empty"/>
    <property name="can_build" type="bool" value="true"/>
    <property name="is_starting_building" type="bool" value="false"/>
   </properties>
  </object>
  <object id="225" x="304.785" y="272.505" width="14.6589" height="14.6589">
   <properties>
    <property name="building_type" value="empty"/>
    <property name="can_build" type="bool" value="true"/>
    <property name="is_starting_building" type="bool" value="false"/>
   </properties>
  </object>
  <object id="243" x="399.846" y="272.135" width="14.6589" height="14.6589">
   <properties>
    <property name="building_type" value="empty"/>
    <property name="can_build" type="bool" value="true"/>
    <property name="is_starting_building" type="bool" value="false"/>
   </properties>
  </object>
  <object id="180" x="112.075" y="272.505" width="14.6589" height="14.6589">
   <properties>
    <property name="building_type" value="empty"/>
    <property name="can_build" type="bool" value="true"/>
    <property name="is_starting_building" type="bool" value="false"/>
   </properties>
  </object>
  <object id="206" x="256.7" y="272.505" width="14.6589" height="14.6589">
   <properties>
    <property name="building_type" value="empty"/>
    <property name="can_build" type="bool" value="true"/>
    <property name="is_starting_building" type="bool" value="false"/>
   </properties>
  </object>
  <object id="224" x="352.131" y="272.505" width="14.6589" height="14.6589">
   <properties>
    <property name="building_type" value="empty"/>
    <property name="can_build" type="bool" value="true"/>
    <property name="is_starting_building" type="bool" value="false"/>
   </properties>
  </object>
  <object id="189" x="160.9" y="272.505" width="14.6589" height="14.6589">
   <properties>
    <property name="building_type" value="empty"/>
    <property name="can_build" type="bool" value="true"/>
    <property name="is_starting_building" type="bool" value="false"/>
   </properties>
  </object>
  <object id="245" x="95.8396" y="224.958" width="14.6589" height="14.6589">
   <properties>
    <property name="building_type" value="empty"/>
    <property name="can_build" type="bool" value="true"/>
    <property name="is_starting_building" type="bool" value="false"/>
   </properties>
  </object>
  <object id="247" x="96.4446" y="241.603" width="14.6589" height="14.6589">
   <properties>
    <property name="building_type" value="empty"/>
    <property name="can_build" type="bool" value="true"/>
    <property name="is_starting_building" type="bool" value="false"/>
   </properties>
  </object>
  <object id="248" x="80.7126" y="225.328" width="14.6589" height="14.6589">
   <properties>
    <property name="building_type" value="empty"/>
    <property name="can_build" type="bool" value="true"/>
    <property name="is_starting_building" type="bool" value="false"/>
   </properties>
  </object>
  <object id="249" x="128.058" y="225.328" width="14.6589" height="14.6589">
   <properties>
    <property name="building_type" value="empty"/>
    <property name="can_build" type="bool" value="true"/>
    <property name="is_starting_building" type="bool" value="false"/>
   </properties>
  </object>
  <object id="250" x="64.5178" y="257.169" width="14.6589" height="14.6589">
   <properties>
    <property name="building_type" value="empty"/>
    <property name="can_build" type="bool" value="true"/>
    <property name="is_starting_building" type="bool" value="false"/>
   </properties>
  </object>
  <object id="251" x="111.863" y="257.169" width="14.6589" height="14.6589">
   <properties>
    <property name="building_type" value="empty"/>
    <property name="can_build" type="bool" value="true"/>
    <property name="is_starting_building" type="bool" value="false"/>
   </properties>
  </object>
  <object id="252" x="80.8109" y="257.539" width="14.6589" height="14.6589">
   <properties>
    <property name="building_type" value="empty"/>
    <property name="can_build" type="bool" value="true"/>
    <property name="is_starting_building" type="bool" value="false"/>
   </properties>
  </object>
  <object id="253" x="128.156" y="257.539" width="14.6589" height="14.6589">
   <properties>
    <property name="building_type" value="empty"/>
    <property name="can_build" type="bool" value="true"/>
    <property name="is_starting_building" type="bool" value="false"/>
   </properties>
  </object>
  <object id="254" x="49.0809" y="257.169" width="14.6589" height="14.6589">
   <properties>
    <property name="building_type" value="empty"/>
    <property name="can_build" type="bool" value="true"/>
    <property name="is_starting_building" type="bool" value="false"/>
   </properties>
  </object>
  <object id="255" x="96.4262" y="257.169" width="14.6589" height="14.6589">
   <properties>
    <property name="building_type" value="empty"/>
    <property name="can_build" type="bool" value="true"/>
    <property name="is_starting_building" type="bool" value="false"/>
   </properties>
  </object>
  <object id="256" x="64.8202" y="241.264" width="14.6589" height="14.6589">
   <properties>
    <property name="building_type" value="empty"/>
    <property name="can_build" type="bool" value="true"/>
    <property name="is_starting_building" type="bool" value="false"/>
   </properties>
  </object>
  <object id="257" x="112.165" y="241.264" width="14.6589" height="14.6589">
   <properties>
    <property name="building_type" value="empty"/>
    <property name="can_build" type="bool" value="true"/>
    <property name="is_starting_building" type="bool" value="false"/>
   </properties>
  </object>
  <object id="258" x="81.1025" y="241.634" width="14.6589" height="14.6589">
   <properties>
    <property name="building_type" value="empty"/>
    <property name="can_build" type="bool" value="true"/>
    <property name="is_starting_building" type="bool" value="false"/>
   </properties>
  </object>
  <object id="259" x="128.447" y="241.634" width="14.6589" height="14.6589">
   <properties>
    <property name="building_type" value="empty"/>
    <property name="can_build" type="bool" value="true"/>
    <property name="is_starting_building" type="bool" value="false"/>
   </properties>
  </object>
  <object id="260" x="64.2262" y="224.927" width="14.6589" height="14.6589">
   <properties>
    <property name="building_type" value="empty"/>
    <property name="can_build" type="bool" value="true"/>
    <property name="is_starting_building" type="bool" value="false"/>
   </properties>
  </object>
  <object id="261" x="111.571" y="224.927" width="14.6589" height="14.6589">
   <properties>
    <property name="building_type" value="empty"/>
    <property name="can_build" type="bool" value="true"/>
    <property name="is_starting_building" type="bool" value="false"/>
   </properties>
  </object>
  <object id="262" x="144.295" y="225.328" width="14.6589" height="14.6589">
   <properties>
    <property name="building_type" value="empty"/>
    <property name="can_build" type="bool" value="true"/>
    <property name="is_starting_building" type="bool" value="false"/>
   </properties>
  </object>
  <object id="263" x="191.64" y="225.328" width="14.6589" height="14.6589">
   <properties>
    <property name="building_type" value="empty"/>
    <property name="can_build" type="bool" value="true"/>
    <property name="is_starting_building" type="bool" value="false"/>
   </properties>
  </object>
  <object id="264" x="144.9" y="241.973" width="14.6589" height="14.6589">
   <properties>
    <property name="building_type" value="empty"/>
    <property name="can_build" type="bool" value="true"/>
    <property name="is_starting_building" type="bool" value="false"/>
   </properties>
  </object>
  <object id="265" x="192.245" y="241.973" width="14.6589" height="14.6589">
   <properties>
    <property name="building_type" value="empty"/>
    <property name="can_build" type="bool" value="true"/>
    <property name="is_starting_building" type="bool" value="false"/>
   </properties>
  </object>
  <object id="266" x="176.513" y="225.698" width="14.6589" height="14.6589">
   <properties>
    <property name="building_type" value="empty"/>
    <property name="can_build" type="bool" value="true"/>
    <property name="is_starting_building" type="bool" value="false"/>
   </properties>
  </object>
  <object id="267" x="223.859" y="225.698" width="14.6589" height="14.6589">
   <properties>
    <property name="building_type" value="empty"/>
    <property name="can_build" type="bool" value="true"/>
    <property name="is_starting_building" type="bool" value="false"/>
   </properties>
  </object>
  <object id="268" x="160.318" y="257.539" width="14.6589" height="14.6589">
   <properties>
    <property name="building_type" value="empty"/>
    <property name="can_build" type="bool" value="true"/>
    <property name="is_starting_building" type="bool" value="false"/>
   </properties>
  </object>
  <object id="269" x="207.664" y="257.539" width="14.6589" height="14.6589">
   <properties>
    <property name="building_type" value="empty"/>
    <property name="can_build" type="bool" value="true"/>
    <property name="is_starting_building" type="bool" value="false"/>
   </properties>
  </object>
  <object id="270" x="176.611" y="257.909" width="14.6589" height="14.6589">
   <properties>
    <property name="building_type" value="empty"/>
    <property name="can_build" type="bool" value="true"/>
    <property name="is_starting_building" type="bool" value="false"/>
   </properties>
  </object>
  <object id="271" x="223.957" y="257.909" width="14.6589" height="14.6589">
   <properties>
    <property name="building_type" value="empty"/>
    <property name="can_build" type="bool" value="true"/>
    <property name="is_starting_building" type="bool" value="false"/>
   </properties>
  </object>
  <object id="272" x="144.881" y="257.539" width="14.6589" height="14.6589">
   <properties>
    <property name="building_type" value="empty"/>
    <property name="can_build" type="bool" value="true"/>
    <property name="is_starting_building" type="bool" value="false"/>
   </properties>
  </object>
  <object id="273" x="192.226" y="257.539" width="14.6589" height="14.6589">
   <properties>
    <property name="building_type" value="empty"/>
    <property name="can_build" type="bool" value="true"/>
    <property name="is_starting_building" type="bool" value="false"/>
   </properties>
  </object>
  <object id="274" x="160.62" y="241.634" width="14.6589" height="14.6589">
   <properties>
    <property name="building_type" value="empty"/>
    <property name="can_build" type="bool" value="true"/>
    <property name="is_starting_building" type="bool" value="false"/>
   </properties>
  </object>
  <object id="275" x="207.966" y="241.634" width="14.6589" height="14.6589">
   <properties>
    <property name="building_type" value="empty"/>
    <property name="can_build" type="bool" value="true"/>
    <property name="is_starting_building" type="bool" value="false"/>
   </properties>
  </object>
  <object id="276" x="176.903" y="242.004" width="14.6589" height="14.6589">
   <properties>
    <property name="building_type" value="empty"/>
    <property name="can_build" type="bool" value="true"/>
    <property name="is_starting_building" type="bool" value="false"/>
   </properties>
  </object>
  <object id="277" x="224.248" y="242.004" width="14.6589" height="14.6589">
   <properties>
    <property name="building_type" value="empty"/>
    <property name="can_build" type="bool" value="true"/>
    <property name="is_starting_building" type="bool" value="false"/>
   </properties>
  </object>
  <object id="278" x="160.026" y="225.297" width="14.6589" height="14.6589">
   <properties>
    <property name="building_type" value="empty"/>
    <property name="can_build" type="bool" value="true"/>
    <property name="is_starting_building" type="bool" value="false"/>
   </properties>
  </object>
  <object id="279" x="207.372" y="225.297" width="14.6589" height="14.6589">
   <properties>
    <property name="building_type" value="empty"/>
    <property name="can_build" type="bool" value="true"/>
    <property name="is_starting_building" type="bool" value="false"/>
   </properties>
  </object>
  <object id="280" x="384.35" y="224.589" width="14.6589" height="14.6589">
   <properties>
    <property name="building_type" value="empty"/>
    <property name="can_build" type="bool" value="true"/>
    <property name="is_starting_building" type="bool" value="false"/>
   </properties>
  </object>
  <object id="281" x="431.695" y="224.589" width="14.6589" height="14.6589">
   <properties>
    <property name="building_type" value="empty"/>
    <property name="can_build" type="bool" value="true"/>
    <property name="is_starting_building" type="bool" value="false"/>
   </properties>
  </object>
  <object id="283" x="432.3" y="241.234" width="14.6589" height="14.6589">
   <properties>
    <property name="building_type" value="empty"/>
    <property name="can_build" type="bool" value="true"/>
    <property name="is_starting_building" type="bool" value="false"/>
   </properties>
  </object>
  <object id="284" x="416.568" y="224.959" width="14.6589" height="14.6589">
   <properties>
    <property name="building_type" value="empty"/>
    <property name="can_build" type="bool" value="true"/>
    <property name="is_starting_building" type="bool" value="false"/>
   </properties>
  </object>
  <object id="285" x="463.914" y="224.959" width="14.6589" height="14.6589">
   <properties>
    <property name="building_type" value="empty"/>
    <property name="can_build" type="bool" value="true"/>
    <property name="is_starting_building" type="bool" value="false"/>
   </properties>
  </object>
  <object id="286" x="400.374" y="256.8" width="14.6589" height="14.6589">
   <properties>
    <property name="building_type" value="empty"/>
    <property name="can_build" type="bool" value="true"/>
    <property name="is_starting_building" type="bool" value="false"/>
   </properties>
  </object>
  <object id="288" x="416.667" y="257.17" width="14.6589" height="14.6589">
   <properties>
    <property name="building_type" value="empty"/>
    <property name="can_build" type="bool" value="true"/>
    <property name="is_starting_building" type="bool" value="false"/>
   </properties>
  </object>
  <object id="289" x="464.012" y="257.17" width="14.6589" height="14.6589">
   <properties>
    <property name="building_type" value="empty"/>
    <property name="can_build" type="bool" value="true"/>
    <property name="is_starting_building" type="bool" value="false"/>
   </properties>
  </object>
  <object id="290" x="384.937" y="256.8" width="14.6589" height="14.6589">
   <properties>
    <property name="building_type" value="empty"/>
    <property name="can_build" type="bool" value="true"/>
    <property name="is_starting_building" type="bool" value="false"/>
   </properties>
  </object>
  <object id="292" x="400.676" y="240.895" width="14.6589" height="14.6589">
   <properties>
    <property name="building_type" value="empty"/>
    <property name="can_build" type="bool" value="true"/>
    <property name="is_starting_building" type="bool" value="false"/>
   </properties>
  </object>
  <object id="293" x="448.021" y="240.895" width="14.6589" height="14.6589">
   <properties>
    <property name="building_type" value="empty"/>
    <property name="can_build" type="bool" value="true"/>
    <property name="is_starting_building" type="bool" value="false"/>
   </properties>
  </object>
  <object id="294" x="416.958" y="241.265" width="14.6589" height="14.6589">
   <properties>
    <property name="building_type" value="empty"/>
    <property name="can_build" type="bool" value="true"/>
    <property name="is_starting_building" type="bool" value="false"/>
   </properties>
  </object>
  <object id="295" x="464.303" y="241.265" width="14.6589" height="14.6589">
   <properties>
    <property name="building_type" value="empty"/>
    <property name="can_build" type="bool" value="true"/>
    <property name="is_starting_building" type="bool" value="false"/>
   </properties>
  </object>
  <object id="296" x="400.082" y="224.558" width="14.6589" height="14.6589">
   <properties>
    <property name="building_type" value="empty"/>
    <property name="can_build" type="bool" value="true"/>
    <property name="is_starting_building" type="bool" value="false"/>
   </properties>
  </object>
  <object id="297" x="447.427" y="224.558" width="14.6589" height="14.6589">
   <properties>
    <property name="building_type" value="empty"/>
    <property name="can_build" type="bool" value="true"/>
    <property name="is_starting_building" type="bool" value="false"/>
   </properties>
  </object>
  <object id="298" x="288.55" y="224.219" width="14.6589" height="14.6589">
   <properties>
    <property name="building_type" value="empty"/>
    <property name="can_build" type="bool" value="true"/>
    <property name="is_starting_building" type="bool" value="false"/>
   </properties>
  </object>
  <object id="299" x="335.895" y="224.219" width="14.6589" height="14.6589">
   <properties>
    <property name="building_type" value="empty"/>
    <property name="can_build" type="bool" value="true"/>
    <property name="is_starting_building" type="bool" value="false"/>
   </properties>
  </object>
  <object id="300" x="289.155" y="240.864" width="14.6589" height="14.6589">
   <properties>
    <property name="building_type" value="empty"/>
    <property name="can_build" type="bool" value="true"/>
    <property name="is_starting_building" type="bool" value="false"/>
   </properties>
  </object>
  <object id="301" x="336.5" y="240.864" width="14.6589" height="14.6589">
   <properties>
    <property name="building_type" value="empty"/>
    <property name="can_build" type="bool" value="true"/>
    <property name="is_starting_building" type="bool" value="false"/>
   </properties>
  </object>
  <object id="302" x="320.768" y="224.589" width="14.6589" height="14.6589">
   <properties>
    <property name="building_type" value="empty"/>
    <property name="can_build" type="bool" value="true"/>
    <property name="is_starting_building" type="bool" value="false"/>
   </properties>
  </object>
  <object id="303" x="368.114" y="224.589" width="14.6589" height="14.6589">
   <properties>
    <property name="building_type" value="empty"/>
    <property name="can_build" type="bool" value="true"/>
    <property name="is_starting_building" type="bool" value="false"/>
   </properties>
  </object>
  <object id="304" x="304.573" y="256.43" width="14.6589" height="14.6589">
   <properties>
    <property name="building_type" value="empty"/>
    <property name="can_build" type="bool" value="true"/>
    <property name="is_starting_building" type="bool" value="false"/>
   </properties>
  </object>
  <object id="305" x="351.919" y="256.43" width="14.6589" height="14.6589">
   <properties>
    <property name="building_type" value="empty"/>
    <property name="can_build" type="bool" value="true"/>
    <property name="is_starting_building" type="bool" value="false"/>
   </properties>
  </object>
  <object id="306" x="320.866" y="256.8" width="14.6589" height="14.6589">
   <properties>
    <property name="building_type" value="empty"/>
    <property name="can_build" type="bool" value="true"/>
    <property name="is_starting_building" type="bool" value="false"/>
   </properties>
  </object>
  <object id="307" x="368.212" y="256.8" width="14.6589" height="14.6589">
   <properties>
    <property name="building_type" value="empty"/>
    <property name="can_build" type="bool" value="true"/>
    <property name="is_starting_building" type="bool" value="false"/>
   </properties>
  </object>
  <object id="308" x="289.136" y="256.43" width="14.6589" height="14.6589">
   <properties>
    <property name="building_type" value="empty"/>
    <property name="can_build" type="bool" value="true"/>
    <property name="is_starting_building" type="bool" value="false"/>
   </properties>
  </object>
  <object id="309" x="336.482" y="256.43" width="14.6589" height="14.6589">
   <properties>
    <property name="building_type" value="empty"/>
    <property name="can_build" type="bool" value="true"/>
    <property name="is_starting_building" type="bool" value="false"/>
   </properties>
  </object>
  <object id="310" x="304.876" y="240.525" width="14.6589" height="14.6589">
   <properties>
    <property name="building_type" value="empty"/>
    <property name="can_build" type="bool" value="true"/>
    <property name="is_starting_building" type="bool" value="false"/>
   </properties>
  </object>
  <object id="311" x="352.221" y="240.525" width="14.6589" height="14.6589">
   <properties>
    <property name="building_type" value="empty"/>
    <property name="can_build" type="bool" value="true"/>
    <property name="is_starting_building" type="bool" value="false"/>
   </properties>
  </object>
  <object id="312" x="321.158" y="240.895" width="14.6589" height="14.6589">
   <properties>
    <property name="building_type" value="empty"/>
    <property name="can_build" type="bool" value="true"/>
    <property name="is_starting_building" type="bool" value="false"/>
   </properties>
  </object>
  <object id="313" x="368.503" y="240.895" width="14.6589" height="14.6589">
   <properties>
    <property name="building_type" value="empty"/>
    <property name="can_build" type="bool" value="true"/>
    <property name="is_starting_building" type="bool" value="false"/>
   </properties>
  </object>
  <object id="314" x="304.282" y="224.188" width="14.6589" height="14.6589">
   <properties>
    <property name="building_type" value="empty"/>
    <property name="can_build" type="bool" value="true"/>
    <property name="is_starting_building" type="bool" value="false"/>
   </properties>
  </object>
  <object id="315" x="351.627" y="224.188" width="14.6589" height="14.6589">
   <properties>
    <property name="building_type" value="empty"/>
    <property name="can_build" type="bool" value="true"/>
    <property name="is_starting_building" type="bool" value="false"/>
   </properties>
  </object>
  <object id="317" x="431.695" y="176.503" width="14.6589" height="14.6589">
   <properties>
    <property name="building_type" value="empty"/>
    <property name="can_build" type="bool" value="true"/>
    <property name="is_starting_building" type="bool" value="false"/>
   </properties>
  </object>
  <object id="318" x="384.955" y="193.148" width="14.6589" height="14.6589">
   <properties>
    <property name="building_type" value="empty"/>
    <property name="can_build" type="bool" value="true"/>
    <property name="is_starting_building" type="bool" value="false"/>
   </properties>
  </object>
  <object id="319" x="432.3" y="193.148" width="14.6589" height="14.6589">
   <properties>
    <property name="building_type" value="empty"/>
    <property name="can_build" type="bool" value="true"/>
    <property name="is_starting_building" type="bool" value="false"/>
   </properties>
  </object>
  <object id="320" x="416.568" y="176.873" width="14.6589" height="14.6589">
   <properties>
    <property name="building_type" value="empty"/>
    <property name="can_build" type="bool" value="true"/>
    <property name="is_starting_building" type="bool" value="false"/>
   </properties>
  </object>
  <object id="321" x="463.914" y="176.873" width="14.6589" height="14.6589">
   <properties>
    <property name="building_type" value="empty"/>
    <property name="can_build" type="bool" value="true"/>
    <property name="is_starting_building" type="bool" value="false"/>
   </properties>
  </object>
  <object id="322" x="400.374" y="208.714" width="14.6589" height="14.6589">
   <properties>
    <property name="building_type" value="empty"/>
    <property name="can_build" type="bool" value="true"/>
    <property name="is_starting_building" type="bool" value="false"/>
   </properties>
  </object>
  <object id="323" x="447.719" y="208.714" width="14.6589" height="14.6589">
   <properties>
    <property name="building_type" value="empty"/>
    <property name="can_build" type="bool" value="true"/>
    <property name="is_starting_building" type="bool" value="false"/>
   </properties>
  </object>
  <object id="324" x="416.667" y="209.084" width="14.6589" height="14.6589">
   <properties>
    <property name="building_type" value="empty"/>
    <property name="can_build" type="bool" value="true"/>
    <property name="is_starting_building" type="bool" value="false"/>
   </properties>
  </object>
  <object id="325" x="464.012" y="209.084" width="14.6589" height="14.6589">
   <properties>
    <property name="building_type" value="empty"/>
    <property name="can_build" type="bool" value="true"/>
    <property name="is_starting_building" type="bool" value="false"/>
   </properties>
  </object>
  <object id="326" x="384.937" y="208.714" width="14.6589" height="14.6589">
   <properties>
    <property name="building_type" value="empty"/>
    <property name="can_build" type="bool" value="true"/>
    <property name="is_starting_building" type="bool" value="false"/>
   </properties>
  </object>
  <object id="327" x="432.282" y="208.714" width="14.6589" height="14.6589">
   <properties>
    <property name="building_type" value="empty"/>
    <property name="can_build" type="bool" value="true"/>
    <property name="is_starting_building" type="bool" value="false"/>
   </properties>
  </object>
  <object id="328" x="400.676" y="192.809" width="14.6589" height="14.6589">
   <properties>
    <property name="building_type" value="empty"/>
    <property name="can_build" type="bool" value="true"/>
    <property name="is_starting_building" type="bool" value="false"/>
   </properties>
  </object>
  <object id="329" x="448.021" y="192.809" width="14.6589" height="14.6589">
   <properties>
    <property name="building_type" value="empty"/>
    <property name="can_build" type="bool" value="true"/>
    <property name="is_starting_building" type="bool" value="false"/>
   </properties>
  </object>
  <object id="330" x="416.958" y="193.179" width="14.6589" height="14.6589">
   <properties>
    <property name="building_type" value="empty"/>
    <property name="can_build" type="bool" value="true"/>
    <property name="is_starting_building" type="bool" value="false"/>
   </properties>
  </object>
  <object id="331" x="464.303" y="193.179" width="14.6589" height="14.6589">
   <properties>
    <property name="building_type" value="empty"/>
    <property name="can_build" type="bool" value="true"/>
    <property name="is_starting_building" type="bool" value="false"/>
   </properties>
  </object>
  <object id="332" x="400.082" y="176.472" width="14.6589" height="14.6589">
   <properties>
    <property name="building_type" value="empty"/>
    <property name="can_build" type="bool" value="true"/>
    <property name="is_starting_building" type="bool" value="false"/>
   </properties>
  </object>
  <object id="334" x="384.72" y="0.0682016" width="14.6589" height="14.6589">
   <properties>
    <property name="building_type" value="empty"/>
    <property name="can_build" type="bool" value="true"/>
    <property name="is_starting_building" type="bool" value="false"/>
   </properties>
  </object>
  <object id="335" x="432.065" y="0.0682016" width="14.6589" height="14.6589">
   <properties>
    <property name="building_type" value="empty"/>
    <property name="can_build" type="bool" value="true"/>
    <property name="is_starting_building" type="bool" value="false"/>
   </properties>
  </object>
  <object id="336" x="385.325" y="16.7132" width="14.6589" height="14.6589">
   <properties>
    <property name="building_type" value="empty"/>
    <property name="can_build" type="bool" value="true"/>
    <property name="is_starting_building" type="bool" value="false"/>
   </properties>
  </object>
  <object id="337" x="432.67" y="16.7132" width="14.6589" height="14.6589">
   <properties>
    <property name="building_type" value="empty"/>
    <property name="can_build" type="bool" value="true"/>
    <property name="is_starting_building" type="bool" value="false"/>
   </properties>
  </object>
  <object id="339" x="464.284" y="0.438202" width="16" height="16">
   <properties>
    <property name="building_type" value="empty"/>
    <property name="can_build" type="bool" value="true"/>
    <property name="is_starting_building" type="bool" value="false"/>
   </properties>
  </object>
  <object id="340" x="400.743" y="32.2792" width="14.6589" height="14.6589">
   <properties>
    <property name="building_type" value="empty"/>
    <property name="can_build" type="bool" value="true"/>
    <property name="is_starting_building" type="bool" value="false"/>
   </properties>
  </object>
  <object id="341" x="448.089" y="32.2792" width="14.6589" height="14.6589">
   <properties>
    <property name="building_type" value="empty"/>
    <property name="can_build" type="bool" value="true"/>
    <property name="is_starting_building" type="bool" value="false"/>
   </properties>
  </object>
  <object id="342" x="417.037" y="32.6492" width="14.6589" height="14.6589">
   <properties>
    <property name="building_type" value="empty"/>
    <property name="can_build" type="bool" value="true"/>
    <property name="is_starting_building" type="bool" value="false"/>
   </properties>
  </object>
  <object id="343" x="464.382" y="32.6492" width="14.6589" height="14.6589">
   <properties>
    <property name="building_type" value="empty"/>
    <property name="can_build" type="bool" value="true"/>
    <property name="is_starting_building" type="bool" value="false"/>
   </properties>
  </object>
  <object id="344" x="385.307" y="32.2792" width="14.6589" height="14.6589">
   <properties>
    <property name="building_type" value="empty"/>
    <property name="can_build" type="bool" value="true"/>
    <property name="is_starting_building" type="bool" value="false"/>
   </properties>
  </object>
  <object id="345" x="432.652" y="32.2792" width="14.6589" height="14.6589">
   <properties>
    <property name="building_type" value="empty"/>
    <property name="can_build" type="bool" value="true"/>
    <property name="is_starting_building" type="bool" value="false"/>
   </properties>
  </object>
  <object id="346" x="401.046" y="16.3742" width="14.6589" height="14.6589">
   <properties>
    <property name="building_type" value="empty"/>
    <property name="can_build" type="bool" value="true"/>
    <property name="is_starting_building" type="bool" value="false"/>
   </properties>
  </object>
  <object id="347" x="448.391" y="16.3742" width="16" height="16">
   <properties>
    <property name="building_type" value="empty"/>
    <property name="can_build" type="bool" value="true"/>
    <property name="is_starting_building" type="bool" value="false"/>
   </properties>
  </object>
  <object id="349" x="464.673" y="16.7442" width="16" height="16">
   <properties>
    <property name="building_type" value="empty"/>
    <property name="can_build" type="bool" value="true"/>
    <property name="is_starting_building" type="bool" value="false"/>
   </properties>
  </object>
  <object id="350" x="400.452" y="0.0372016" width="14.6589" height="14.6589">
   <properties>
    <property name="building_type" value="empty"/>
    <property name="can_build" type="bool" value="true"/>
    <property name="is_starting_building" type="bool" value="false"/>
   </properties>
  </object>
  <object id="351" x="447.797" y="0.0372016" width="16" height="16">
   <properties>
    <property name="building_type" value="empty"/>
    <property name="can_build" type="bool" value="true"/>
    <property name="is_starting_building" type="bool" value="false"/>
   </properties>
  </object>
  <object id="352" x="289.659" y="-0.301684" width="14.6589" height="14.6589">
   <properties>
    <property name="building_type" value="empty"/>
    <property name="can_build" type="bool" value="true"/>
    <property name="is_starting_building" type="bool" value="false"/>
   </properties>
  </object>
  <object id="353" x="337.005" y="-0.301684" width="14.6589" height="14.6589">
   <properties>
    <property name="building_type" value="empty"/>
    <property name="can_build" type="bool" value="true"/>
    <property name="is_starting_building" type="bool" value="false"/>
   </properties>
  </object>
  <object id="354" x="290.264" y="16.3433" width="14.6589" height="14.6589">
   <properties>
    <property name="building_type" value="empty"/>
    <property name="can_build" type="bool" value="true"/>
    <property name="is_starting_building" type="bool" value="false"/>
   </properties>
  </object>
  <object id="355" x="337.61" y="16.3433" width="14.6589" height="14.6589">
   <properties>
    <property name="building_type" value="empty"/>
    <property name="can_build" type="bool" value="true"/>
    <property name="is_starting_building" type="bool" value="false"/>
   </properties>
  </object>
  <object id="356" x="321.878" y="0.0683164" width="14.6589" height="14.6589">
   <properties>
    <property name="building_type" value="empty"/>
    <property name="can_build" type="bool" value="true"/>
    <property name="is_starting_building" type="bool" value="false"/>
   </properties>
  </object>
  <object id="357" x="369.223" y="0.0683164" width="14.6589" height="14.6589">
   <properties>
    <property name="building_type" value="empty"/>
    <property name="can_build" type="bool" value="true"/>
    <property name="is_starting_building" type="bool" value="false"/>
   </properties>
  </object>
  <object id="358" x="305.683" y="31.9093" width="14.6589" height="14.6589">
   <properties>
    <property name="building_type" value="empty"/>
    <property name="can_build" type="bool" value="true"/>
    <property name="is_starting_building" type="bool" value="false"/>
   </properties>
  </object>
  <object id="359" x="353.028" y="31.9093" width="14.6589" height="14.6589">
   <properties>
    <property name="building_type" value="empty"/>
    <property name="can_build" type="bool" value="true"/>
    <property name="is_starting_building" type="bool" value="false"/>
   </properties>
  </object>
  <object id="361" x="369.321" y="32.2793" width="14.6589" height="14.6589">
   <properties>
    <property name="building_type" value="empty"/>
    <property name="can_build" type="bool" value="true"/>
    <property name="is_starting_building" type="bool" value="false"/>
   </properties>
  </object>
  <object id="362" x="290.246" y="31.9093" width="14.6589" height="14.6589">
   <properties>
    <property name="building_type" value="empty"/>
    <property name="can_build" type="bool" value="true"/>
    <property name="is_starting_building" type="bool" value="false"/>
   </properties>
  </object>
  <object id="363" x="337.591" y="31.9093" width="14.6589" height="14.6589">
   <properties>
    <property name="building_type" value="empty"/>
    <property name="can_build" type="bool" value="true"/>
    <property name="is_starting_building" type="bool" value="false"/>
   </properties>
  </object>
  <object id="364" x="305.985" y="16.0043" width="14.6589" height="14.6589">
   <properties>
    <property name="building_type" value="empty"/>
    <property name="can_build" type="bool" value="true"/>
    <property name="is_starting_building" type="bool" value="false"/>
   </properties>
  </object>
  <object id="365" x="353.33" y="16.0043" width="14.6589" height="14.6589">
   <properties>
    <property name="building_type" value="empty"/>
    <property name="can_build" type="bool" value="true"/>
    <property name="is_starting_building" type="bool" value="false"/>
   </properties>
  </object>
  <object id="366" x="322.268" y="16.3743" width="14.6589" height="14.6589">
   <properties>
    <property name="building_type" value="empty"/>
    <property name="can_build" type="bool" value="true"/>
    <property name="is_starting_building" type="bool" value="false"/>
   </properties>
  </object>
  <object id="367" x="369.612" y="16.3743" width="14.6589" height="14.6589">
   <properties>
    <property name="building_type" value="empty"/>
    <property name="can_build" type="bool" value="true"/>
    <property name="is_starting_building" type="bool" value="false"/>
   </properties>
  </object>
  <object id="368" x="305.391" y="-0.332684" width="14.6589" height="14.6589">
   <properties>
    <property name="building_type" value="empty"/>
    <property name="can_build" type="bool" value="true"/>
    <property name="is_starting_building" type="bool" value="false"/>
   </properties>
  </object>
  <object id="369" x="352.736" y="-0.332684" width="14.6589" height="14.6589">
   <properties>
    <property name="building_type" value="empty"/>
    <property name="can_build" type="bool" value="true"/>
    <property name="is_starting_building" type="bool" value="false"/>
   </properties>
  </object>
  <object id="370" x="384.72" y="47.4135" width="14.6589" height="14.6589">
   <properties>
    <property name="building_type" value="empty"/>
    <property name="can_build" type="bool" value="true"/>
    <property name="is_starting_building" type="bool" value="false"/>
   </properties>
  </object>
  <object id="372" x="384.955" y="62.9488" width="14.6589" height="12.8095">
   <properties>
    <property name="building_type" value="empty"/>
    <property name="can_build" type="bool" value="true"/>
    <property name="is_starting_building" type="bool" value="false"/>
   </properties>
  </object>
  <object id="374" x="416.938" y="47.7835" width="14.6589" height="14.6589">
   <properties>
    <property name="building_type" value="empty"/>
    <property name="can_build" type="bool" value="true"/>
    <property name="is_starting_building" type="bool" value="false"/>
   </properties>
  </object>
  <object id="375" x="465.11" y="48.7398" width="14.6589" height="14.6589">
   <properties>
    <property name="building_type" value="empty"/>
    <property name="can_build" type="bool" value="true"/>
    <property name="is_starting_building" type="bool" value="false"/>
   </properties>
  </object>
  <object id="376" x="400.743" y="79.6245" width="14.6589" height="14.6589">
   <properties>
    <property name="building_type" value="empty"/>
    <property name="can_build" type="bool" value="true"/>
    <property name="is_starting_building" type="bool" value="false"/>
   </properties>
  </object>
  <object id="377" x="448.089" y="79.6245" width="14.6589" height="14.6589">
   <properties>
    <property name="building_type" value="empty"/>
    <property name="can_build" type="bool" value="true"/>
    <property name="is_starting_building" type="bool" value="false"/>
   </properties>
  </object>
  <object id="378" x="417.037" y="79.9945" width="14.6589" height="14.6589">
   <properties>
    <property name="building_type" value="empty"/>
    <property name="can_build" type="bool" value="true"/>
    <property name="is_starting_building" type="bool" value="false"/>
   </properties>
  </object>
  <object id="379" x="464.382" y="79.9945" width="14.6589" height="14.6589">
   <properties>
    <property name="building_type" value="empty"/>
    <property name="can_build" type="bool" value="true"/>
    <property name="is_starting_building" type="bool" value="false"/>
   </properties>
  </object>
  <object id="380" x="385.676" y="78.5148" width="14.6589" height="14.6589">
   <properties>
    <property name="building_type" value="empty"/>
    <property name="can_build" type="bool" value="true"/>
    <property name="is_starting_building" type="bool" value="false"/>
   </properties>
  </object>
  <object id="381" x="432.652" y="79.6245" width="14.6589" height="14.6589">
   <properties>
    <property name="building_type" value="empty"/>
    <property name="can_build" type="bool" value="true"/>
    <property name="is_starting_building" type="bool" value="false"/>
   </properties>
  </object>
  <object id="382" x="401.046" y="63.7195" width="14.6589" height="14.6589">
   <properties>
    <property name="building_type" value="empty"/>
    <property name="can_build" type="bool" value="true"/>
    <property name="is_starting_building" type="bool" value="false"/>
   </properties>
  </object>
  <object id="384" x="417.328" y="64.0895" width="14.6589" height="14.6589">
   <properties>
    <property name="building_type" value="empty"/>
    <property name="can_build" type="bool" value="true"/>
    <property name="is_starting_building" type="bool" value="false"/>
   </properties>
  </object>
  <object id="385" x="369.243" y="62.515" width="14.6589" height="14.6589">
   <properties>
    <property name="building_type" value="empty"/>
    <property name="can_build" type="bool" value="true"/>
    <property name="is_starting_building" type="bool" value="false"/>
   </properties>
  </object>
  <object id="386" x="400.452" y="47.3825" width="14.6589" height="14.6589">
   <properties>
    <property name="building_type" value="empty"/>
    <property name="can_build" type="bool" value="true"/>
    <property name="is_starting_building" type="bool" value="false"/>
   </properties>
  </object>
  <object id="388" x="47.3847" y="96.9781" width="14.6589" height="14.6589">
   <properties>
    <property name="building_type" value="empty"/>
    <property name="can_build" type="bool" value="true"/>
    <property name="is_starting_building" type="bool" value="false"/>
   </properties>
  </object>
  <object id="389" x="94.73" y="96.9781" width="14.6589" height="14.6589">
   <properties>
    <property name="building_type" value="empty"/>
    <property name="can_build" type="bool" value="true"/>
    <property name="is_starting_building" type="bool" value="false"/>
   </properties>
  </object>
  <object id="390" x="47.9897" y="113.623" width="14.6589" height="14.6589">
   <properties>
    <property name="building_type" value="empty"/>
    <property name="can_build" type="bool" value="true"/>
    <property name="is_starting_building" type="bool" value="false"/>
   </properties>
  </object>
  <object id="391" x="95.335" y="113.623" width="14.6589" height="14.6589">
   <properties>
    <property name="building_type" value="empty"/>
    <property name="can_build" type="bool" value="true"/>
    <property name="is_starting_building" type="bool" value="false"/>
   </properties>
  </object>
  <object id="392" x="79.603" y="97.3481" width="14.6589" height="14.6589">
   <properties>
    <property name="building_type" value="empty"/>
    <property name="can_build" type="bool" value="true"/>
    <property name="is_starting_building" type="bool" value="false"/>
   </properties>
  </object>
  <object id="393" x="126.949" y="97.3481" width="14.6589" height="14.6589">
   <properties>
    <property name="building_type" value="empty"/>
    <property name="can_build" type="bool" value="true"/>
    <property name="is_starting_building" type="bool" value="false"/>
   </properties>
  </object>
  <object id="395" x="110.754" y="129.189" width="14.6589" height="14.6589">
   <properties>
    <property name="building_type" value="empty"/>
    <property name="can_build" type="bool" value="true"/>
    <property name="is_starting_building" type="bool" value="false"/>
   </properties>
  </object>
  <object id="396" x="79.7013" y="129.559" width="14.6589" height="14.6589">
   <properties>
    <property name="building_type" value="empty"/>
    <property name="can_build" type="bool" value="true"/>
    <property name="is_starting_building" type="bool" value="false"/>
   </properties>
  </object>
  <object id="398" x="47.9713" y="129.189" width="14.6589" height="14.6589">
   <properties>
    <property name="building_type" value="empty"/>
    <property name="can_build" type="bool" value="true"/>
    <property name="is_starting_building" type="bool" value="false"/>
   </properties>
  </object>
  <object id="399" x="95.3166" y="129.189" width="14.6589" height="14.6589">
   <properties>
    <property name="building_type" value="empty"/>
    <property name="can_build" type="bool" value="true"/>
    <property name="is_starting_building" type="bool" value="false"/>
   </properties>
  </object>
  <object id="400" x="63.7106" y="113.284" width="14.6589" height="14.6589">
   <properties>
    <property name="building_type" value="empty"/>
    <property name="can_build" type="bool" value="true"/>
    <property name="is_starting_building" type="bool" value="false"/>
   </properties>
  </object>
  <object id="401" x="111.056" y="112.914" width="14.6589" height="14.6589">
   <properties>
    <property name="building_type" value="empty"/>
    <property name="can_build" type="bool" value="true"/>
    <property name="is_starting_building" type="bool" value="false"/>
   </properties>
  </object>
  <object id="402" x="79.9929" y="113.654" width="14.6589" height="14.6589">
   <properties>
    <property name="building_type" value="empty"/>
    <property name="can_build" type="bool" value="true"/>
    <property name="is_starting_building" type="bool" value="false"/>
   </properties>
  </object>
  <object id="403" x="127.338" y="113.654" width="14.6589" height="14.6589">
   <properties>
    <property name="building_type" value="empty"/>
    <property name="can_build" type="bool" value="true"/>
    <property name="is_starting_building" type="bool" value="false"/>
   </properties>
  </object>
  <object id="404" x="63.1166" y="96.9471" width="14.6589" height="14.6589">
   <properties>
    <property name="building_type" value="empty"/>
    <property name="can_build" type="bool" value="true"/>
    <property name="is_starting_building" type="bool" value="false"/>
   </properties>
  </object>
  <object id="405" x="110.462" y="96.9471" width="14.6589" height="14.6589">
   <properties>
    <property name="building_type" value="empty"/>
    <property name="can_build" type="bool" value="true"/>
    <property name="is_starting_building" type="bool" value="false"/>
   </properties>
  </object>
  <object id="406" x="48.1244" y="143.214" width="14.6589" height="14.6589">
   <properties>
    <property name="building_type" value="empty"/>
    <property name="can_build" type="bool" value="true"/>
    <property name="is_starting_building" type="bool" value="false"/>
   </properties>
  </object>
  <object id="407" x="95.4697" y="143.214" width="14.6589" height="14.6589">
   <properties>
    <property name="building_type" value="empty"/>
    <property name="can_build" type="bool" value="true"/>
    <property name="is_starting_building" type="bool" value="false"/>
   </properties>
  </object>
  <object id="408" x="47.9897" y="160.599" width="14.6589" height="14.6589">
   <properties>
    <property name="building_type" value="empty"/>
    <property name="can_build" type="bool" value="true"/>
    <property name="is_starting_building" type="bool" value="false"/>
   </properties>
  </object>
  <object id="409" x="95.335" y="160.599" width="14.6589" height="14.6589">
   <properties>
    <property name="building_type" value="empty"/>
    <property name="can_build" type="bool" value="true"/>
    <property name="is_starting_building" type="bool" value="false"/>
   </properties>
  </object>
  <object id="410" x="80.3427" y="143.584" width="14.6589" height="14.6589">
   <properties>
    <property name="building_type" value="empty"/>
    <property name="can_build" type="bool" value="true"/>
    <property name="is_starting_building" type="bool" value="false"/>
   </properties>
  </object>
  <object id="412" x="63.4082" y="176.165" width="14.6589" height="14.6589">
   <properties>
    <property name="building_type" value="empty"/>
    <property name="can_build" type="bool" value="true"/>
    <property name="is_starting_building" type="bool" value="false"/>
   </properties>
  </object>
  <object id="413" x="112.233" y="176.534" width="14.6589" height="14.6589">
   <properties>
    <property name="building_type" value="empty"/>
    <property name="can_build" type="bool" value="true"/>
    <property name="is_starting_building" type="bool" value="false"/>
   </properties>
  </object>
  <object id="414" x="79.7013" y="176.535" width="14.6589" height="14.6589">
   <properties>
    <property name="building_type" value="empty"/>
    <property name="can_build" type="bool" value="true"/>
    <property name="is_starting_building" type="bool" value="false"/>
   </properties>
  </object>
  <object id="415" x="127.786" y="176.535" width="14.6589" height="14.6589">
   <properties>
    <property name="building_type" value="empty"/>
    <property name="can_build" type="bool" value="true"/>
    <property name="is_starting_building" type="bool" value="false"/>
   </properties>
  </object>
  <object id="416" x="47.9713" y="176.165" width="14.6589" height="14.6589">
   <properties>
    <property name="building_type" value="empty"/>
    <property name="can_build" type="bool" value="true"/>
    <property name="is_starting_building" type="bool" value="false"/>
   </properties>
  </object>
  <object id="418" x="63.7106" y="160.26" width="14.6589" height="14.6589">
   <properties>
    <property name="building_type" value="empty"/>
    <property name="can_build" type="bool" value="true"/>
    <property name="is_starting_building" type="bool" value="false"/>
   </properties>
  </object>
  <object id="419" x="111.056" y="160.26" width="14.6589" height="14.6589">
   <properties>
    <property name="building_type" value="empty"/>
    <property name="can_build" type="bool" value="true"/>
    <property name="is_starting_building" type="bool" value="false"/>
   </properties>
  </object>
  <object id="420" x="79.9929" y="160.63" width="14.6589" height="14.6589">
   <properties>
    <property name="building_type" value="empty"/>
    <property name="can_build" type="bool" value="true"/>
    <property name="is_starting_building" type="bool" value="false"/>
   </properties>
  </object>
  <object id="421" x="127.338" y="160.63" width="14.6589" height="14.6589">
   <properties>
    <property name="building_type" value="empty"/>
    <property name="can_build" type="bool" value="true"/>
    <property name="is_starting_building" type="bool" value="false"/>
   </properties>
  </object>
  <object id="423" x="111.201" y="143.183" width="14.6589" height="14.6589">
   <properties>
    <property name="building_type" value="empty"/>
    <property name="can_build" type="bool" value="true"/>
    <property name="is_starting_building" type="bool" value="false"/>
   </properties>
  </object>
  <object id="424" x="143.555" y="97.348" width="14.6589" height="14.6589">
   <properties>
    <property name="building_type" value="empty"/>
    <property name="can_build" type="bool" value="true"/>
    <property name="is_starting_building" type="bool" value="false"/>
   </properties>
  </object>
  <object id="425" x="190.53" y="98.0878" width="14.6589" height="14.6589">
   <properties>
    <property name="building_type" value="empty"/>
    <property name="can_build" type="bool" value="true"/>
    <property name="is_starting_building" type="bool" value="false"/>
   </properties>
  </object>
  <object id="426" x="143.79" y="113.993" width="14.6589" height="14.6589">
   <properties>
    <property name="building_type" value="empty"/>
    <property name="can_build" type="bool" value="true"/>
    <property name="is_starting_building" type="bool" value="false"/>
   </properties>
  </object>
  <object id="427" x="191.135" y="114.733" width="14.6589" height="14.6589">
   <properties>
    <property name="building_type" value="empty"/>
    <property name="can_build" type="bool" value="true"/>
    <property name="is_starting_building" type="bool" value="false"/>
   </properties>
  </object>
  <object id="428" x="175.403" y="97.3657" width="14.6589" height="14.6589">
   <properties>
    <property name="building_type" value="empty"/>
    <property name="can_build" type="bool" value="true"/>
    <property name="is_starting_building" type="bool" value="false"/>
   </properties>
  </object>
  <object id="429" x="222.749" y="98.4578" width="14.6589" height="14.6589">
   <properties>
    <property name="building_type" value="empty"/>
    <property name="can_build" type="bool" value="true"/>
    <property name="is_starting_building" type="bool" value="false"/>
   </properties>
  </object>
  <object id="430" x="159.572" y="129.935" width="14.6589" height="14.6589">
   <properties>
    <property name="building_type" value="empty"/>
    <property name="can_build" type="bool" value="true"/>
    <property name="is_starting_building" type="bool" value="false"/>
   </properties>
  </object>
  <object id="431" x="206.554" y="130.299" width="14.6589" height="14.6589">
   <properties>
    <property name="building_type" value="empty"/>
    <property name="can_build" type="bool" value="true"/>
    <property name="is_starting_building" type="bool" value="false"/>
   </properties>
  </object>
  <object id="432" x="175.502" y="130.669" width="14.6589" height="14.6589">
   <properties>
    <property name="building_type" value="empty"/>
    <property name="can_build" type="bool" value="true"/>
    <property name="is_starting_building" type="bool" value="false"/>
   </properties>
  </object>
  <object id="433" x="222.847" y="130.669" width="14.6589" height="14.6589">
   <properties>
    <property name="building_type" value="empty"/>
    <property name="can_build" type="bool" value="true"/>
    <property name="is_starting_building" type="bool" value="false"/>
   </properties>
  </object>
  <object id="435" x="191.117" y="130.299" width="14.6589" height="14.6589">
   <properties>
    <property name="building_type" value="empty"/>
    <property name="can_build" type="bool" value="true"/>
    <property name="is_starting_building" type="bool" value="false"/>
   </properties>
  </object>
  <object id="436" x="159.511" y="113.302" width="14.6589" height="14.6589">
   <properties>
    <property name="building_type" value="empty"/>
    <property name="can_build" type="bool" value="true"/>
    <property name="is_starting_building" type="bool" value="false"/>
   </properties>
  </object>
  <object id="437" x="206.856" y="114.394" width="14.6589" height="14.6589">
   <properties>
    <property name="building_type" value="empty"/>
    <property name="can_build" type="bool" value="true"/>
    <property name="is_starting_building" type="bool" value="false"/>
   </properties>
  </object>
  <object id="438" x="175.793" y="114.036" width="14.6589" height="14.6589">
   <properties>
    <property name="building_type" value="empty"/>
    <property name="can_build" type="bool" value="true"/>
    <property name="is_starting_building" type="bool" value="false"/>
   </properties>
  </object>
  <object id="439" x="223.138" y="114.764" width="14.6589" height="14.6589">
   <properties>
    <property name="building_type" value="empty"/>
    <property name="can_build" type="bool" value="true"/>
    <property name="is_starting_building" type="bool" value="false"/>
   </properties>
  </object>
  <object id="440" x="158.917" y="96.9647" width="14.6589" height="14.6589">
   <properties>
    <property name="building_type" value="empty"/>
    <property name="can_build" type="bool" value="true"/>
    <property name="is_starting_building" type="bool" value="false"/>
   </properties>
  </object>
  <object id="441" x="206.262" y="98.0568" width="14.6589" height="14.6589">
   <properties>
    <property name="building_type" value="empty"/>
    <property name="can_build" type="bool" value="true"/>
    <property name="is_starting_building" type="bool" value="false"/>
   </properties>
  </object>
  <object id="443" x="191.64" y="146.543" width="14.6589" height="14.6589">
   <properties>
    <property name="building_type" value="empty"/>
    <property name="can_build" type="bool" value="true"/>
    <property name="is_starting_building" type="bool" value="false"/>
   </properties>
  </object>
  <object id="444" x="144.16" y="160.599" width="14.6589" height="14.6589">
   <properties>
    <property name="building_type" value="empty"/>
    <property name="can_build" type="bool" value="true"/>
    <property name="is_starting_building" type="bool" value="false"/>
   </properties>
  </object>
  <object id="446" x="176.513" y="146.913" width="14.6589" height="14.6589">
   <properties>
    <property name="building_type" value="empty"/>
    <property name="can_build" type="bool" value="true"/>
    <property name="is_starting_building" type="bool" value="false"/>
   </properties>
  </object>
  <object id="447" x="223.859" y="146.913" width="14.6589" height="14.6589">
   <properties>
    <property name="building_type" value="empty"/>
    <property name="can_build" type="bool" value="true"/>
    <property name="is_starting_building" type="bool" value="false"/>
   </properties>
  </object>
  <object id="449" x="207.664" y="178.754" width="14.6589" height="14.6589">
   <properties>
    <property name="building_type" value="empty"/>
    <property name="can_build" type="bool" value="true"/>
    <property name="is_starting_building" type="bool" value="false"/>
   </properties>
  </object>
  <object id="450" x="176.611" y="177.644" width="14.6589" height="14.6589">
   <properties>
    <property name="building_type" value="empty"/>
    <property name="can_build" type="bool" value="true"/>
    <property name="is_starting_building" type="bool" value="false"/>
   </properties>
  </object>
  <object id="451" x="223.957" y="179.124" width="14.6589" height="14.6589">
   <properties>
    <property name="building_type" value="empty"/>
    <property name="can_build" type="bool" value="true"/>
    <property name="is_starting_building" type="bool" value="false"/>
   </properties>
  </object>
  <object id="452" x="144.141" y="176.165" width="14.6589" height="14.6589">
   <properties>
    <property name="building_type" value="empty"/>
    <property name="can_build" type="bool" value="true"/>
    <property name="is_starting_building" type="bool" value="false"/>
   </properties>
  </object>
  <object id="454" x="159.881" y="160.26" width="14.6589" height="14.6589">
   <properties>
    <property name="building_type" value="empty"/>
    <property name="can_build" type="bool" value="true"/>
    <property name="is_starting_building" type="bool" value="false"/>
   </properties>
  </object>
  <object id="455" x="207.966" y="162.849" width="14.6589" height="14.6589">
   <properties>
    <property name="building_type" value="empty"/>
    <property name="can_build" type="bool" value="true"/>
    <property name="is_starting_building" type="bool" value="false"/>
   </properties>
  </object>
  <object id="456" x="176.903" y="160.63" width="14.6589" height="14.6589">
   <properties>
    <property name="building_type" value="empty"/>
    <property name="can_build" type="bool" value="true"/>
    <property name="is_starting_building" type="bool" value="false"/>
   </properties>
  </object>
  <object id="457" x="224.248" y="163.219" width="14.6589" height="14.6589">
   <properties>
    <property name="building_type" value="empty"/>
    <property name="can_build" type="bool" value="true"/>
    <property name="is_starting_building" type="bool" value="false"/>
   </properties>
  </object>
  <object id="458" x="160.026" y="146.512" width="14.6589" height="14.6589">
   <properties>
    <property name="building_type" value="empty"/>
    <property name="can_build" type="bool" value="true"/>
    <property name="is_starting_building" type="bool" value="false"/>
   </properties>
  </object>
  <object id="459" x="207.372" y="146.512" width="14.6589" height="14.6589">
   <properties>
    <property name="building_type" value="empty"/>
    <property name="can_build" type="bool" value="true"/>
    <property name="is_starting_building" type="bool" value="false"/>
   </properties>
  </object>
  <object id="460" x="289.659" y="47.7834" width="14.6589" height="14.6589">
   <properties>
    <property name="building_type" value="empty"/>
    <property name="can_build" type="bool" value="true"/>
    <property name="is_starting_building" type="bool" value="false"/>
   </properties>
  </object>
  <object id="461" x="337.005" y="47.7834" width="14.6589" height="14.6589">
   <properties>
    <property name="building_type" value="empty"/>
    <property name="can_build" type="bool" value="true"/>
    <property name="is_starting_building" type="bool" value="false"/>
   </properties>
  </object>
  <object id="462" x="290.264" y="64.4284" width="14.6589" height="14.6589">
   <properties>
    <property name="building_type" value="empty"/>
    <property name="can_build" type="bool" value="true"/>
    <property name="is_starting_building" type="bool" value="false"/>
   </properties>
  </object>
  <object id="465" x="369.223" y="48.1534" width="14.6589" height="14.6589">
   <properties>
    <property name="building_type" value="empty"/>
    <property name="can_build" type="bool" value="true"/>
    <property name="is_starting_building" type="bool" value="false"/>
   </properties>
  </object>
  <object id="466" x="305.683" y="79.9944" width="14.6589" height="14.6589">
   <properties>
    <property name="building_type" value="empty"/>
    <property name="can_build" type="bool" value="true"/>
    <property name="is_starting_building" type="bool" value="false"/>
   </properties>
  </object>
  <object id="470" x="290.246" y="79.9944" width="14.6589" height="14.6589">
   <properties>
    <property name="building_type" value="empty"/>
    <property name="can_build" type="bool" value="true"/>
    <property name="is_starting_building" type="bool" value="false"/>
   </properties>
  </object>
  <object id="472" x="305.985" y="64.0894" width="14.6589" height="14.6589">
   <properties>
    <property name="building_type" value="empty"/>
    <property name="can_build" type="bool" value="true"/>
    <property name="is_starting_building" type="bool" value="false"/>
   </properties>
  </object>
  <object id="476" x="305.391" y="47.7524" width="14.6589" height="14.6589">
   <properties>
    <property name="building_type" value="empty"/>
    <property name="can_build" type="bool" value="true"/>
    <property name="is_starting_building" type="bool" value="false"/>
   </properties>
  </object>
  <object id="477" x="352.736" y="47.7524" width="14.6589" height="14.6589">
   <properties>
    <property name="building_type" value="empty"/>
    <property name="can_build" type="bool" value="true"/>
    <property name="is_starting_building" type="bool" value="false"/>
   </properties>
  </object>
  <object id="479" x="256.315" y="0.962113" width="14.6589" height="14.6589">
   <properties>
    <property name="building_type" value="empty"/>
    <property name="can_build" type="bool" value="true"/>
    <property name="is_starting_building" type="bool" value="false"/>
   </properties>
  </object>
  <object id="480" x="271.734" y="16.5281" width="14.6589" height="14.6589">
   <properties>
    <property name="building_type" value="empty"/>
    <property name="can_build" type="bool" value="true"/>
    <property name="is_starting_building" type="bool" value="false"/>
   </properties>
  </object>
  <object id="481" x="256.297" y="16.5281" width="14.6589" height="14.6589">
   <properties>
    <property name="building_type" value="empty"/>
    <property name="can_build" type="bool" value="true"/>
    <property name="is_starting_building" type="bool" value="false"/>
   </properties>
  </object>
  <object id="482" x="272.036" y="0.623113" width="14.6589" height="14.6589">
   <properties>
    <property name="building_type" value="empty"/>
    <property name="can_build" type="bool" value="true"/>
    <property name="is_starting_building" type="bool" value="false"/>
   </properties>
  </object>
  <object id="483" x="256.685" y="32.0325" width="14.6589" height="14.6589">
   <properties>
    <property name="building_type" value="empty"/>
    <property name="can_build" type="bool" value="true"/>
    <property name="is_starting_building" type="bool" value="false"/>
   </properties>
  </object>
  <object id="484" x="272.104" y="47.5985" width="14.6589" height="14.6589">
   <properties>
    <property name="building_type" value="empty"/>
    <property name="can_build" type="bool" value="true"/>
    <property name="is_starting_building" type="bool" value="false"/>
   </properties>
  </object>
  <object id="485" x="256.667" y="47.5985" width="14.6589" height="14.6589">
   <properties>
    <property name="building_type" value="empty"/>
    <property name="can_build" type="bool" value="true"/>
    <property name="is_starting_building" type="bool" value="false"/>
   </properties>
  </object>
  <object id="486" x="272.406" y="31.6935" width="14.6589" height="14.6589">
   <properties>
    <property name="building_type" value="empty"/>
    <property name="can_build" type="bool" value="true"/>
    <property name="is_starting_building" type="bool" value="false"/>
   </properties>
  </object>
  <object id="487" x="257.055" y="63.8426" width="14.6589" height="14.6589">
   <properties>
    <property name="building_type" value="empty"/>
    <property name="can_build" type="bool" value="true"/>
    <property name="is_starting_building" type="bool" value="false"/>
   </properties>
  </object>
  <object id="488" x="272.474" y="79.4086" width="14.6589" height="14.6589">
   <properties>
    <property name="building_type" value="empty"/>
    <property name="can_build" type="bool" value="true"/>
    <property name="is_starting_building" type="bool" value="false"/>
   </properties>
  </object>
  <object id="489" x="257.037" y="79.4086" width="14.6589" height="14.6589">
   <properties>
    <property name="building_type" value="empty"/>
    <property name="can_build" type="bool" value="true"/>
    <property name="is_starting_building" type="bool" value="false"/>
   </properties>
  </object>
  <object id="490" x="272.776" y="63.5036" width="14.6589" height="14.6589">
   <properties>
    <property name="building_type" value="empty"/>
    <property name="can_build" type="bool" value="true"/>
    <property name="is_starting_building" type="bool" value="false"/>
   </properties>
  </object>
  <object id="491" x="448.655" y="97.1323" width="14.6589" height="14.6589">
   <properties>
    <property name="building_type" value="empty"/>
    <property name="can_build" type="bool" value="true"/>
    <property name="is_starting_building" type="bool" value="false"/>
   </properties>
  </object>
  <object id="492" x="464.074" y="112.698" width="14.6589" height="14.6589">
   <properties>
    <property name="building_type" value="empty"/>
    <property name="can_build" type="bool" value="true"/>
    <property name="is_starting_building" type="bool" value="false"/>
   </properties>
  </object>
  <object id="493" x="448.637" y="112.698" width="14.6589" height="14.6589">
   <properties>
    <property name="building_type" value="empty"/>
    <property name="can_build" type="bool" value="true"/>
    <property name="is_starting_building" type="bool" value="false"/>
   </properties>
  </object>
  <object id="494" x="464.376" y="96.7933" width="14.6589" height="14.6589">
   <properties>
    <property name="building_type" value="empty"/>
    <property name="can_build" type="bool" value="true"/>
    <property name="is_starting_building" type="bool" value="false"/>
   </properties>
  </object>
  <object id="495" x="416.845" y="96.3925" width="14.6589" height="14.6589">
   <properties>
    <property name="building_type" value="empty"/>
    <property name="can_build" type="bool" value="true"/>
    <property name="is_starting_building" type="bool" value="false"/>
   </properties>
  </object>
  <object id="496" x="432.264" y="111.958" width="14.6589" height="14.6589">
   <properties>
    <property name="building_type" value="empty"/>
    <property name="can_build" type="bool" value="true"/>
    <property name="is_starting_building" type="bool" value="false"/>
   </properties>
  </object>
  <object id="497" x="416.827" y="111.958" width="14.6589" height="14.6589">
   <properties>
    <property name="building_type" value="empty"/>
    <property name="can_build" type="bool" value="true"/>
    <property name="is_starting_building" type="bool" value="false"/>
   </properties>
  </object>
  <object id="498" x="432.566" y="96.0535" width="14.6589" height="14.6589">
   <properties>
    <property name="building_type" value="empty"/>
    <property name="can_build" type="bool" value="true"/>
    <property name="is_starting_building" type="bool" value="false"/>
   </properties>
  </object>
  <object id="499" x="449.395" y="128.573" width="14.6589" height="14.6589">
   <properties>
    <property name="building_type" value="empty"/>
    <property name="can_build" type="bool" value="true"/>
    <property name="is_starting_building" type="bool" value="false"/>
   </properties>
  </object>
  <object id="500" x="464.814" y="144.139" width="14.6589" height="14.6589">
   <properties>
    <property name="building_type" value="empty"/>
    <property name="can_build" type="bool" value="true"/>
    <property name="is_starting_building" type="bool" value="false"/>
   </properties>
  </object>
  <object id="501" x="449.377" y="144.139" width="14.6589" height="14.6589">
   <properties>
    <property name="building_type" value="empty"/>
    <property name="can_build" type="bool" value="true"/>
    <property name="is_starting_building" type="bool" value="false"/>
   </properties>
  </object>
  <object id="502" x="465.116" y="128.234" width="14.6589" height="14.6589">
   <properties>
    <property name="building_type" value="empty"/>
    <property name="can_build" type="bool" value="true"/>
    <property name="is_starting_building" type="bool" value="false"/>
   </properties>
  </object>
  <object id="503" x="417.955" y="128.203" width="14.6589" height="14.6589">
   <properties>
    <property name="building_type" value="empty"/>
    <property name="can_build" type="bool" value="true"/>
    <property name="is_starting_building" type="bool" value="false"/>
   </properties>
  </object>
  <object id="505" x="417.482" y="144.133" width="14.6589" height="14.6589">
   <properties>
    <property name="building_type" value="empty"/>
    <property name="can_build" type="bool" value="true"/>
    <property name="is_starting_building" type="bool" value="false"/>
   </properties>
  </object>
  <object id="506" x="433.676" y="127.864" width="14.6589" height="14.6589">
   <properties>
    <property name="building_type" value="empty"/>
    <property name="can_build" type="bool" value="true"/>
    <property name="is_starting_building" type="bool" value="false"/>
   </properties>
  </object>
  <object id="507" x="464.595" y="160.968" width="14.6589" height="14.6589">
   <properties>
    <property name="building_type" value="empty"/>
    <property name="can_build" type="bool" value="true"/>
    <property name="is_starting_building" type="bool" value="false"/>
   </properties>
  </object>
  <object id="508" x="449.158" y="160.968" width="14.6589" height="14.6589">
   <properties>
    <property name="building_type" value="empty"/>
    <property name="can_build" type="bool" value="true"/>
    <property name="is_starting_building" type="bool" value="false"/>
   </properties>
  </object>
  <object id="509" x="273.699" y="95.6527" width="14.6589" height="14.6589">
   <properties>
    <property name="building_type" value="empty"/>
    <property name="can_build" type="bool" value="true"/>
    <property name="is_starting_building" type="bool" value="false"/>
   </properties>
  </object>
  <object id="510" x="288.868" y="112.969" width="14.6589" height="14.6589">
   <properties>
    <property name="building_type" value="empty"/>
    <property name="can_build" type="bool" value="true"/>
    <property name="is_starting_building" type="bool" value="false"/>
   </properties>
  </object>
  <object id="511" x="272.572" y="111.219" width="14.6589" height="14.6589">
   <properties>
    <property name="building_type" value="empty"/>
    <property name="can_build" type="bool" value="true"/>
    <property name="is_starting_building" type="bool" value="false"/>
   </properties>
  </object>
  <object id="512" x="289.92" y="96.8137" width="14.6589" height="14.6589">
   <properties>
    <property name="building_type" value="empty"/>
    <property name="can_build" type="bool" value="true"/>
    <property name="is_starting_building" type="bool" value="false"/>
   </properties>
  </object>
  <object id="513" x="240.41" y="96.7624" width="14.6589" height="14.6589">
   <properties>
    <property name="building_type" value="empty"/>
    <property name="can_build" type="bool" value="true"/>
    <property name="is_starting_building" type="bool" value="false"/>
   </properties>
  </object>
  <object id="514" x="255.829" y="112.328" width="14.6589" height="14.6589">
   <properties>
    <property name="building_type" value="empty"/>
    <property name="can_build" type="bool" value="true"/>
    <property name="is_starting_building" type="bool" value="false"/>
   </properties>
  </object>
  <object id="515" x="240.392" y="112.328" width="14.6589" height="14.6589">
   <properties>
    <property name="building_type" value="empty"/>
    <property name="can_build" type="bool" value="true"/>
    <property name="is_starting_building" type="bool" value="false"/>
   </properties>
  </object>
  <object id="516" x="256.131" y="96.0535" width="14.6589" height="14.6589">
   <properties>
    <property name="building_type" value="empty"/>
    <property name="can_build" type="bool" value="true"/>
    <property name="is_starting_building" type="bool" value="false"/>
   </properties>
  </object>
  <object id="517" x="240.78" y="128.942" width="14.6589" height="14.6589">
   <properties>
    <property name="building_type" value="empty"/>
    <property name="can_build" type="bool" value="true"/>
    <property name="is_starting_building" type="bool" value="false"/>
   </properties>
  </object>
  <object id="518" x="256.199" y="144.508" width="14.6589" height="14.6589">
   <properties>
    <property name="building_type" value="empty"/>
    <property name="can_build" type="bool" value="true"/>
    <property name="is_starting_building" type="bool" value="false"/>
   </properties>
  </object>
  <object id="519" x="240.762" y="144.508" width="14.6589" height="14.6589">
   <properties>
    <property name="building_type" value="empty"/>
    <property name="can_build" type="bool" value="true"/>
    <property name="is_starting_building" type="bool" value="false"/>
   </properties>
  </object>
  <object id="520" x="256.501" y="128.603" width="14.6589" height="14.6589">
   <properties>
    <property name="building_type" value="empty"/>
    <property name="can_build" type="bool" value="true"/>
    <property name="is_starting_building" type="bool" value="false"/>
   </properties>
  </object>
  <object id="521" x="49.1791" y="193.302" width="14.6589" height="14.6589">
   <properties>
    <property name="building_type" value="empty"/>
    <property name="can_build" type="bool" value="true"/>
    <property name="is_starting_building" type="bool" value="false"/>
   </properties>
  </object>
  <object id="522" x="64.5981" y="208.868" width="14.6589" height="14.6589">
   <properties>
    <property name="building_type" value="empty"/>
    <property name="can_build" type="bool" value="true"/>
    <property name="is_starting_building" type="bool" value="false"/>
   </properties>
  </object>
  <object id="523" x="49.1611" y="208.868" width="14.6589" height="14.6589">
   <properties>
    <property name="building_type" value="empty"/>
    <property name="can_build" type="bool" value="true"/>
    <property name="is_starting_building" type="bool" value="false"/>
   </properties>
  </object>
  <object id="524" x="64.9001" y="192.963" width="14.6589" height="14.6589">
   <properties>
    <property name="building_type" value="empty"/>
    <property name="can_build" type="bool" value="true"/>
    <property name="is_starting_building" type="bool" value="false"/>
   </properties>
  </object>
  <object id="526" x="128.218" y="208.868" width="14.6589" height="14.6589">
   <properties>
    <property name="building_type" value="empty"/>
    <property name="can_build" type="bool" value="true"/>
    <property name="is_starting_building" type="bool" value="false"/>
   </properties>
  </object>
  <object id="527" x="112.781" y="208.868" width="14.6589" height="14.6589">
   <properties>
    <property name="building_type" value="empty"/>
    <property name="can_build" type="bool" value="true"/>
    <property name="is_starting_building" type="bool" value="false"/>
   </properties>
  </object>
  <object id="528" x="128.52" y="192.963" width="14.6589" height="14.6589">
   <properties>
    <property name="building_type" value="empty"/>
    <property name="can_build" type="bool" value="true"/>
    <property name="is_starting_building" type="bool" value="false"/>
   </properties>
  </object>
  <object id="529" x="96.1893" y="209.053" width="14.6589" height="14.6589">
   <properties>
    <property name="building_type" value="empty"/>
    <property name="can_build" type="bool" value="true"/>
    <property name="is_starting_building" type="bool" value="false"/>
   </properties>
  </object>
  <object id="530" x="80.7523" y="209.053" width="14.6589" height="14.6589">
   <properties>
    <property name="building_type" value="empty"/>
    <property name="can_build" type="bool" value="true"/>
    <property name="is_starting_building" type="bool" value="false"/>
   </properties>
  </object>
  <object id="535" x="144.979" y="194.042" width="14.6589" height="14.6589">
   <properties>
    <property name="building_type" value="empty"/>
    <property name="can_build" type="bool" value="true"/>
    <property name="is_starting_building" type="bool" value="false"/>
   </properties>
  </object>
  <object id="536" x="160.398" y="209.608" width="14.6589" height="14.6589">
   <properties>
    <property name="building_type" value="empty"/>
    <property name="can_build" type="bool" value="true"/>
    <property name="is_starting_building" type="bool" value="false"/>
   </properties>
  </object>
  <object id="537" x="144.961" y="209.608" width="14.6589" height="14.6589">
   <properties>
    <property name="building_type" value="empty"/>
    <property name="can_build" type="bool" value="true"/>
    <property name="is_starting_building" type="bool" value="false"/>
   </properties>
  </object>
  <object id="538" x="160.7" y="193.703" width="14.6589" height="14.6589">
   <properties>
    <property name="building_type" value="empty"/>
    <property name="can_build" type="bool" value="true"/>
    <property name="is_starting_building" type="bool" value="false"/>
   </properties>
  </object>
  <object id="539" x="176.789" y="194.042" width="14.6589" height="14.6589">
   <properties>
    <property name="building_type" value="empty"/>
    <property name="can_build" type="bool" value="true"/>
    <property name="is_starting_building" type="bool" value="false"/>
   </properties>
  </object>
  <object id="540" x="192.208" y="209.608" width="14.6589" height="14.6589">
   <properties>
    <property name="building_type" value="empty"/>
    <property name="can_build" type="bool" value="true"/>
    <property name="is_starting_building" type="bool" value="false"/>
   </properties>
  </object>
  <object id="541" x="176.771" y="209.608" width="14.6589" height="14.6589">
   <properties>
    <property name="building_type" value="empty"/>
    <property name="can_build" type="bool" value="true"/>
    <property name="is_starting_building" type="bool" value="false"/>
   </properties>
  </object>
  <object id="542" x="192.51" y="193.703" width="14.6589" height="14.6589">
   <properties>
    <property name="building_type" value="empty"/>
    <property name="can_build" type="bool" value="true"/>
    <property name="is_starting_building" type="bool" value="false"/>
   </properties>
  </object>
  <object id="543" x="208.6" y="195.152" width="14.6589" height="14.6589">
   <properties>
    <property name="building_type" value="empty"/>
    <property name="can_build" type="bool" value="true"/>
    <property name="is_starting_building" type="bool" value="false"/>
   </properties>
  </object>
  <object id="544" x="224.019" y="210.718" width="14.6589" height="14.6589">
   <properties>
    <property name="building_type" value="empty"/>
    <property name="can_build" type="bool" value="true"/>
    <property name="is_starting_building" type="bool" value="false"/>
   </properties>
  </object>
  <object id="545" x="208.582" y="210.718" width="14.6589" height="14.6589">
   <properties>
    <property name="building_type" value="empty"/>
    <property name="can_build" type="bool" value="true"/>
    <property name="is_starting_building" type="bool" value="false"/>
   </properties>
  </object>
  <object id="546" x="224.321" y="194.813" width="14.6589" height="14.6589">
   <properties>
    <property name="building_type" value="empty"/>
    <property name="can_build" type="bool" value="true"/>
    <property name="is_starting_building" type="bool" value="false"/>
   </properties>
  </object>
  <object id="547" x="240.41" y="209.207" width="14.6589" height="14.6589">
   <properties>
    <property name="building_type" value="empty"/>
    <property name="can_build" type="bool" value="true"/>
    <property name="is_starting_building" type="bool" value="false"/>
   </properties>
  </object>
  <object id="548" x="255.829" y="224.773" width="14.6589" height="14.6589">
   <properties>
    <property name="building_type" value="empty"/>
    <property name="can_build" type="bool" value="true"/>
    <property name="is_starting_building" type="bool" value="false"/>
   </properties>
  </object>
  <object id="549" x="240.392" y="224.773" width="14.6589" height="14.6589">
   <properties>
    <property name="building_type" value="empty"/>
    <property name="can_build" type="bool" value="true"/>
    <property name="is_starting_building" type="bool" value="false"/>
   </properties>
  </object>
  <object id="550" x="256.131" y="208.868" width="14.6589" height="14.6589">
   <properties>
    <property name="building_type" value="empty"/>
    <property name="can_build" type="bool" value="true"/>
    <property name="is_starting_building" type="bool" value="false"/>
   </properties>
  </object>
  <object id="551" x="240.78" y="178.137" width="14.6589" height="14.6589">
   <properties>
    <property name="building_type" value="empty"/>
    <property name="can_build" type="bool" value="true"/>
    <property name="is_starting_building" type="bool" value="false"/>
   </properties>
  </object>
  <object id="552" x="256.199" y="193.703" width="14.6589" height="14.6589">
   <properties>
    <property name="building_type" value="empty"/>
    <property name="can_build" type="bool" value="true"/>
    <property name="is_starting_building" type="bool" value="false"/>
   </properties>
  </object>
  <object id="553" x="240.762" y="193.703" width="14.6589" height="14.6589">
   <properties>
    <property name="building_type" value="empty"/>
    <property name="can_build" type="bool" value="true"/>
    <property name="is_starting_building" type="bool" value="false"/>
   </properties>
  </object>
  <object id="554" x="256.501" y="177.798" width="14.6589" height="14.6589">
   <properties>
    <property name="building_type" value="empty"/>
    <property name="can_build" type="bool" value="true"/>
    <property name="is_starting_building" type="bool" value="false"/>
   </properties>
  </object>
  <object id="555" x="64.954" y="0.592228" width="14.6589" height="14.6589">
   <properties>
    <property name="building_type" value="empty"/>
    <property name="can_build" type="bool" value="true"/>
    <property name="is_starting_building" type="bool" value="false"/>
   </properties>
  </object>
  <object id="556" x="80.873" y="16.1582" width="14.6589" height="14.6589">
   <properties>
    <property name="building_type" value="empty"/>
    <property name="can_build" type="bool" value="true"/>
    <property name="is_starting_building" type="bool" value="false"/>
   </properties>
  </object>
  <object id="557" x="64.936" y="16.5332" width="14.6589" height="14.6589">
   <properties>
    <property name="building_type" value="empty"/>
    <property name="can_build" type="bool" value="true"/>
    <property name="is_starting_building" type="bool" value="false"/>
   </properties>
  </object>
  <object id="558" x="81.175" y="0.253228" width="14.6589" height="14.6589">
   <properties>
    <property name="building_type" value="empty"/>
    <property name="can_build" type="bool" value="true"/>
    <property name="is_starting_building" type="bool" value="false"/>
   </properties>
  </object>
  <object id="559" x="96.8943" y="0.592228" width="14.6589" height="14.6589">
   <properties>
    <property name="building_type" value="empty"/>
    <property name="can_build" type="bool" value="true"/>
    <property name="is_starting_building" type="bool" value="false"/>
   </properties>
  </object>
  <object id="560" x="112.313" y="16.1582" width="14.6589" height="14.6589">
   <properties>
    <property name="building_type" value="empty"/>
    <property name="can_build" type="bool" value="true"/>
    <property name="is_starting_building" type="bool" value="false"/>
   </properties>
  </object>
  <object id="561" x="96.8763" y="16.1582" width="14.6589" height="14.6589">
   <properties>
    <property name="building_type" value="empty"/>
    <property name="can_build" type="bool" value="true"/>
    <property name="is_starting_building" type="bool" value="false"/>
   </properties>
  </object>
  <object id="562" x="112.615" y="0.253228" width="14.6589" height="14.6589">
   <properties>
    <property name="building_type" value="empty"/>
    <property name="can_build" type="bool" value="true"/>
    <property name="is_starting_building" type="bool" value="false"/>
   </properties>
  </object>
  <object id="563" x="128.335" y="1.332" width="14.6589" height="14.6589">
   <properties>
    <property name="building_type" value="empty"/>
    <property name="can_build" type="bool" value="true"/>
    <property name="is_starting_building" type="bool" value="false"/>
   </properties>
  </object>
  <object id="564" x="143.754" y="16.898" width="14.6589" height="14.6589">
   <properties>
    <property name="building_type" value="empty"/>
    <property name="can_build" type="bool" value="true"/>
    <property name="is_starting_building" type="bool" value="false"/>
   </properties>
  </object>
  <object id="565" x="128.317" y="16.898" width="14.6589" height="14.6589">
   <properties>
    <property name="building_type" value="empty"/>
    <property name="can_build" type="bool" value="true"/>
    <property name="is_starting_building" type="bool" value="false"/>
   </properties>
  </object>
  <object id="566" x="144.056" y="0.992998" width="14.6589" height="14.6589">
   <properties>
    <property name="building_type" value="empty"/>
    <property name="can_build" type="bool" value="true"/>
    <property name="is_starting_building" type="bool" value="false"/>
   </properties>
  </object>
  <object id="567" x="159.775" y="1.332" width="14.6589" height="14.6589">
   <properties>
    <property name="building_type" value="empty"/>
    <property name="can_build" type="bool" value="true"/>
    <property name="is_starting_building" type="bool" value="false"/>
   </properties>
  </object>
  <object id="568" x="175.194" y="16.898" width="14.6589" height="14.6589">
   <properties>
    <property name="building_type" value="empty"/>
    <property name="can_build" type="bool" value="true"/>
    <property name="is_starting_building" type="bool" value="false"/>
   </properties>
  </object>
  <object id="569" x="159.757" y="16.898" width="14.6589" height="14.6589">
   <properties>
    <property name="building_type" value="empty"/>
    <property name="can_build" type="bool" value="true"/>
    <property name="is_starting_building" type="bool" value="false"/>
   </properties>
  </object>
  <object id="570" x="175.496" y="0.992998" width="14.6589" height="14.6589">
   <properties>
    <property name="building_type" value="empty"/>
    <property name="can_build" type="bool" value="true"/>
    <property name="is_starting_building" type="bool" value="false"/>
   </properties>
  </object>
  <object id="571" x="191.215" y="0.222342" width="14.6589" height="14.6589">
   <properties>
    <property name="building_type" value="empty"/>
    <property name="can_build" type="bool" value="true"/>
    <property name="is_starting_building" type="bool" value="false"/>
   </properties>
  </object>
  <object id="572" x="206.634" y="15.7883" width="14.6589" height="14.6589">
   <properties>
    <property name="building_type" value="empty"/>
    <property name="can_build" type="bool" value="true"/>
    <property name="is_starting_building" type="bool" value="false"/>
   </properties>
  </object>
  <object id="573" x="191.197" y="15.7883" width="14.6589" height="14.6589">
   <properties>
    <property name="building_type" value="empty"/>
    <property name="can_build" type="bool" value="true"/>
    <property name="is_starting_building" type="bool" value="false"/>
   </properties>
  </object>
  <object id="574" x="206.936" y="-0.116658" width="14.6589" height="14.6589">
   <properties>
    <property name="building_type" value="empty"/>
    <property name="can_build" type="bool" value="true"/>
    <property name="is_starting_building" type="bool" value="false"/>
   </properties>
  </object>
  <object id="575" x="223.395" y="0.962113" width="14.6589" height="14.6589">
   <properties>
    <property name="building_type" value="empty"/>
    <property name="can_build" type="bool" value="true"/>
    <property name="is_starting_building" type="bool" value="false"/>
   </properties>
  </object>
  <object id="576" x="238.814" y="16.5281" width="14.6589" height="14.6589">
   <properties>
    <property name="building_type" value="empty"/>
    <property name="can_build" type="bool" value="true"/>
    <property name="is_starting_building" type="bool" value="false"/>
   </properties>
  </object>
  <object id="577" x="223.377" y="16.5281" width="14.6589" height="14.6589">
   <properties>
    <property name="building_type" value="empty"/>
    <property name="can_build" type="bool" value="true"/>
    <property name="is_starting_building" type="bool" value="false"/>
   </properties>
  </object>
  <object id="578" x="239.116" y="0.623113" width="14.6589" height="14.6589">
   <properties>
    <property name="building_type" value="empty"/>
    <property name="can_build" type="bool" value="true"/>
    <property name="is_starting_building" type="bool" value="false"/>
   </properties>
  </object>
  <object id="580" x="144.493" y="49.078" width="14.6589" height="14.6589">
   <properties>
    <property name="building_type" value="empty"/>
    <property name="can_build" type="bool" value="true"/>
    <property name="is_starting_building" type="bool" value="false"/>
   </properties>
  </object>
  <object id="582" x="144.795" y="33.173" width="14.6589" height="14.6589">
   <properties>
    <property name="building_type" value="empty"/>
    <property name="can_build" type="bool" value="true"/>
    <property name="is_starting_building" type="bool" value="false"/>
   </properties>
  </object>
  <object id="583" x="97.634" y="32.7722" width="14.6589" height="14.6589">
   <properties>
    <property name="building_type" value="empty"/>
    <property name="can_build" type="bool" value="true"/>
    <property name="is_starting_building" type="bool" value="false"/>
   </properties>
  </object>
  <object id="584" x="113.053" y="48.3382" width="14.6589" height="14.6589">
   <properties>
    <property name="building_type" value="empty"/>
    <property name="can_build" type="bool" value="true"/>
    <property name="is_starting_building" type="bool" value="false"/>
   </properties>
  </object>
  <object id="585" x="97.616" y="48.3382" width="14.6589" height="14.6589">
   <properties>
    <property name="building_type" value="empty"/>
    <property name="can_build" type="bool" value="true"/>
    <property name="is_starting_building" type="bool" value="false"/>
   </properties>
  </object>
  <object id="586" x="113.355" y="32.4332" width="14.6589" height="14.6589">
   <properties>
    <property name="building_type" value="empty"/>
    <property name="can_build" type="bool" value="true"/>
    <property name="is_starting_building" type="bool" value="false"/>
   </properties>
  </object>
  <object id="588" x="80.873" y="47.5985" width="14.6589" height="14.6589">
   <properties>
    <property name="building_type" value="empty"/>
    <property name="can_build" type="bool" value="true"/>
    <property name="is_starting_building" type="bool" value="false"/>
   </properties>
  </object>
  <object id="590" x="81.175" y="31.6935" width="14.6589" height="14.6589">
   <properties>
    <property name="building_type" value="empty"/>
    <property name="can_build" type="bool" value="true"/>
    <property name="is_starting_building" type="bool" value="false"/>
   </properties>
  </object>
  <object id="593" x="272.741" y="224.388" width="14.6589" height="14.6589">
   <properties>
    <property name="building_type" value="empty"/>
    <property name="can_build" type="bool" value="true"/>
    <property name="is_starting_building" type="bool" value="false"/>
   </properties>
  </object>
  <object id="594" x="273.346" y="241.033" width="14.6589" height="14.6589">
   <properties>
    <property name="building_type" value="empty"/>
    <property name="can_build" type="bool" value="true"/>
    <property name="is_starting_building" type="bool" value="false"/>
   </properties>
  </object>
  <object id="595" x="273.327" y="256.599" width="14.6589" height="14.6589">
   <properties>
    <property name="building_type" value="empty"/>
    <property name="can_build" type="bool" value="true"/>
    <property name="is_starting_building" type="bool" value="false"/>
   </properties>
  </object>
  <object id="596" x="240.075" y="81.443" width="14.6589" height="14.6589">
   <properties>
    <property name="building_type" value="empty"/>
    <property name="can_build" type="bool" value="true"/>
    <property name="is_starting_building" type="bool" value="false"/>
   </properties>
  </object>
  <object id="597" x="224.638" y="81.443" width="14.6589" height="14.6589">
   <properties>
    <property name="building_type" value="empty"/>
    <property name="can_build" type="bool" value="true"/>
    <property name="is_starting_building" type="bool" value="false"/>
   </properties>
  </object>
  <object id="598" x="127.999" y="81.0731" width="14.6589" height="14.6589">
   <properties>
    <property name="building_type" value="empty"/>
    <property name="can_build" type="bool" value="true"/>
    <property name="is_starting_building" type="bool" value="false"/>
   </properties>
  </object>
  <object id="599" x="111.823" y="81.443" width="14.6589" height="14.6589">
   <properties>
    <property name="building_type" value="empty"/>
    <property name="can_build" type="bool" value="true"/>
    <property name="is_starting_building" type="bool" value="false"/>
   </properties>
  </object>
  <object id="600" x="95.1287" y="81.0731" width="14.6589" height="14.6589">
   <properties>
    <property name="building_type" value="empty"/>
    <property name="can_build" type="bool" value="true"/>
    <property name="is_starting_building" type="bool" value="false"/>
   </properties>
  </object>
  <object id="601" x="240.814" y="65.168" width="14.6589" height="14.6589">
   <properties>
    <property name="building_type" value="empty"/>
    <property name="can_build" type="bool" value="true"/>
    <property name="is_starting_building" type="bool" value="false"/>
   </properties>
  </object>
  <object id="602" x="225.377" y="65.168" width="14.6589" height="14.6589">
   <properties>
    <property name="building_type" value="empty"/>
    <property name="can_build" type="bool" value="true"/>
    <property name="is_starting_building" type="bool" value="false"/>
   </properties>
  </object>
  <object id="603" x="207.944" y="81.0731" width="14.6589" height="14.6589">
   <properties>
    <property name="building_type" value="empty"/>
    <property name="can_build" type="bool" value="true"/>
    <property name="is_starting_building" type="bool" value="false"/>
   </properties>
  </object>
  <object id="604" x="208.313" y="64.0584" width="14.6589" height="14.6589">
   <properties>
    <property name="building_type" value="empty"/>
    <property name="can_build" type="bool" value="true"/>
    <property name="is_starting_building" type="bool" value="false"/>
   </properties>
  </object>
  <object id="605" x="144.693" y="80.7032" width="14.6589" height="14.6589">
   <properties>
    <property name="building_type" value="empty"/>
    <property name="can_build" type="bool" value="true"/>
    <property name="is_starting_building" type="bool" value="false"/>
   </properties>
  </object>
  <object id="606" x="465.014" y="64.4283" width="14.6589" height="14.6589">
   <properties>
    <property name="building_type" value="empty"/>
    <property name="can_build" type="bool" value="true"/>
    <property name="is_starting_building" type="bool" value="false"/>
   </properties>
  </object>
  <object id="607" x="272.674" y="127.679" width="14.6589" height="14.6589">
   <properties>
    <property name="building_type" value="empty"/>
    <property name="can_build" type="bool" value="true"/>
    <property name="is_starting_building" type="bool" value="false"/>
   </properties>
  </object>
  <object id="612" x="191.242" y="81.2628" width="14.6589" height="14.6589">
   <properties>
    <property name="building_type" value="empty"/>
    <property name="can_build" type="bool" value="true"/>
    <property name="is_starting_building" type="bool" value="false"/>
   </properties>
  </object>
  <object id="613" x="191.611" y="64.2481" width="14.6589" height="14.6589">
   <properties>
    <property name="building_type" value="empty"/>
    <property name="can_build" type="bool" value="true"/>
    <property name="is_starting_building" type="bool" value="false"/>
   </properties>
  </object>
  <object id="614" x="240.206" y="48.366" width="14.6589" height="14.6589">
   <properties>
    <property name="building_type" value="empty"/>
    <property name="can_build" type="bool" value="true"/>
    <property name="is_starting_building" type="bool" value="false"/>
   </properties>
  </object>
  <object id="615" x="0.750862" y="336.933" width="14.6589" height="14.6589">
   <properties>
    <property name="building_type" value="empty"/>
    <property name="can_build" type="bool" value="true"/>
    <property name="is_starting_building" type="bool" value="false"/>
   </properties>
  </object>
  <object id="616" x="0.689209" y="352.912" width="14.6589" height="14.6589">
   <properties>
    <property name="building_type" value="empty"/>
    <property name="can_build" type="bool" value="true"/>
    <property name="is_starting_building" type="bool" value="false"/>
   </properties>
  </object>
  <object id="617" x="16.7013" y="321.096" width="14.6589" height="14.6589">
   <properties>
    <property name="building_type" value="empty"/>
    <property name="can_build" type="bool" value="true"/>
    <property name="is_starting_building" type="bool" value="false"/>
   </properties>
  </object>
  <object id="618" x="0.931012" y="320.763" width="14.6589" height="14.6589">
   <properties>
    <property name="building_type" value="empty"/>
    <property name="can_build" type="bool" value="true"/>
    <property name="is_starting_building" type="bool" value="false"/>
   </properties>
  </object>
  <object id="620" x="16.8161" y="337.236" width="14.6589" height="14.6589">
   <properties>
    <property name="building_type" value="empty"/>
    <property name="can_build" type="bool" value="true"/>
    <property name="is_starting_building" type="bool" value="false"/>
   </properties>
  </object>
  <object id="634" x="17.0039" y="353.004" width="14.6589" height="14.6589">
   <properties>
    <property name="building_type" value="empty"/>
    <property name="can_build" type="bool" value="true"/>
    <property name="is_starting_building" type="bool" value="false"/>
   </properties>
  </object>
  <object id="635" x="32.7261" y="336.72" width="14.6589" height="14.6589">
   <properties>
    <property name="building_type" value="empty"/>
    <property name="can_build" type="bool" value="true"/>
    <property name="is_starting_building" type="bool" value="false"/>
   </properties>
  </object>
  <object id="636" x="32.6645" y="352.699" width="14.6589" height="14.6589">
   <properties>
    <property name="building_type" value="empty"/>
    <property name="can_build" type="bool" value="true"/>
    <property name="is_starting_building" type="bool" value="false"/>
   </properties>
  </object>
  <object id="637" x="48.6766" y="320.883" width="14.6589" height="14.6589">
   <properties>
    <property name="building_type" value="empty"/>
    <property name="can_build" type="bool" value="true"/>
    <property name="is_starting_building" type="bool" value="false"/>
   </properties>
  </object>
  <object id="638" x="32.9063" y="320.55" width="14.6589" height="14.6589">
   <properties>
    <property name="building_type" value="empty"/>
    <property name="can_build" type="bool" value="true"/>
    <property name="is_starting_building" type="bool" value="false"/>
   </properties>
  </object>
  <object id="639" x="48.7914" y="337.023" width="14.6589" height="14.6589">
   <properties>
    <property name="building_type" value="empty"/>
    <property name="can_build" type="bool" value="true"/>
    <property name="is_starting_building" type="bool" value="false"/>
   </properties>
  </object>
  <object id="640" x="48.9792" y="352.791" width="14.6589" height="14.6589">
   <properties>
    <property name="building_type" value="empty"/>
    <property name="can_build" type="bool" value="true"/>
    <property name="is_starting_building" type="bool" value="false"/>
   </properties>
  </object>
  <object id="641" x="0.670541" y="385.077" width="14.6589" height="14.6589">
   <properties>
    <property name="building_type" value="empty"/>
    <property name="can_build" type="bool" value="true"/>
    <property name="is_starting_building" type="bool" value="false"/>
   </properties>
  </object>
  <object id="642" x="0.608888" y="401.056" width="14.6589" height="14.6589">
   <properties>
    <property name="building_type" value="empty"/>
    <property name="can_build" type="bool" value="true"/>
    <property name="is_starting_building" type="bool" value="false"/>
   </properties>
  </object>
  <object id="643" x="16.621" y="369.24" width="14.6589" height="14.6589">
   <properties>
    <property name="building_type" value="empty"/>
    <property name="can_build" type="bool" value="true"/>
    <property name="is_starting_building" type="bool" value="false"/>
   </properties>
  </object>
  <object id="644" x="0.850691" y="368.907" width="14.6589" height="14.6589">
   <properties>
    <property name="building_type" value="empty"/>
    <property name="can_build" type="bool" value="true"/>
    <property name="is_starting_building" type="bool" value="false"/>
   </properties>
  </object>
  <object id="645" x="16.7358" y="385.38" width="14.6589" height="14.6589">
   <properties>
    <property name="building_type" value="empty"/>
    <property name="can_build" type="bool" value="true"/>
    <property name="is_starting_building" type="bool" value="false"/>
   </properties>
  </object>
  <object id="646" x="16.9236" y="401.148" width="14.6589" height="14.6589">
   <properties>
    <property name="building_type" value="empty"/>
    <property name="can_build" type="bool" value="true"/>
    <property name="is_starting_building" type="bool" value="false"/>
   </properties>
  </object>
  <object id="647" x="32.6458" y="384.864" width="14.6589" height="14.6589">
   <properties>
    <property name="building_type" value="empty"/>
    <property name="can_build" type="bool" value="true"/>
    <property name="is_starting_building" type="bool" value="false"/>
   </properties>
  </object>
  <object id="648" x="32.5842" y="400.843" width="14.6589" height="14.6589">
   <properties>
    <property name="building_type" value="empty"/>
    <property name="can_build" type="bool" value="true"/>
    <property name="is_starting_building" type="bool" value="false"/>
   </properties>
  </object>
  <object id="649" x="48.5963" y="369.027" width="14.6589" height="14.6589">
   <properties>
    <property name="building_type" value="empty"/>
    <property name="can_build" type="bool" value="true"/>
    <property name="is_starting_building" type="bool" value="false"/>
   </properties>
  </object>
  <object id="650" x="32.826" y="368.694" width="14.6589" height="14.6589">
   <properties>
    <property name="building_type" value="empty"/>
    <property name="can_build" type="bool" value="true"/>
    <property name="is_starting_building" type="bool" value="false"/>
   </properties>
  </object>
  <object id="651" x="48.7111" y="385.167" width="14.6589" height="14.6589">
   <properties>
    <property name="building_type" value="empty"/>
    <property name="can_build" type="bool" value="true"/>
    <property name="is_starting_building" type="bool" value="false"/>
   </properties>
  </object>
  <object id="652" x="48.8989" y="400.935" width="14.6589" height="14.6589">
   <properties>
    <property name="building_type" value="empty"/>
    <property name="can_build" type="bool" value="true"/>
    <property name="is_starting_building" type="bool" value="false"/>
   </properties>
  </object>
  <object id="653" x="63.8372" y="336.327" width="14.6589" height="14.6589">
   <properties>
    <property name="building_type" value="empty"/>
    <property name="can_build" type="bool" value="true"/>
    <property name="is_starting_building" type="bool" value="false"/>
   </properties>
  </object>
  <object id="654" x="63.7756" y="352.306" width="14.6589" height="14.6589">
   <properties>
    <property name="building_type" value="empty"/>
    <property name="can_build" type="bool" value="true"/>
    <property name="is_starting_building" type="bool" value="false"/>
   </properties>
  </object>
  <object id="655" x="79.7876" y="320.49" width="14.6589" height="14.6589">
   <properties>
    <property name="building_type" value="empty"/>
    <property name="can_build" type="bool" value="true"/>
    <property name="is_starting_building" type="bool" value="false"/>
   </properties>
  </object>
  <object id="656" x="64.0174" y="320.157" width="14.6589" height="14.6589">
   <properties>
    <property name="building_type" value="empty"/>
    <property name="can_build" type="bool" value="true"/>
    <property name="is_starting_building" type="bool" value="false"/>
   </properties>
  </object>
  <object id="657" x="79.9024" y="336.63" width="14.6589" height="14.6589">
   <properties>
    <property name="building_type" value="empty"/>
    <property name="can_build" type="bool" value="true"/>
    <property name="is_starting_building" type="bool" value="false"/>
   </properties>
  </object>
  <object id="658" x="80.0902" y="352.398" width="14.6589" height="14.6589">
   <properties>
    <property name="building_type" value="empty"/>
    <property name="can_build" type="bool" value="true"/>
    <property name="is_starting_building" type="bool" value="false"/>
   </properties>
  </object>
  <object id="659" x="95.8124" y="336.114" width="14.6589" height="14.6589">
   <properties>
    <property name="building_type" value="empty"/>
    <property name="can_build" type="bool" value="true"/>
    <property name="is_starting_building" type="bool" value="false"/>
   </properties>
  </object>
  <object id="660" x="95.7508" y="352.093" width="14.6589" height="14.6589">
   <properties>
    <property name="building_type" value="empty"/>
    <property name="can_build" type="bool" value="true"/>
    <property name="is_starting_building" type="bool" value="false"/>
   </properties>
  </object>
  <object id="661" x="111.763" y="320.277" width="14.6589" height="14.6589">
   <properties>
    <property name="building_type" value="empty"/>
    <property name="can_build" type="bool" value="true"/>
    <property name="is_starting_building" type="bool" value="false"/>
   </properties>
  </object>
  <object id="662" x="95.9926" y="319.944" width="14.6589" height="14.6589">
   <properties>
    <property name="building_type" value="empty"/>
    <property name="can_build" type="bool" value="true"/>
    <property name="is_starting_building" type="bool" value="false"/>
   </properties>
  </object>
  <object id="663" x="111.878" y="336.417" width="14.6589" height="14.6589">
   <properties>
    <property name="building_type" value="empty"/>
    <property name="can_build" type="bool" value="true"/>
    <property name="is_starting_building" type="bool" value="false"/>
   </properties>
  </object>
  <object id="664" x="112.066" y="352.185" width="14.6589" height="14.6589">
   <properties>
    <property name="building_type" value="empty"/>
    <property name="can_build" type="bool" value="true"/>
    <property name="is_starting_building" type="bool" value="false"/>
   </properties>
  </object>
  <object id="665" x="64.8372" y="384.577" width="14.6589" height="14.6589">
   <properties>
    <property name="building_type" value="empty"/>
    <property name="can_build" type="bool" value="true"/>
    <property name="is_starting_building" type="bool" value="false"/>
   </properties>
  </object>
  <object id="666" x="64.7756" y="400.556" width="14.6589" height="14.6589">
   <properties>
    <property name="building_type" value="empty"/>
    <property name="can_build" type="bool" value="true"/>
    <property name="is_starting_building" type="bool" value="false"/>
   </properties>
  </object>
  <object id="667" x="80.7876" y="368.74" width="14.6589" height="14.6589">
   <properties>
    <property name="building_type" value="empty"/>
    <property name="can_build" type="bool" value="true"/>
    <property name="is_starting_building" type="bool" value="false"/>
   </properties>
  </object>
  <object id="668" x="65.0174" y="368.407" width="14.6589" height="14.6589">
   <properties>
    <property name="building_type" value="empty"/>
    <property name="can_build" type="bool" value="true"/>
    <property name="is_starting_building" type="bool" value="false"/>
   </properties>
  </object>
  <object id="669" x="80.9024" y="384.88" width="14.6589" height="14.6589">
   <properties>
    <property name="building_type" value="empty"/>
    <property name="can_build" type="bool" value="true"/>
    <property name="is_starting_building" type="bool" value="false"/>
   </properties>
  </object>
  <object id="670" x="81.0902" y="400.648" width="14.6589" height="14.6589">
   <properties>
    <property name="building_type" value="empty"/>
    <property name="can_build" type="bool" value="true"/>
    <property name="is_starting_building" type="bool" value="false"/>
   </properties>
  </object>
  <object id="671" x="96.8124" y="384.364" width="14.6589" height="14.6589">
   <properties>
    <property name="building_type" value="empty"/>
    <property name="can_build" type="bool" value="true"/>
    <property name="is_starting_building" type="bool" value="false"/>
   </properties>
  </object>
  <object id="672" x="96.7508" y="400.343" width="14.6589" height="14.6589">
   <properties>
    <property name="building_type" value="empty"/>
    <property name="can_build" type="bool" value="true"/>
    <property name="is_starting_building" type="bool" value="false"/>
   </properties>
  </object>
  <object id="673" x="112.763" y="368.527" width="14.6589" height="14.6589">
   <properties>
    <property name="building_type" value="empty"/>
    <property name="can_build" type="bool" value="true"/>
    <property name="is_starting_building" type="bool" value="false"/>
   </properties>
  </object>
  <object id="674" x="96.9926" y="368.194" width="14.6589" height="14.6589">
   <properties>
    <property name="building_type" value="empty"/>
    <property name="can_build" type="bool" value="true"/>
    <property name="is_starting_building" type="bool" value="false"/>
   </properties>
  </object>
  <object id="675" x="112.878" y="384.667" width="14.6589" height="14.6589">
   <properties>
    <property name="building_type" value="empty"/>
    <property name="can_build" type="bool" value="true"/>
    <property name="is_starting_building" type="bool" value="false"/>
   </properties>
  </object>
  <object id="676" x="113.066" y="400.435" width="14.6589" height="14.6589">
   <properties>
    <property name="building_type" value="empty"/>
    <property name="can_build" type="bool" value="true"/>
    <property name="is_starting_building" type="bool" value="false"/>
   </properties>
  </object>
  <object id="677" x="128.087" y="336.827" width="14.6589" height="14.6589">
   <properties>
    <property name="building_type" value="empty"/>
    <property name="can_build" type="bool" value="true"/>
    <property name="is_starting_building" type="bool" value="false"/>
   </properties>
  </object>
  <object id="678" x="128.026" y="352.806" width="14.6589" height="14.6589">
   <properties>
    <property name="building_type" value="empty"/>
    <property name="can_build" type="bool" value="true"/>
    <property name="is_starting_building" type="bool" value="false"/>
   </properties>
  </object>
  <object id="679" x="144.038" y="320.99" width="14.6589" height="14.6589">
   <properties>
    <property name="building_type" value="empty"/>
    <property name="can_build" type="bool" value="true"/>
    <property name="is_starting_building" type="bool" value="false"/>
   </properties>
  </object>
  <object id="680" x="128.267" y="320.657" width="14.6589" height="14.6589">
   <properties>
    <property name="building_type" value="empty"/>
    <property name="can_build" type="bool" value="true"/>
    <property name="is_starting_building" type="bool" value="false"/>
   </properties>
  </object>
  <object id="681" x="144.152" y="337.13" width="14.6589" height="14.6589">
   <properties>
    <property name="building_type" value="empty"/>
    <property name="can_build" type="bool" value="true"/>
    <property name="is_starting_building" type="bool" value="false"/>
   </properties>
  </object>
  <object id="682" x="144.34" y="352.898" width="14.6589" height="14.6589">
   <properties>
    <property name="building_type" value="empty"/>
    <property name="can_build" type="bool" value="true"/>
    <property name="is_starting_building" type="bool" value="false"/>
   </properties>
  </object>
  <object id="683" x="160.062" y="336.614" width="14.6589" height="14.6589">
   <properties>
    <property name="building_type" value="empty"/>
    <property name="can_build" type="bool" value="true"/>
    <property name="is_starting_building" type="bool" value="false"/>
   </properties>
  </object>
  <object id="684" x="160.001" y="352.593" width="14.6589" height="14.6589">
   <properties>
    <property name="building_type" value="empty"/>
    <property name="can_build" type="bool" value="true"/>
    <property name="is_starting_building" type="bool" value="false"/>
   </properties>
  </object>
  <object id="685" x="176.013" y="320.777" width="14.6589" height="14.6589">
   <properties>
    <property name="building_type" value="empty"/>
    <property name="can_build" type="bool" value="true"/>
    <property name="is_starting_building" type="bool" value="false"/>
   </properties>
  </object>
  <object id="686" x="160.243" y="320.444" width="14.6589" height="14.6589">
   <properties>
    <property name="building_type" value="empty"/>
    <property name="can_build" type="bool" value="true"/>
    <property name="is_starting_building" type="bool" value="false"/>
   </properties>
  </object>
  <object id="687" x="176.128" y="336.917" width="14.6589" height="14.6589">
   <properties>
    <property name="building_type" value="empty"/>
    <property name="can_build" type="bool" value="true"/>
    <property name="is_starting_building" type="bool" value="false"/>
   </properties>
  </object>
  <object id="688" x="176.316" y="352.685" width="14.6589" height="14.6589">
   <properties>
    <property name="building_type" value="empty"/>
    <property name="can_build" type="bool" value="true"/>
    <property name="is_starting_building" type="bool" value="false"/>
   </properties>
  </object>
  <object id="689" x="128.087" y="384.327" width="14.6589" height="14.6589">
   <properties>
    <property name="building_type" value="empty"/>
    <property name="can_build" type="bool" value="true"/>
    <property name="is_starting_building" type="bool" value="false"/>
   </properties>
  </object>
  <object id="690" x="128.026" y="400.306" width="14.6589" height="14.6589">
   <properties>
    <property name="building_type" value="empty"/>
    <property name="can_build" type="bool" value="true"/>
    <property name="is_starting_building" type="bool" value="false"/>
   </properties>
  </object>
  <object id="691" x="144.038" y="368.49" width="14.6589" height="14.6589">
   <properties>
    <property name="building_type" value="empty"/>
    <property name="can_build" type="bool" value="true"/>
    <property name="is_starting_building" type="bool" value="false"/>
   </properties>
  </object>
  <object id="692" x="128.267" y="368.157" width="14.6589" height="14.6589">
   <properties>
    <property name="building_type" value="empty"/>
    <property name="can_build" type="bool" value="true"/>
    <property name="is_starting_building" type="bool" value="false"/>
   </properties>
  </object>
  <object id="693" x="144.152" y="384.63" width="14.6589" height="14.6589">
   <properties>
    <property name="building_type" value="empty"/>
    <property name="can_build" type="bool" value="true"/>
    <property name="is_starting_building" type="bool" value="false"/>
   </properties>
  </object>
  <object id="694" x="144.34" y="400.398" width="14.6589" height="14.6589">
   <properties>
    <property name="building_type" value="empty"/>
    <property name="can_build" type="bool" value="true"/>
    <property name="is_starting_building" type="bool" value="false"/>
   </properties>
  </object>
  <object id="695" x="160.062" y="384.114" width="14.6589" height="14.6589">
   <properties>
    <property name="building_type" value="empty"/>
    <property name="can_build" type="bool" value="true"/>
    <property name="is_starting_building" type="bool" value="false"/>
   </properties>
  </object>
  <object id="696" x="160.001" y="400.093" width="14.6589" height="14.6589">
   <properties>
    <property name="building_type" value="empty"/>
    <property name="can_build" type="bool" value="true"/>
    <property name="is_starting_building" type="bool" value="false"/>
   </properties>
  </object>
  <object id="697" x="176.013" y="368.277" width="14.6589" height="14.6589">
   <properties>
    <property name="building_type" value="empty"/>
    <property name="can_build" type="bool" value="true"/>
    <property name="is_starting_building" type="bool" value="false"/>
   </properties>
  </object>
  <object id="698" x="160.243" y="367.944" width="14.6589" height="14.6589">
   <properties>
    <property name="building_type" value="empty"/>
    <property name="can_build" type="bool" value="true"/>
    <property name="is_starting_building" type="bool" value="false"/>
   </properties>
  </object>
  <object id="699" x="176.128" y="384.417" width="14.6589" height="14.6589">
   <properties>
    <property name="building_type" value="empty"/>
    <property name="can_build" type="bool" value="true"/>
    <property name="is_starting_building" type="bool" value="false"/>
   </properties>
  </object>
  <object id="700" x="176.316" y="400.185" width="14.6589" height="14.6589">
   <properties>
    <property name="building_type" value="empty"/>
    <property name="can_build" type="bool" value="true"/>
    <property name="is_starting_building" type="bool" value="false"/>
   </properties>
  </object>
  <object id="701" x="192.254" y="336.827" width="14.6589" height="14.6589">
   <properties>
    <property name="building_type" value="empty"/>
    <property name="can_build" type="bool" value="true"/>
    <property name="is_starting_building" type="bool" value="false"/>
   </properties>
  </object>
  <object id="702" x="192.192" y="352.806" width="14.6589" height="14.6589">
   <properties>
    <property name="building_type" value="empty"/>
    <property name="can_build" type="bool" value="true"/>
    <property name="is_starting_building" type="bool" value="false"/>
   </properties>
  </object>
  <object id="703" x="208.204" y="320.99" width="14.6589" height="14.6589">
   <properties>
    <property name="building_type" value="empty"/>
    <property name="can_build" type="bool" value="true"/>
    <property name="is_starting_building" type="bool" value="false"/>
   </properties>
  </object>
  <object id="704" x="192.434" y="320.657" width="14.6589" height="14.6589">
   <properties>
    <property name="building_type" value="empty"/>
    <property name="can_build" type="bool" value="true"/>
    <property name="is_starting_building" type="bool" value="false"/>
   </properties>
  </object>
  <object id="705" x="208.319" y="337.13" width="14.6589" height="14.6589">
   <properties>
    <property name="building_type" value="empty"/>
    <property name="can_build" type="bool" value="true"/>
    <property name="is_starting_building" type="bool" value="false"/>
   </properties>
  </object>
  <object id="706" x="208.507" y="352.898" width="14.6589" height="14.6589">
   <properties>
    <property name="building_type" value="empty"/>
    <property name="can_build" type="bool" value="true"/>
    <property name="is_starting_building" type="bool" value="false"/>
   </properties>
  </object>
  <object id="707" x="224.229" y="336.614" width="14.6589" height="14.6589">
   <properties>
    <property name="building_type" value="empty"/>
    <property name="can_build" type="bool" value="true"/>
    <property name="is_starting_building" type="bool" value="false"/>
   </properties>
  </object>
  <object id="708" x="224.168" y="352.593" width="14.6589" height="14.6589">
   <properties>
    <property name="building_type" value="empty"/>
    <property name="can_build" type="bool" value="true"/>
    <property name="is_starting_building" type="bool" value="false"/>
   </properties>
  </object>
  <object id="709" x="240.18" y="320.777" width="14.6589" height="14.6589">
   <properties>
    <property name="building_type" value="empty"/>
    <property name="can_build" type="bool" value="true"/>
    <property name="is_starting_building" type="bool" value="false"/>
   </properties>
  </object>
  <object id="710" x="224.409" y="320.444" width="14.6589" height="14.6589">
   <properties>
    <property name="building_type" value="empty"/>
    <property name="can_build" type="bool" value="true"/>
    <property name="is_starting_building" type="bool" value="false"/>
   </properties>
  </object>
  <object id="711" x="240.294" y="336.917" width="14.6589" height="14.6589">
   <properties>
    <property name="building_type" value="empty"/>
    <property name="can_build" type="bool" value="true"/>
    <property name="is_starting_building" type="bool" value="false"/>
   </properties>
  </object>
  <object id="712" x="240.482" y="352.685" width="14.6589" height="14.6589">
   <properties>
    <property name="building_type" value="empty"/>
    <property name="can_build" type="bool" value="true"/>
    <property name="is_starting_building" type="bool" value="false"/>
   </properties>
  </object>
  <object id="713" x="191.921" y="384.493" width="14.6589" height="14.6589">
   <properties>
    <property name="building_type" value="empty"/>
    <property name="can_build" type="bool" value="true"/>
    <property name="is_starting_building" type="bool" value="false"/>
   </properties>
  </object>
  <object id="714" x="191.859" y="400.472" width="14.6589" height="14.6589">
   <properties>
    <property name="building_type" value="empty"/>
    <property name="can_build" type="bool" value="true"/>
    <property name="is_starting_building" type="bool" value="false"/>
   </properties>
  </object>
  <object id="715" x="207.871" y="368.656" width="14.6589" height="14.6589">
   <properties>
    <property name="building_type" value="empty"/>
    <property name="can_build" type="bool" value="true"/>
    <property name="is_starting_building" type="bool" value="false"/>
   </properties>
  </object>
  <object id="716" x="192.101" y="368.323" width="14.6589" height="14.6589">
   <properties>
    <property name="building_type" value="empty"/>
    <property name="can_build" type="bool" value="true"/>
    <property name="is_starting_building" type="bool" value="false"/>
   </properties>
  </object>
  <object id="717" x="207.986" y="384.796" width="14.6589" height="14.6589">
   <properties>
    <property name="building_type" value="empty"/>
    <property name="can_build" type="bool" value="true"/>
    <property name="is_starting_building" type="bool" value="false"/>
   </properties>
  </object>
  <object id="718" x="208.174" y="400.564" width="14.6589" height="14.6589">
   <properties>
    <property name="building_type" value="empty"/>
    <property name="can_build" type="bool" value="true"/>
    <property name="is_starting_building" type="bool" value="false"/>
   </properties>
  </object>
  <object id="719" x="223.896" y="384.28" width="14.6589" height="14.6589">
   <properties>
    <property name="building_type" value="empty"/>
    <property name="can_build" type="bool" value="true"/>
    <property name="is_starting_building" type="bool" value="false"/>
   </properties>
  </object>
  <object id="720" x="223.834" y="400.259" width="14.6589" height="14.6589">
   <properties>
    <property name="building_type" value="empty"/>
    <property name="can_build" type="bool" value="true"/>
    <property name="is_starting_building" type="bool" value="false"/>
   </properties>
  </object>
  <object id="721" x="239.846" y="368.443" width="14.6589" height="14.6589">
   <properties>
    <property name="building_type" value="empty"/>
    <property name="can_build" type="bool" value="true"/>
    <property name="is_starting_building" type="bool" value="false"/>
   </properties>
  </object>
  <object id="722" x="224.076" y="368.11" width="14.6589" height="14.6589">
   <properties>
    <property name="building_type" value="empty"/>
    <property name="can_build" type="bool" value="true"/>
    <property name="is_starting_building" type="bool" value="false"/>
   </properties>
  </object>
  <object id="723" x="239.961" y="384.583" width="14.6589" height="14.6589">
   <properties>
    <property name="building_type" value="empty"/>
    <property name="can_build" type="bool" value="true"/>
    <property name="is_starting_building" type="bool" value="false"/>
   </properties>
  </object>
  <object id="724" x="240.149" y="400.351" width="14.6589" height="14.6589">
   <properties>
    <property name="building_type" value="empty"/>
    <property name="can_build" type="bool" value="true"/>
    <property name="is_starting_building" type="bool" value="false"/>
   </properties>
  </object>
  <object id="725" x="256.254" y="336.16" width="14.6589" height="14.6589">
   <properties>
    <property name="building_type" value="empty"/>
    <property name="can_build" type="bool" value="true"/>
    <property name="is_starting_building" type="bool" value="false"/>
   </properties>
  </object>
  <object id="726" x="256.192" y="352.139" width="14.6589" height="14.6589">
   <properties>
    <property name="building_type" value="empty"/>
    <property name="can_build" type="bool" value="true"/>
    <property name="is_starting_building" type="bool" value="false"/>
   </properties>
  </object>
  <object id="727" x="272.204" y="320.323" width="14.6589" height="14.6589">
   <properties>
    <property name="building_type" value="empty"/>
    <property name="can_build" type="bool" value="true"/>
    <property name="is_starting_building" type="bool" value="false"/>
   </properties>
  </object>
  <object id="728" x="256.434" y="319.99" width="14.6589" height="14.6589">
   <properties>
    <property name="building_type" value="empty"/>
    <property name="can_build" type="bool" value="true"/>
    <property name="is_starting_building" type="bool" value="false"/>
   </properties>
  </object>
  <object id="729" x="272.319" y="336.463" width="14.6589" height="14.6589">
   <properties>
    <property name="building_type" value="empty"/>
    <property name="can_build" type="bool" value="true"/>
    <property name="is_starting_building" type="bool" value="false"/>
   </properties>
  </object>
  <object id="730" x="272.507" y="352.231" width="14.6589" height="14.6589">
   <properties>
    <property name="building_type" value="empty"/>
    <property name="can_build" type="bool" value="true"/>
    <property name="is_starting_building" type="bool" value="false"/>
   </properties>
  </object>
  <object id="731" x="288.229" y="335.947" width="14.6589" height="14.6589">
   <properties>
    <property name="building_type" value="empty"/>
    <property name="can_build" type="bool" value="true"/>
    <property name="is_starting_building" type="bool" value="false"/>
   </properties>
  </object>
  <object id="732" x="288.168" y="351.926" width="14.6589" height="14.6589">
   <properties>
    <property name="building_type" value="empty"/>
    <property name="can_build" type="bool" value="true"/>
    <property name="is_starting_building" type="bool" value="false"/>
   </properties>
  </object>
  <object id="733" x="304.18" y="320.11" width="14.6589" height="14.6589">
   <properties>
    <property name="building_type" value="empty"/>
    <property name="can_build" type="bool" value="true"/>
    <property name="is_starting_building" type="bool" value="false"/>
   </properties>
  </object>
  <object id="734" x="288.409" y="319.777" width="14.6589" height="14.6589">
   <properties>
    <property name="building_type" value="empty"/>
    <property name="can_build" type="bool" value="true"/>
    <property name="is_starting_building" type="bool" value="false"/>
   </properties>
  </object>
  <object id="735" x="304.294" y="336.25" width="14.6589" height="14.6589">
   <properties>
    <property name="building_type" value="empty"/>
    <property name="can_build" type="bool" value="true"/>
    <property name="is_starting_building" type="bool" value="false"/>
   </properties>
  </object>
  <object id="736" x="304.482" y="352.018" width="14.6589" height="14.6589">
   <properties>
    <property name="building_type" value="empty"/>
    <property name="can_build" type="bool" value="true"/>
    <property name="is_starting_building" type="bool" value="false"/>
   </properties>
  </object>
  <object id="737" x="0.253874" y="433.16" width="14.6589" height="14.6589">
   <properties>
    <property name="building_type" value="empty"/>
    <property name="can_build" type="bool" value="true"/>
    <property name="is_starting_building" type="bool" value="false"/>
   </properties>
  </object>
  <object id="738" x="0.192221" y="449.139" width="14.6589" height="14.6589">
   <properties>
    <property name="building_type" value="empty"/>
    <property name="can_build" type="bool" value="true"/>
    <property name="is_starting_building" type="bool" value="false"/>
   </properties>
  </object>
  <object id="739" x="16.2043" y="417.323" width="14.6589" height="14.6589">
   <properties>
    <property name="building_type" value="empty"/>
    <property name="can_build" type="bool" value="true"/>
    <property name="is_starting_building" type="bool" value="false"/>
   </properties>
  </object>
  <object id="740" x="0.434024" y="416.99" width="14.6589" height="14.6589">
   <properties>
    <property name="building_type" value="empty"/>
    <property name="can_build" type="bool" value="true"/>
    <property name="is_starting_building" type="bool" value="false"/>
   </properties>
  </object>
  <object id="741" x="16.3191" y="433.463" width="14.6589" height="14.6589">
   <properties>
    <property name="building_type" value="empty"/>
    <property name="can_build" type="bool" value="true"/>
    <property name="is_starting_building" type="bool" value="false"/>
   </properties>
  </object>
  <object id="742" x="16.5069" y="449.231" width="14.6589" height="14.6589">
   <properties>
    <property name="building_type" value="empty"/>
    <property name="can_build" type="bool" value="true"/>
    <property name="is_starting_building" type="bool" value="false"/>
   </properties>
  </object>
  <object id="743" x="32.2291" y="432.947" width="14.6589" height="14.6589">
   <properties>
    <property name="building_type" value="empty"/>
    <property name="can_build" type="bool" value="true"/>
    <property name="is_starting_building" type="bool" value="false"/>
   </properties>
  </object>
  <object id="744" x="32.1675" y="448.926" width="14.6589" height="14.6589">
   <properties>
    <property name="building_type" value="empty"/>
    <property name="can_build" type="bool" value="true"/>
    <property name="is_starting_building" type="bool" value="false"/>
   </properties>
  </object>
  <object id="745" x="48.1796" y="417.11" width="14.6589" height="14.6589">
   <properties>
    <property name="building_type" value="empty"/>
    <property name="can_build" type="bool" value="true"/>
    <property name="is_starting_building" type="bool" value="false"/>
   </properties>
  </object>
  <object id="746" x="32.4093" y="416.777" width="14.6589" height="14.6589">
   <properties>
    <property name="building_type" value="empty"/>
    <property name="can_build" type="bool" value="true"/>
    <property name="is_starting_building" type="bool" value="false"/>
   </properties>
  </object>
  <object id="747" x="48.2944" y="433.25" width="14.6589" height="14.6589">
   <properties>
    <property name="building_type" value="empty"/>
    <property name="can_build" type="bool" value="true"/>
    <property name="is_starting_building" type="bool" value="false"/>
   </properties>
  </object>
  <object id="749" x="255.921" y="382.827" width="14.6589" height="14.6589">
   <properties>
    <property name="building_type" value="empty"/>
    <property name="can_build" type="bool" value="true"/>
    <property name="is_starting_building" type="bool" value="false"/>
   </properties>
  </object>
  <object id="751" x="271.871" y="366.99" width="14.6589" height="14.6589">
   <properties>
    <property name="building_type" value="empty"/>
    <property name="can_build" type="bool" value="true"/>
    <property name="is_starting_building" type="bool" value="false"/>
   </properties>
  </object>
  <object id="752" x="256.101" y="366.657" width="14.6589" height="14.6589">
   <properties>
    <property name="building_type" value="empty"/>
    <property name="can_build" type="bool" value="true"/>
    <property name="is_starting_building" type="bool" value="false"/>
   </properties>
  </object>
  <object id="753" x="271.986" y="383.13" width="14.6589" height="14.6589">
   <properties>
    <property name="building_type" value="empty"/>
    <property name="can_build" type="bool" value="true"/>
    <property name="is_starting_building" type="bool" value="false"/>
   </properties>
  </object>
  <object id="755" x="287.896" y="382.614" width="14.6589" height="14.6589">
   <properties>
    <property name="building_type" value="empty"/>
    <property name="can_build" type="bool" value="true"/>
    <property name="is_starting_building" type="bool" value="false"/>
   </properties>
  </object>
  <object id="757" x="303.846" y="366.777" width="14.6589" height="14.6589">
   <properties>
    <property name="building_type" value="empty"/>
    <property name="can_build" type="bool" value="true"/>
    <property name="is_starting_building" type="bool" value="false"/>
   </properties>
  </object>
  <object id="758" x="288.076" y="366.444" width="14.6589" height="14.6589">
   <properties>
    <property name="building_type" value="empty"/>
    <property name="can_build" type="bool" value="true"/>
    <property name="is_starting_building" type="bool" value="false"/>
   </properties>
  </object>
  <object id="761" x="63.9205" y="432.16" width="14.6589" height="14.6589">
   <properties>
    <property name="building_type" value="empty"/>
    <property name="can_build" type="bool" value="true"/>
    <property name="is_starting_building" type="bool" value="false"/>
   </properties>
  </object>
  <object id="763" x="79.871" y="416.323" width="14.6589" height="14.6589">
   <properties>
    <property name="building_type" value="empty"/>
    <property name="can_build" type="bool" value="true"/>
    <property name="is_starting_building" type="bool" value="false"/>
   </properties>
  </object>
  <object id="764" x="64.1007" y="415.99" width="14.6589" height="14.6589">
   <properties>
    <property name="building_type" value="empty"/>
    <property name="can_build" type="bool" value="true"/>
    <property name="is_starting_building" type="bool" value="false"/>
   </properties>
  </object>
  <object id="769" x="111.846" y="416.11" width="14.6589" height="14.6589">
   <properties>
    <property name="building_type" value="empty"/>
    <property name="can_build" type="bool" value="true"/>
    <property name="is_starting_building" type="bool" value="false"/>
   </properties>
  </object>
  <object id="770" x="96.076" y="415.777" width="14.6589" height="14.6589">
   <properties>
    <property name="building_type" value="empty"/>
    <property name="can_build" type="bool" value="true"/>
    <property name="is_starting_building" type="bool" value="false"/>
   </properties>
  </object>
  <object id="776" x="127.767" y="415.99" width="14.6589" height="14.6589">
   <properties>
    <property name="building_type" value="empty"/>
    <property name="can_build" type="bool" value="true"/>
    <property name="is_starting_building" type="bool" value="false"/>
   </properties>
  </object>
  <object id="785" x="0.587207" y="480.493" width="14.6589" height="14.6589">
   <properties>
    <property name="building_type" value="empty"/>
    <property name="can_build" type="bool" value="true"/>
    <property name="is_starting_building" type="bool" value="false"/>
   </properties>
  </object>
  <object id="787" x="16.5376" y="464.656" width="14.6589" height="14.6589">
   <properties>
    <property name="building_type" value="empty"/>
    <property name="can_build" type="bool" value="true"/>
    <property name="is_starting_building" type="bool" value="false"/>
   </properties>
  </object>
  <object id="788" x="0.767358" y="464.323" width="14.6589" height="14.6589">
   <properties>
    <property name="building_type" value="empty"/>
    <property name="can_build" type="bool" value="true"/>
    <property name="is_starting_building" type="bool" value="false"/>
   </properties>
  </object>
  <object id="809" x="320.337" y="336.577" width="14.6589" height="14.6589">
   <properties>
    <property name="building_type" value="empty"/>
    <property name="can_build" type="bool" value="true"/>
    <property name="is_starting_building" type="bool" value="false"/>
   </properties>
  </object>
  <object id="810" x="320.276" y="352.556" width="14.6589" height="14.6589">
   <properties>
    <property name="building_type" value="empty"/>
    <property name="can_build" type="bool" value="true"/>
    <property name="is_starting_building" type="bool" value="false"/>
   </properties>
  </object>
  <object id="811" x="336.288" y="320.74" width="14.6589" height="14.6589">
   <properties>
    <property name="building_type" value="empty"/>
    <property name="can_build" type="bool" value="true"/>
    <property name="is_starting_building" type="bool" value="false"/>
   </properties>
  </object>
  <object id="812" x="320.517" y="320.407" width="14.6589" height="14.6589">
   <properties>
    <property name="building_type" value="empty"/>
    <property name="can_build" type="bool" value="true"/>
    <property name="is_starting_building" type="bool" value="false"/>
   </properties>
  </object>
  <object id="813" x="336.402" y="336.88" width="14.6589" height="14.6589">
   <properties>
    <property name="building_type" value="empty"/>
    <property name="can_build" type="bool" value="true"/>
    <property name="is_starting_building" type="bool" value="false"/>
   </properties>
  </object>
  <object id="814" x="336.59" y="352.648" width="14.6589" height="14.6589">
   <properties>
    <property name="building_type" value="empty"/>
    <property name="can_build" type="bool" value="true"/>
    <property name="is_starting_building" type="bool" value="false"/>
   </properties>
  </object>
  <object id="815" x="352.312" y="336.364" width="14.6589" height="14.6589">
   <properties>
    <property name="building_type" value="empty"/>
    <property name="can_build" type="bool" value="true"/>
    <property name="is_starting_building" type="bool" value="false"/>
   </properties>
  </object>
  <object id="816" x="352.251" y="352.343" width="14.6589" height="14.6589">
   <properties>
    <property name="building_type" value="empty"/>
    <property name="can_build" type="bool" value="true"/>
    <property name="is_starting_building" type="bool" value="false"/>
   </properties>
  </object>
  <object id="817" x="368.263" y="320.527" width="14.6589" height="14.6589">
   <properties>
    <property name="building_type" value="empty"/>
    <property name="can_build" type="bool" value="true"/>
    <property name="is_starting_building" type="bool" value="false"/>
   </properties>
  </object>
  <object id="818" x="352.493" y="320.194" width="14.6589" height="14.6589">
   <properties>
    <property name="building_type" value="empty"/>
    <property name="can_build" type="bool" value="true"/>
    <property name="is_starting_building" type="bool" value="false"/>
   </properties>
  </object>
  <object id="819" x="368.378" y="336.667" width="14.6589" height="14.6589">
   <properties>
    <property name="building_type" value="empty"/>
    <property name="can_build" type="bool" value="true"/>
    <property name="is_starting_building" type="bool" value="false"/>
   </properties>
  </object>
  <object id="820" x="368.566" y="352.435" width="14.6589" height="14.6589">
   <properties>
    <property name="building_type" value="empty"/>
    <property name="can_build" type="bool" value="true"/>
    <property name="is_starting_building" type="bool" value="false"/>
   </properties>
  </object>
  <object id="821" x="383.587" y="336.327" width="14.6589" height="14.6589">
   <properties>
    <property name="building_type" value="empty"/>
    <property name="can_build" type="bool" value="true"/>
    <property name="is_starting_building" type="bool" value="false"/>
   </properties>
  </object>
  <object id="822" x="383.526" y="352.306" width="14.6589" height="14.6589">
   <properties>
    <property name="building_type" value="empty"/>
    <property name="can_build" type="bool" value="true"/>
    <property name="is_starting_building" type="bool" value="false"/>
   </properties>
  </object>
  <object id="823" x="399.538" y="320.49" width="14.6589" height="14.6589">
   <properties>
    <property name="building_type" value="empty"/>
    <property name="can_build" type="bool" value="true"/>
    <property name="is_starting_building" type="bool" value="false"/>
   </properties>
  </object>
  <object id="824" x="383.767" y="320.157" width="14.6589" height="14.6589">
   <properties>
    <property name="building_type" value="empty"/>
    <property name="can_build" type="bool" value="true"/>
    <property name="is_starting_building" type="bool" value="false"/>
   </properties>
  </object>
  <object id="825" x="399.652" y="336.63" width="14.6589" height="14.6589">
   <properties>
    <property name="building_type" value="empty"/>
    <property name="can_build" type="bool" value="true"/>
    <property name="is_starting_building" type="bool" value="false"/>
   </properties>
  </object>
  <object id="826" x="399.84" y="352.398" width="14.6589" height="14.6589">
   <properties>
    <property name="building_type" value="empty"/>
    <property name="can_build" type="bool" value="true"/>
    <property name="is_starting_building" type="bool" value="false"/>
   </properties>
  </object>
  <object id="828" x="415.501" y="352.093" width="14.6589" height="14.6589">
   <properties>
    <property name="building_type" value="empty"/>
    <property name="can_build" type="bool" value="true"/>
    <property name="is_starting_building" type="bool" value="false"/>
   </properties>
  </object>
  <object id="829" x="431.513" y="320.277" width="14.6589" height="14.6589">
   <properties>
    <property name="building_type" value="empty"/>
    <property name="can_build" type="bool" value="true"/>
    <property name="is_starting_building" type="bool" value="false"/>
   </properties>
  </object>
  <object id="830" x="415.743" y="319.944" width="14.6589" height="14.6589">
   <properties>
    <property name="building_type" value="empty"/>
    <property name="can_build" type="bool" value="true"/>
    <property name="is_starting_building" type="bool" value="false"/>
   </properties>
  </object>
  <object id="831" x="431.628" y="336.417" width="14.6589" height="14.6589">
   <properties>
    <property name="building_type" value="empty"/>
    <property name="can_build" type="bool" value="true"/>
    <property name="is_starting_building" type="bool" value="false"/>
   </properties>
  </object>
  <object id="832" x="431.816" y="352.185" width="14.6589" height="14.6589">
   <properties>
    <property name="building_type" value="empty"/>
    <property name="can_build" type="bool" value="true"/>
    <property name="is_starting_building" type="bool" value="false"/>
   </properties>
  </object>
  <object id="833" x="352.587" y="384.577" width="14.6589" height="14.6589">
   <properties>
    <property name="building_type" value="empty"/>
    <property name="can_build" type="bool" value="true"/>
    <property name="is_starting_building" type="bool" value="false"/>
   </properties>
  </object>
  <object id="834" x="352.526" y="400.556" width="14.6589" height="14.6589">
   <properties>
    <property name="building_type" value="empty"/>
    <property name="can_build" type="bool" value="true"/>
    <property name="is_starting_building" type="bool" value="false"/>
   </properties>
  </object>
  <object id="835" x="368.538" y="368.74" width="14.6589" height="14.6589">
   <properties>
    <property name="building_type" value="empty"/>
    <property name="can_build" type="bool" value="true"/>
    <property name="is_starting_building" type="bool" value="false"/>
   </properties>
  </object>
  <object id="836" x="352.767" y="368.407" width="14.6589" height="14.6589">
   <properties>
    <property name="building_type" value="empty"/>
    <property name="can_build" type="bool" value="true"/>
    <property name="is_starting_building" type="bool" value="false"/>
   </properties>
  </object>
  <object id="837" x="368.652" y="384.88" width="14.6589" height="14.6589">
   <properties>
    <property name="building_type" value="empty"/>
    <property name="can_build" type="bool" value="true"/>
    <property name="is_starting_building" type="bool" value="false"/>
   </properties>
  </object>
  <object id="838" x="368.84" y="400.648" width="14.6589" height="14.6589">
   <properties>
    <property name="building_type" value="empty"/>
    <property name="can_build" type="bool" value="true"/>
    <property name="is_starting_building" type="bool" value="false"/>
   </properties>
  </object>
  <object id="839" x="384.562" y="384.364" width="14.6589" height="14.6589">
   <properties>
    <property name="building_type" value="empty"/>
    <property name="can_build" type="bool" value="true"/>
    <property name="is_starting_building" type="bool" value="false"/>
   </properties>
  </object>
  <object id="840" x="384.501" y="400.343" width="14.6589" height="14.6589">
   <properties>
    <property name="building_type" value="empty"/>
    <property name="can_build" type="bool" value="true"/>
    <property name="is_starting_building" type="bool" value="false"/>
   </properties>
  </object>
  <object id="841" x="400.513" y="368.527" width="14.6589" height="14.6589">
   <properties>
    <property name="building_type" value="empty"/>
    <property name="can_build" type="bool" value="true"/>
    <property name="is_starting_building" type="bool" value="false"/>
   </properties>
  </object>
  <object id="842" x="384.743" y="368.194" width="14.6589" height="14.6589">
   <properties>
    <property name="building_type" value="empty"/>
    <property name="can_build" type="bool" value="true"/>
    <property name="is_starting_building" type="bool" value="false"/>
   </properties>
  </object>
  <object id="843" x="400.628" y="384.667" width="14.6589" height="14.6589">
   <properties>
    <property name="building_type" value="empty"/>
    <property name="can_build" type="bool" value="true"/>
    <property name="is_starting_building" type="bool" value="false"/>
   </properties>
  </object>
  <object id="844" x="400.816" y="400.435" width="14.6589" height="14.6589">
   <properties>
    <property name="building_type" value="empty"/>
    <property name="can_build" type="bool" value="true"/>
    <property name="is_starting_building" type="bool" value="false"/>
   </properties>
  </object>
  <object id="845" x="416.587" y="383.827" width="14.6589" height="14.6589">
   <properties>
    <property name="building_type" value="empty"/>
    <property name="can_build" type="bool" value="true"/>
    <property name="is_starting_building" type="bool" value="false"/>
   </properties>
  </object>
  <object id="846" x="416.526" y="399.806" width="14.6589" height="14.6589">
   <properties>
    <property name="building_type" value="empty"/>
    <property name="can_build" type="bool" value="true"/>
    <property name="is_starting_building" type="bool" value="false"/>
   </properties>
  </object>
  <object id="847" x="432.538" y="367.99" width="14.6589" height="14.6589">
   <properties>
    <property name="building_type" value="empty"/>
    <property name="can_build" type="bool" value="true"/>
    <property name="is_starting_building" type="bool" value="false"/>
   </properties>
  </object>
  <object id="848" x="416.767" y="367.657" width="14.6589" height="14.6589">
   <properties>
    <property name="building_type" value="empty"/>
    <property name="can_build" type="bool" value="true"/>
    <property name="is_starting_building" type="bool" value="false"/>
   </properties>
  </object>
  <object id="849" x="432.652" y="384.13" width="14.6589" height="14.6589">
   <properties>
    <property name="building_type" value="empty"/>
    <property name="can_build" type="bool" value="true"/>
    <property name="is_starting_building" type="bool" value="false"/>
   </properties>
  </object>
  <object id="850" x="432.84" y="399.898" width="14.6589" height="14.6589">
   <properties>
    <property name="building_type" value="empty"/>
    <property name="can_build" type="bool" value="true"/>
    <property name="is_starting_building" type="bool" value="false"/>
   </properties>
  </object>
  <object id="851" x="448.562" y="383.614" width="14.6589" height="14.6589">
   <properties>
    <property name="building_type" value="empty"/>
    <property name="can_build" type="bool" value="true"/>
    <property name="is_starting_building" type="bool" value="false"/>
   </properties>
  </object>
  <object id="852" x="448.501" y="399.593" width="14.6589" height="14.6589">
   <properties>
    <property name="building_type" value="empty"/>
    <property name="can_build" type="bool" value="true"/>
    <property name="is_starting_building" type="bool" value="false"/>
   </properties>
  </object>
  <object id="853" x="464.513" y="367.777" width="14.6589" height="14.6589">
   <properties>
    <property name="building_type" value="empty"/>
    <property name="can_build" type="bool" value="true"/>
    <property name="is_starting_building" type="bool" value="false"/>
   </properties>
  </object>
  <object id="854" x="448.743" y="367.444" width="14.6589" height="14.6589">
   <properties>
    <property name="building_type" value="empty"/>
    <property name="can_build" type="bool" value="true"/>
    <property name="is_starting_building" type="bool" value="false"/>
   </properties>
  </object>
  <object id="855" x="464.628" y="383.917" width="14.6589" height="14.6589">
   <properties>
    <property name="building_type" value="empty"/>
    <property name="can_build" type="bool" value="true"/>
    <property name="is_starting_building" type="bool" value="false"/>
   </properties>
  </object>
  <object id="856" x="464.816" y="399.685" width="14.6589" height="14.6589">
   <properties>
    <property name="building_type" value="empty"/>
    <property name="can_build" type="bool" value="true"/>
    <property name="is_starting_building" type="bool" value="false"/>
   </properties>
  </object>
  <object id="859" x="447.788" y="416.406" width="14.6589" height="14.6589">
   <properties>
    <property name="building_type" value="empty"/>
    <property name="can_build" type="bool" value="true"/>
    <property name="is_starting_building" type="bool" value="false"/>
   </properties>
  </object>
  <object id="860" x="432.017" y="416.073" width="14.6589" height="14.6589">
   <properties>
    <property name="building_type" value="empty"/>
    <property name="can_build" type="bool" value="true"/>
    <property name="is_starting_building" type="bool" value="false"/>
   </properties>
  </object>
  <object id="865" x="479.763" y="416.193" width="14.6589" height="14.6589">
   <properties>
    <property name="building_type" value="empty"/>
    <property name="can_build" type="bool" value="true"/>
    <property name="is_starting_building" type="bool" value="false"/>
   </properties>
  </object>
  <object id="866" x="463.993" y="415.86" width="14.6589" height="14.6589">
   <properties>
    <property name="building_type" value="empty"/>
    <property name="can_build" type="bool" value="true"/>
    <property name="is_starting_building" type="bool" value="false"/>
   </properties>
  </object>
  <object id="877" x="336.513" y="367.777" width="14.6589" height="14.6589">
   <properties>
    <property name="building_type" value="empty"/>
    <property name="can_build" type="bool" value="true"/>
    <property name="is_starting_building" type="bool" value="false"/>
   </properties>
  </object>
  <object id="878" x="320.743" y="367.444" width="14.6589" height="14.6589">
   <properties>
    <property name="building_type" value="empty"/>
    <property name="can_build" type="bool" value="true"/>
    <property name="is_starting_building" type="bool" value="false"/>
   </properties>
  </object>
  <object id="879" x="336.628" y="383.917" width="14.6589" height="14.6589">
   <properties>
    <property name="building_type" value="empty"/>
    <property name="can_build" type="bool" value="true"/>
    <property name="is_starting_building" type="bool" value="false"/>
   </properties>
  </object>
  <object id="881" x="480.337" y="288.577" width="14.6589" height="14.6589">
   <properties>
    <property name="building_type" value="empty"/>
    <property name="can_build" type="bool" value="true"/>
    <property name="is_starting_building" type="bool" value="false"/>
   </properties>
  </object>
  <object id="882" x="480.276" y="304.556" width="14.6589" height="14.6589">
   <properties>
    <property name="building_type" value="empty"/>
    <property name="can_build" type="bool" value="true"/>
    <property name="is_starting_building" type="bool" value="false"/>
   </properties>
  </object>
  <object id="883" x="496.288" y="272.74" width="14.6589" height="14.6589">
   <properties>
    <property name="building_type" value="empty"/>
    <property name="can_build" type="bool" value="true"/>
    <property name="is_starting_building" type="bool" value="false"/>
   </properties>
  </object>
  <object id="884" x="480.517" y="272.407" width="14.6589" height="14.6589">
   <properties>
    <property name="building_type" value="empty"/>
    <property name="can_build" type="bool" value="true"/>
    <property name="is_starting_building" type="bool" value="false"/>
   </properties>
  </object>
  <object id="885" x="496.402" y="288.88" width="14.6589" height="14.6589">
   <properties>
    <property name="building_type" value="empty"/>
    <property name="can_build" type="bool" value="true"/>
    <property name="is_starting_building" type="bool" value="false"/>
   </properties>
  </object>
  <object id="886" x="496.59" y="304.648" width="14.6589" height="14.6589">
   <properties>
    <property name="building_type" value="empty"/>
    <property name="can_build" type="bool" value="true"/>
    <property name="is_starting_building" type="bool" value="false"/>
   </properties>
  </object>
  <object id="887" x="512.312" y="288.364" width="14.6589" height="14.6589">
   <properties>
    <property name="building_type" value="empty"/>
    <property name="can_build" type="bool" value="true"/>
    <property name="is_starting_building" type="bool" value="false"/>
   </properties>
  </object>
  <object id="888" x="512.251" y="304.343" width="14.6589" height="14.6589">
   <properties>
    <property name="building_type" value="empty"/>
    <property name="can_build" type="bool" value="true"/>
    <property name="is_starting_building" type="bool" value="false"/>
   </properties>
  </object>
  <object id="889" x="528.263" y="272.527" width="14.6589" height="14.6589">
   <properties>
    <property name="building_type" value="empty"/>
    <property name="can_build" type="bool" value="true"/>
    <property name="is_starting_building" type="bool" value="false"/>
   </properties>
  </object>
  <object id="890" x="512.493" y="272.194" width="14.6589" height="14.6589">
   <properties>
    <property name="building_type" value="empty"/>
    <property name="can_build" type="bool" value="true"/>
    <property name="is_starting_building" type="bool" value="false"/>
   </properties>
  </object>
  <object id="891" x="528.378" y="288.667" width="14.6589" height="14.6589">
   <properties>
    <property name="building_type" value="empty"/>
    <property name="can_build" type="bool" value="true"/>
    <property name="is_starting_building" type="bool" value="false"/>
   </properties>
  </object>
  <object id="892" x="528.566" y="304.435" width="14.6589" height="14.6589">
   <properties>
    <property name="building_type" value="empty"/>
    <property name="can_build" type="bool" value="true"/>
    <property name="is_starting_building" type="bool" value="false"/>
   </properties>
  </object>
  <object id="893" x="495.837" y="432.577" width="14.6589" height="14.6589">
   <properties>
    <property name="building_type" value="empty"/>
    <property name="can_build" type="bool" value="true"/>
    <property name="is_starting_building" type="bool" value="false"/>
   </properties>
  </object>
  <object id="894" x="495.776" y="448.556" width="14.6589" height="14.6589">
   <properties>
    <property name="building_type" value="empty"/>
    <property name="can_build" type="bool" value="true"/>
    <property name="is_starting_building" type="bool" value="false"/>
   </properties>
  </object>
  <object id="895" x="511.788" y="416.74" width="14.6589" height="14.6589">
   <properties>
    <property name="building_type" value="empty"/>
    <property name="can_build" type="bool" value="true"/>
    <property name="is_starting_building" type="bool" value="false"/>
   </properties>
  </object>
  <object id="896" x="496.017" y="416.407" width="14.6589" height="14.6589">
   <properties>
    <property name="building_type" value="empty"/>
    <property name="can_build" type="bool" value="true"/>
    <property name="is_starting_building" type="bool" value="false"/>
   </properties>
  </object>
  <object id="897" x="511.902" y="432.88" width="14.6589" height="14.6589">
   <properties>
    <property name="building_type" value="empty"/>
    <property name="can_build" type="bool" value="true"/>
    <property name="is_starting_building" type="bool" value="false"/>
   </properties>
  </object>
  <object id="898" x="512.09" y="448.648" width="14.6589" height="14.6589">
   <properties>
    <property name="building_type" value="empty"/>
    <property name="can_build" type="bool" value="true"/>
    <property name="is_starting_building" type="bool" value="false"/>
   </properties>
  </object>
  <object id="899" x="527.812" y="432.364" width="14.6589" height="14.6589">
   <properties>
    <property name="building_type" value="empty"/>
    <property name="can_build" type="bool" value="true"/>
    <property name="is_starting_building" type="bool" value="false"/>
   </properties>
  </object>
  <object id="900" x="527.751" y="448.343" width="14.6589" height="14.6589">
   <properties>
    <property name="building_type" value="empty"/>
    <property name="can_build" type="bool" value="true"/>
    <property name="is_starting_building" type="bool" value="false"/>
   </properties>
  </object>
  <object id="901" x="543.763" y="416.527" width="14.6589" height="14.6589">
   <properties>
    <property name="building_type" value="empty"/>
    <property name="can_build" type="bool" value="true"/>
    <property name="is_starting_building" type="bool" value="false"/>
   </properties>
  </object>
  <object id="902" x="527.993" y="416.194" width="14.6589" height="14.6589">
   <properties>
    <property name="building_type" value="empty"/>
    <property name="can_build" type="bool" value="true"/>
    <property name="is_starting_building" type="bool" value="false"/>
   </properties>
  </object>
  <object id="903" x="543.878" y="432.667" width="14.6589" height="14.6589">
   <properties>
    <property name="building_type" value="empty"/>
    <property name="can_build" type="bool" value="true"/>
    <property name="is_starting_building" type="bool" value="false"/>
   </properties>
  </object>
  <object id="904" x="544.066" y="448.435" width="14.6589" height="14.6589">
   <properties>
    <property name="building_type" value="empty"/>
    <property name="can_build" type="bool" value="true"/>
    <property name="is_starting_building" type="bool" value="false"/>
   </properties>
  </object>
  <object id="905" x="544.587" y="288.493" width="14.6589" height="14.6589">
   <properties>
    <property name="building_type" value="empty"/>
    <property name="can_build" type="bool" value="true"/>
    <property name="is_starting_building" type="bool" value="false"/>
   </properties>
  </object>
  <object id="906" x="544.526" y="304.472" width="14.6589" height="14.6589">
   <properties>
    <property name="building_type" value="empty"/>
    <property name="can_build" type="bool" value="true"/>
    <property name="is_starting_building" type="bool" value="false"/>
   </properties>
  </object>
  <object id="907" x="560.538" y="272.656" width="14.6589" height="14.6589">
   <properties>
    <property name="building_type" value="empty"/>
    <property name="can_build" type="bool" value="true"/>
    <property name="is_starting_building" type="bool" value="false"/>
   </properties>
  </object>
  <object id="908" x="544.767" y="272.323" width="14.6589" height="14.6589">
   <properties>
    <property name="building_type" value="empty"/>
    <property name="can_build" type="bool" value="true"/>
    <property name="is_starting_building" type="bool" value="false"/>
   </properties>
  </object>
  <object id="909" x="560.652" y="288.796" width="14.6589" height="14.6589">
   <properties>
    <property name="building_type" value="empty"/>
    <property name="can_build" type="bool" value="true"/>
    <property name="is_starting_building" type="bool" value="false"/>
   </properties>
  </object>
  <object id="910" x="560.84" y="304.564" width="14.6589" height="14.6589">
   <properties>
    <property name="building_type" value="empty"/>
    <property name="can_build" type="bool" value="true"/>
    <property name="is_starting_building" type="bool" value="false"/>
   </properties>
  </object>
  <object id="911" x="576.562" y="288.28" width="14.6589" height="14.6589">
   <properties>
    <property name="building_type" value="empty"/>
    <property name="can_build" type="bool" value="true"/>
    <property name="is_starting_building" type="bool" value="false"/>
   </properties>
  </object>
  <object id="912" x="576.501" y="304.259" width="14.6589" height="14.6589">
   <properties>
    <property name="building_type" value="empty"/>
    <property name="can_build" type="bool" value="true"/>
    <property name="is_starting_building" type="bool" value="false"/>
   </properties>
  </object>
  <object id="913" x="592.513" y="272.443" width="14.6589" height="14.6589">
   <properties>
    <property name="building_type" value="empty"/>
    <property name="can_build" type="bool" value="true"/>
    <property name="is_starting_building" type="bool" value="false"/>
   </properties>
  </object>
  <object id="1040" x="512.695" y="320.443" width="14.6589" height="14.6589">
   <properties>
    <property name="building_type" value="empty"/>
    <property name="can_build" type="bool" value="true"/>
    <property name="is_starting_building" type="bool" value="false"/>
   </properties>
  </object>
  <object id="1025" x="560.513" y="399.777" width="14.6589" height="14.6589">
   <properties>
    <property name="building_type" value="empty"/>
    <property name="can_build" type="bool" value="true"/>
    <property name="is_starting_building" type="bool" value="false"/>
   </properties>
  </object>
  <object id="914" x="576.743" y="272.11" width="14.6589" height="14.6589">
   <properties>
    <property name="building_type" value="empty"/>
    <property name="can_build" type="bool" value="true"/>
    <property name="is_starting_building" type="bool" value="false"/>
   </properties>
  </object>
  <object id="915" x="592.628" y="288.583" width="14.6589" height="14.6589">
   <properties>
    <property name="building_type" value="empty"/>
    <property name="can_build" type="bool" value="true"/>
    <property name="is_starting_building" type="bool" value="false"/>
   </properties>
  </object>
  <object id="1039" x="512.81" y="336.583" width="14.6589" height="14.6589">
   <properties>
    <property name="building_type" value="empty"/>
    <property name="can_build" type="bool" value="true"/>
    <property name="is_starting_building" type="bool" value="false"/>
   </properties>
  </object>
  <object id="916" x="592.816" y="304.351" width="14.6589" height="14.6589">
   <properties>
    <property name="building_type" value="empty"/>
    <property name="can_build" type="bool" value="true"/>
    <property name="is_starting_building" type="bool" value="false"/>
   </properties>
  </object>
  <object id="1038" x="512.997" y="352.351" width="14.6589" height="14.6589">
   <properties>
    <property name="building_type" value="empty"/>
    <property name="can_build" type="bool" value="true"/>
    <property name="is_starting_building" type="bool" value="false"/>
   </properties>
  </object>
  <object id="917" x="559.921" y="432.16" width="14.6589" height="14.6589">
   <properties>
    <property name="building_type" value="empty"/>
    <property name="can_build" type="bool" value="true"/>
    <property name="is_starting_building" type="bool" value="false"/>
   </properties>
  </object>
  <object id="918" x="559.859" y="448.139" width="14.6589" height="14.6589">
   <properties>
    <property name="building_type" value="empty"/>
    <property name="can_build" type="bool" value="true"/>
    <property name="is_starting_building" type="bool" value="false"/>
   </properties>
  </object>
  <object id="919" x="575.871" y="416.323" width="14.6589" height="14.6589">
   <properties>
    <property name="building_type" value="empty"/>
    <property name="can_build" type="bool" value="true"/>
    <property name="is_starting_building" type="bool" value="false"/>
   </properties>
  </object>
  <object id="920" x="560.101" y="415.99" width="14.6589" height="14.6589">
   <properties>
    <property name="building_type" value="empty"/>
    <property name="can_build" type="bool" value="true"/>
    <property name="is_starting_building" type="bool" value="false"/>
   </properties>
  </object>
  <object id="921" x="575.986" y="432.463" width="14.6589" height="14.6589">
   <properties>
    <property name="building_type" value="empty"/>
    <property name="can_build" type="bool" value="true"/>
    <property name="is_starting_building" type="bool" value="false"/>
   </properties>
  </object>
  <object id="922" x="576.174" y="448.231" width="14.6589" height="14.6589">
   <properties>
    <property name="building_type" value="empty"/>
    <property name="can_build" type="bool" value="true"/>
    <property name="is_starting_building" type="bool" value="false"/>
   </properties>
  </object>
  <object id="923" x="591.896" y="431.947" width="14.6589" height="14.6589">
   <properties>
    <property name="building_type" value="empty"/>
    <property name="can_build" type="bool" value="true"/>
    <property name="is_starting_building" type="bool" value="false"/>
   </properties>
  </object>
  <object id="924" x="591.834" y="447.926" width="14.6589" height="14.6589">
   <properties>
    <property name="building_type" value="empty"/>
    <property name="can_build" type="bool" value="true"/>
    <property name="is_starting_building" type="bool" value="false"/>
   </properties>
  </object>
  <object id="925" x="607.846" y="416.11" width="14.6589" height="14.6589">
   <properties>
    <property name="building_type" value="empty"/>
    <property name="can_build" type="bool" value="true"/>
    <property name="is_starting_building" type="bool" value="false"/>
   </properties>
  </object>
  <object id="926" x="592.076" y="415.777" width="14.6589" height="14.6589">
   <properties>
    <property name="building_type" value="empty"/>
    <property name="can_build" type="bool" value="true"/>
    <property name="is_starting_building" type="bool" value="false"/>
   </properties>
  </object>
  <object id="927" x="607.961" y="432.25" width="14.6589" height="14.6589">
   <properties>
    <property name="building_type" value="empty"/>
    <property name="can_build" type="bool" value="true"/>
    <property name="is_starting_building" type="bool" value="false"/>
   </properties>
  </object>
  <object id="928" x="608.149" y="448.018" width="14.6589" height="14.6589">
   <properties>
    <property name="building_type" value="empty"/>
    <property name="can_build" type="bool" value="true"/>
    <property name="is_starting_building" type="bool" value="false"/>
   </properties>
  </object>
  <object id="931" x="561.204" y="464.323" width="14.6589" height="14.6589">
   <properties>
    <property name="building_type" value="empty"/>
    <property name="can_build" type="bool" value="true"/>
    <property name="is_starting_building" type="bool" value="false"/>
   </properties>
  </object>
  <object id="932" x="545.434" y="463.99" width="14.6589" height="14.6589">
   <properties>
    <property name="building_type" value="empty"/>
    <property name="can_build" type="bool" value="true"/>
    <property name="is_starting_building" type="bool" value="false"/>
   </properties>
  </object>
  <object id="937" x="593.18" y="464.11" width="14.6589" height="14.6589">
   <properties>
    <property name="building_type" value="empty"/>
    <property name="can_build" type="bool" value="true"/>
    <property name="is_starting_building" type="bool" value="false"/>
   </properties>
  </object>
  <object id="938" x="577.409" y="463.777" width="14.6589" height="14.6589">
   <properties>
    <property name="building_type" value="empty"/>
    <property name="can_build" type="bool" value="true"/>
    <property name="is_starting_building" type="bool" value="false"/>
   </properties>
  </object>
  <object id="939" x="593.294" y="480.25" width="14.6589" height="14.6589">
   <properties>
    <property name="building_type" value="empty"/>
    <property name="can_build" type="bool" value="true"/>
    <property name="is_starting_building" type="bool" value="false"/>
   </properties>
  </object>
  <object id="941" x="609.254" y="479.493" width="14.6589" height="14.6589">
   <properties>
    <property name="building_type" value="empty"/>
    <property name="can_build" type="bool" value="true"/>
    <property name="is_starting_building" type="bool" value="false"/>
   </properties>
  </object>
  <object id="943" x="625.204" y="463.656" width="14.6589" height="14.6589">
   <properties>
    <property name="building_type" value="empty"/>
    <property name="can_build" type="bool" value="true"/>
    <property name="is_starting_building" type="bool" value="false"/>
   </properties>
  </object>
  <object id="944" x="609.434" y="463.323" width="14.6589" height="14.6589">
   <properties>
    <property name="building_type" value="empty"/>
    <property name="can_build" type="bool" value="true"/>
    <property name="is_starting_building" type="bool" value="false"/>
   </properties>
  </object>
  <object id="945" x="625.319" y="479.796" width="14.6589" height="14.6589">
   <properties>
    <property name="building_type" value="empty"/>
    <property name="can_build" type="bool" value="true"/>
    <property name="is_starting_building" type="bool" value="false"/>
   </properties>
  </object>
  <object id="953" x="624.011" y="432.099" width="14.6589" height="14.6589">
   <properties>
    <property name="building_type" value="empty"/>
    <property name="can_build" type="bool" value="true"/>
    <property name="is_starting_building" type="bool" value="false"/>
   </properties>
  </object>
  <object id="954" x="623.95" y="448.078" width="14.6589" height="14.6589">
   <properties>
    <property name="building_type" value="empty"/>
    <property name="can_build" type="bool" value="true"/>
    <property name="is_starting_building" type="bool" value="false"/>
   </properties>
  </object>
  <object id="956" x="624.192" y="415.929" width="14.6589" height="14.6589">
   <properties>
    <property name="building_type" value="empty"/>
    <property name="can_build" type="bool" value="true"/>
    <property name="is_starting_building" type="bool" value="false"/>
   </properties>
  </object>
  <object id="965" x="480.587" y="384.827" width="14.6589" height="14.6589">
   <properties>
    <property name="building_type" value="empty"/>
    <property name="can_build" type="bool" value="true"/>
    <property name="is_starting_building" type="bool" value="false"/>
   </properties>
  </object>
  <object id="966" x="480.526" y="400.806" width="14.6589" height="14.6589">
   <properties>
    <property name="building_type" value="empty"/>
    <property name="can_build" type="bool" value="true"/>
    <property name="is_starting_building" type="bool" value="false"/>
   </properties>
  </object>
  <object id="967" x="496.538" y="368.99" width="14.6589" height="14.6589">
   <properties>
    <property name="building_type" value="empty"/>
    <property name="can_build" type="bool" value="true"/>
    <property name="is_starting_building" type="bool" value="false"/>
   </properties>
  </object>
  <object id="968" x="480.767" y="368.657" width="14.6589" height="14.6589">
   <properties>
    <property name="building_type" value="empty"/>
    <property name="can_build" type="bool" value="true"/>
    <property name="is_starting_building" type="bool" value="false"/>
   </properties>
  </object>
  <object id="969" x="496.652" y="385.13" width="14.6589" height="14.6589">
   <properties>
    <property name="building_type" value="empty"/>
    <property name="can_build" type="bool" value="true"/>
    <property name="is_starting_building" type="bool" value="false"/>
   </properties>
  </object>
  <object id="970" x="496.84" y="400.898" width="14.6589" height="14.6589">
   <properties>
    <property name="building_type" value="empty"/>
    <property name="can_build" type="bool" value="true"/>
    <property name="is_starting_building" type="bool" value="false"/>
   </properties>
  </object>
  <object id="971" x="512.562" y="384.614" width="14.6589" height="14.6589">
   <properties>
    <property name="building_type" value="empty"/>
    <property name="can_build" type="bool" value="true"/>
    <property name="is_starting_building" type="bool" value="false"/>
   </properties>
  </object>
  <object id="972" x="512.501" y="400.593" width="14.6589" height="14.6589">
   <properties>
    <property name="building_type" value="empty"/>
    <property name="can_build" type="bool" value="true"/>
    <property name="is_starting_building" type="bool" value="false"/>
   </properties>
  </object>
  <object id="973" x="528.513" y="368.777" width="14.6589" height="14.6589">
   <properties>
    <property name="building_type" value="empty"/>
    <property name="can_build" type="bool" value="true"/>
    <property name="is_starting_building" type="bool" value="false"/>
   </properties>
  </object>
  <object id="974" x="512.743" y="368.444" width="14.6589" height="14.6589">
   <properties>
    <property name="building_type" value="empty"/>
    <property name="can_build" type="bool" value="true"/>
    <property name="is_starting_building" type="bool" value="false"/>
   </properties>
  </object>
  <object id="975" x="528.628" y="384.917" width="14.6589" height="14.6589">
   <properties>
    <property name="building_type" value="empty"/>
    <property name="can_build" type="bool" value="true"/>
    <property name="is_starting_building" type="bool" value="false"/>
   </properties>
  </object>
  <object id="976" x="528.816" y="400.685" width="14.6589" height="14.6589">
   <properties>
    <property name="building_type" value="empty"/>
    <property name="can_build" type="bool" value="true"/>
    <property name="is_starting_building" type="bool" value="false"/>
   </properties>
  </object>
  <object id="977" x="577.087" y="384.827" width="14.6589" height="14.6589">
   <properties>
    <property name="building_type" value="empty"/>
    <property name="can_build" type="bool" value="true"/>
    <property name="is_starting_building" type="bool" value="false"/>
   </properties>
  </object>
  <object id="978" x="577.026" y="400.806" width="14.6589" height="14.6589">
   <properties>
    <property name="building_type" value="empty"/>
    <property name="can_build" type="bool" value="true"/>
    <property name="is_starting_building" type="bool" value="false"/>
   </properties>
  </object>
  <object id="979" x="593.038" y="368.99" width="14.6589" height="14.6589">
   <properties>
    <property name="building_type" value="empty"/>
    <property name="can_build" type="bool" value="true"/>
    <property name="is_starting_building" type="bool" value="false"/>
   </properties>
  </object>
  <object id="980" x="577.267" y="368.657" width="14.6589" height="14.6589">
   <properties>
    <property name="building_type" value="empty"/>
    <property name="can_build" type="bool" value="true"/>
    <property name="is_starting_building" type="bool" value="false"/>
   </properties>
  </object>
  <object id="981" x="593.152" y="385.13" width="14.6589" height="14.6589">
   <properties>
    <property name="building_type" value="empty"/>
    <property name="can_build" type="bool" value="true"/>
    <property name="is_starting_building" type="bool" value="false"/>
   </properties>
  </object>
  <object id="982" x="593.34" y="400.898" width="14.6589" height="14.6589">
   <properties>
    <property name="building_type" value="empty"/>
    <property name="can_build" type="bool" value="true"/>
    <property name="is_starting_building" type="bool" value="false"/>
   </properties>
  </object>
  <object id="983" x="609.062" y="384.614" width="14.6589" height="14.6589">
   <properties>
    <property name="building_type" value="empty"/>
    <property name="can_build" type="bool" value="true"/>
    <property name="is_starting_building" type="bool" value="false"/>
   </properties>
  </object>
  <object id="984" x="609.001" y="400.593" width="14.6589" height="14.6589">
   <properties>
    <property name="building_type" value="empty"/>
    <property name="can_build" type="bool" value="true"/>
    <property name="is_starting_building" type="bool" value="false"/>
   </properties>
  </object>
  <object id="985" x="625.013" y="368.777" width="14.6589" height="14.6589">
   <properties>
    <property name="building_type" value="empty"/>
    <property name="can_build" type="bool" value="true"/>
    <property name="is_starting_building" type="bool" value="false"/>
   </properties>
  </object>
  <object id="986" x="609.243" y="368.444" width="14.6589" height="14.6589">
   <properties>
    <property name="building_type" value="empty"/>
    <property name="can_build" type="bool" value="true"/>
    <property name="is_starting_building" type="bool" value="false"/>
   </properties>
  </object>
  <object id="987" x="625.128" y="384.917" width="14.6589" height="14.6589">
   <properties>
    <property name="building_type" value="empty"/>
    <property name="can_build" type="bool" value="true"/>
    <property name="is_starting_building" type="bool" value="false"/>
   </properties>
  </object>
  <object id="988" x="625.316" y="400.685" width="14.6589" height="14.6589">
   <properties>
    <property name="building_type" value="empty"/>
    <property name="can_build" type="bool" value="true"/>
    <property name="is_starting_building" type="bool" value="false"/>
   </properties>
  </object>
  <object id="989" x="544.087" y="384.577" width="14.6589" height="14.6589">
   <properties>
    <property name="building_type" value="empty"/>
    <property name="can_build" type="bool" value="true"/>
    <property name="is_starting_building" type="bool" value="false"/>
   </properties>
  </object>
  <object id="990" x="544.026" y="400.556" width="14.6589" height="14.6589">
   <properties>
    <property name="building_type" value="empty"/>
    <property name="can_build" type="bool" value="true"/>
    <property name="is_starting_building" type="bool" value="false"/>
   </properties>
  </object>
  <object id="991" x="593.538" y="321.24" width="14.6589" height="14.6589">
   <properties>
    <property name="building_type" value="empty"/>
    <property name="can_build" type="bool" value="true"/>
    <property name="is_starting_building" type="bool" value="false"/>
   </properties>
  </object>
  <object id="992" x="544.267" y="368.407" width="14.6589" height="14.6589">
   <properties>
    <property name="building_type" value="empty"/>
    <property name="can_build" type="bool" value="true"/>
    <property name="is_starting_building" type="bool" value="false"/>
   </properties>
  </object>
  <object id="993" x="593.652" y="337.38" width="14.6589" height="14.6589">
   <properties>
    <property name="building_type" value="empty"/>
    <property name="can_build" type="bool" value="true"/>
    <property name="is_starting_building" type="bool" value="false"/>
   </properties>
  </object>
  <object id="994" x="593.84" y="353.148" width="14.6589" height="14.6589">
   <properties>
    <property name="building_type" value="empty"/>
    <property name="can_build" type="bool" value="true"/>
    <property name="is_starting_building" type="bool" value="false"/>
   </properties>
  </object>
  <object id="995" x="609.562" y="336.864" width="14.6589" height="14.6589">
   <properties>
    <property name="building_type" value="empty"/>
    <property name="can_build" type="bool" value="true"/>
    <property name="is_starting_building" type="bool" value="false"/>
   </properties>
  </object>
  <object id="996" x="609.501" y="352.843" width="14.6589" height="14.6589">
   <properties>
    <property name="building_type" value="empty"/>
    <property name="can_build" type="bool" value="true"/>
    <property name="is_starting_building" type="bool" value="false"/>
   </properties>
  </object>
  <object id="997" x="625.513" y="321.027" width="14.6589" height="14.6589">
   <properties>
    <property name="building_type" value="empty"/>
    <property name="can_build" type="bool" value="true"/>
    <property name="is_starting_building" type="bool" value="false"/>
   </properties>
  </object>
  <object id="998" x="609.743" y="320.694" width="14.6589" height="14.6589">
   <properties>
    <property name="building_type" value="empty"/>
    <property name="can_build" type="bool" value="true"/>
    <property name="is_starting_building" type="bool" value="false"/>
   </properties>
  </object>
  <object id="999" x="625.628" y="337.167" width="14.6589" height="14.6589">
   <properties>
    <property name="building_type" value="empty"/>
    <property name="can_build" type="bool" value="true"/>
    <property name="is_starting_building" type="bool" value="false"/>
   </properties>
  </object>
  <object id="1000" x="625.816" y="352.935" width="14.6589" height="14.6589">
   <properties>
    <property name="building_type" value="empty"/>
    <property name="can_build" type="bool" value="true"/>
    <property name="is_starting_building" type="bool" value="false"/>
   </properties>
  </object>
  <object id="1001" x="529.837" y="336.327" width="14.6589" height="14.6589">
   <properties>
    <property name="building_type" value="empty"/>
    <property name="can_build" type="bool" value="true"/>
    <property name="is_starting_building" type="bool" value="false"/>
   </properties>
  </object>
  <object id="1002" x="529.776" y="352.306" width="14.6589" height="14.6589">
   <properties>
    <property name="building_type" value="empty"/>
    <property name="can_build" type="bool" value="true"/>
    <property name="is_starting_building" type="bool" value="false"/>
   </properties>
  </object>
  <object id="1003" x="545.788" y="320.49" width="14.6589" height="14.6589">
   <properties>
    <property name="building_type" value="empty"/>
    <property name="can_build" type="bool" value="true"/>
    <property name="is_starting_building" type="bool" value="false"/>
   </properties>
  </object>
  <object id="1004" x="530.017" y="320.157" width="14.6589" height="14.6589">
   <properties>
    <property name="building_type" value="empty"/>
    <property name="can_build" type="bool" value="true"/>
    <property name="is_starting_building" type="bool" value="false"/>
   </properties>
  </object>
  <object id="1005" x="545.902" y="336.63" width="14.6589" height="14.6589">
   <properties>
    <property name="building_type" value="empty"/>
    <property name="can_build" type="bool" value="true"/>
    <property name="is_starting_building" type="bool" value="false"/>
   </properties>
  </object>
  <object id="1006" x="546.09" y="352.398" width="14.6589" height="14.6589">
   <properties>
    <property name="building_type" value="empty"/>
    <property name="can_build" type="bool" value="true"/>
    <property name="is_starting_building" type="bool" value="false"/>
   </properties>
  </object>
  <object id="1007" x="561.812" y="336.114" width="14.6589" height="14.6589">
   <properties>
    <property name="building_type" value="empty"/>
    <property name="can_build" type="bool" value="true"/>
    <property name="is_starting_building" type="bool" value="false"/>
   </properties>
  </object>
  <object id="1008" x="561.751" y="352.093" width="14.6589" height="14.6589">
   <properties>
    <property name="building_type" value="empty"/>
    <property name="can_build" type="bool" value="true"/>
    <property name="is_starting_building" type="bool" value="false"/>
   </properties>
  </object>
  <object id="1009" x="577.763" y="320.277" width="14.6589" height="14.6589">
   <properties>
    <property name="building_type" value="empty"/>
    <property name="can_build" type="bool" value="true"/>
    <property name="is_starting_building" type="bool" value="false"/>
   </properties>
  </object>
  <object id="1010" x="561.993" y="319.944" width="14.6589" height="14.6589">
   <properties>
    <property name="building_type" value="empty"/>
    <property name="can_build" type="bool" value="true"/>
    <property name="is_starting_building" type="bool" value="false"/>
   </properties>
  </object>
  <object id="1011" x="577.878" y="336.417" width="14.6589" height="14.6589">
   <properties>
    <property name="building_type" value="empty"/>
    <property name="can_build" type="bool" value="true"/>
    <property name="is_starting_building" type="bool" value="false"/>
   </properties>
  </object>
  <object id="1012" x="578.066" y="352.185" width="14.6589" height="14.6589">
   <properties>
    <property name="building_type" value="empty"/>
    <property name="can_build" type="bool" value="true"/>
    <property name="is_starting_building" type="bool" value="false"/>
   </properties>
  </object>
  <object id="1013" x="480.337" y="240.243" width="14.6589" height="14.6589">
   <properties>
    <property name="building_type" value="empty"/>
    <property name="can_build" type="bool" value="true"/>
    <property name="is_starting_building" type="bool" value="false"/>
   </properties>
  </object>
  <object id="1014" x="480.276" y="256.222" width="14.6589" height="14.6589">
   <properties>
    <property name="building_type" value="empty"/>
    <property name="can_build" type="bool" value="true"/>
    <property name="is_starting_building" type="bool" value="false"/>
   </properties>
  </object>
  <object id="1015" x="496.288" y="224.406" width="14.6589" height="14.6589">
   <properties>
    <property name="building_type" value="empty"/>
    <property name="can_build" type="bool" value="true"/>
    <property name="is_starting_building" type="bool" value="false"/>
   </properties>
  </object>
  <object id="1016" x="480.517" y="224.073" width="14.6589" height="14.6589">
   <properties>
    <property name="building_type" value="empty"/>
    <property name="can_build" type="bool" value="true"/>
    <property name="is_starting_building" type="bool" value="false"/>
   </properties>
  </object>
  <object id="1017" x="496.402" y="240.546" width="14.6589" height="14.6589">
   <properties>
    <property name="building_type" value="empty"/>
    <property name="can_build" type="bool" value="true"/>
    <property name="is_starting_building" type="bool" value="false"/>
   </properties>
  </object>
  <object id="1018" x="496.59" y="256.314" width="14.6589" height="14.6589">
   <properties>
    <property name="building_type" value="empty"/>
    <property name="can_build" type="bool" value="true"/>
    <property name="is_starting_building" type="bool" value="false"/>
   </properties>
  </object>
  <object id="1019" x="512.312" y="240.03" width="14.6589" height="14.6589">
   <properties>
    <property name="building_type" value="empty"/>
    <property name="can_build" type="bool" value="true"/>
    <property name="is_starting_building" type="bool" value="false"/>
   </properties>
  </object>
  <object id="1020" x="512.251" y="256.009" width="14.6589" height="14.6589">
   <properties>
    <property name="building_type" value="empty"/>
    <property name="can_build" type="bool" value="true"/>
    <property name="is_starting_building" type="bool" value="false"/>
   </properties>
  </object>
  <object id="1021" x="528.263" y="224.193" width="14.6589" height="14.6589">
   <properties>
    <property name="building_type" value="empty"/>
    <property name="can_build" type="bool" value="true"/>
    <property name="is_starting_building" type="bool" value="false"/>
   </properties>
  </object>
  <object id="1022" x="512.493" y="223.86" width="14.6589" height="14.6589">
   <properties>
    <property name="building_type" value="empty"/>
    <property name="can_build" type="bool" value="true"/>
    <property name="is_starting_building" type="bool" value="false"/>
   </properties>
  </object>
  <object id="1023" x="528.378" y="240.333" width="14.6589" height="14.6589">
   <properties>
    <property name="building_type" value="empty"/>
    <property name="can_build" type="bool" value="true"/>
    <property name="is_starting_building" type="bool" value="false"/>
   </properties>
  </object>
  <object id="1024" x="528.566" y="256.101" width="14.6589" height="14.6589">
   <properties>
    <property name="building_type" value="empty"/>
    <property name="can_build" type="bool" value="true"/>
    <property name="is_starting_building" type="bool" value="false"/>
   </properties>
  </object>
  <object id="1026" x="446.769" y="337.008" width="14.6589" height="14.6589">
   <properties>
    <property name="building_type" value="empty"/>
    <property name="can_build" type="bool" value="true"/>
    <property name="is_starting_building" type="bool" value="false"/>
   </properties>
  </object>
  <object id="1027" x="446.707" y="352.987" width="14.6589" height="14.6589">
   <properties>
    <property name="building_type" value="empty"/>
    <property name="can_build" type="bool" value="true"/>
    <property name="is_starting_building" type="bool" value="false"/>
   </properties>
  </object>
  <object id="1028" x="462.719" y="321.171" width="14.6589" height="14.6589">
   <properties>
    <property name="building_type" value="empty"/>
    <property name="can_build" type="bool" value="true"/>
    <property name="is_starting_building" type="bool" value="false"/>
   </properties>
  </object>
  <object id="1029" x="446.949" y="320.838" width="14.6589" height="14.6589">
   <properties>
    <property name="building_type" value="empty"/>
    <property name="can_build" type="bool" value="true"/>
    <property name="is_starting_building" type="bool" value="false"/>
   </properties>
  </object>
  <object id="1030" x="462.834" y="337.311" width="14.6589" height="14.6589">
   <properties>
    <property name="building_type" value="empty"/>
    <property name="can_build" type="bool" value="true"/>
    <property name="is_starting_building" type="bool" value="false"/>
   </properties>
  </object>
  <object id="1031" x="463.022" y="353.079" width="14.6589" height="14.6589">
   <properties>
    <property name="building_type" value="empty"/>
    <property name="can_build" type="bool" value="true"/>
    <property name="is_starting_building" type="bool" value="false"/>
   </properties>
  </object>
  <object id="1034" x="495.967" y="320.595" width="14.6589" height="14.6589">
   <properties>
    <property name="building_type" value="empty"/>
    <property name="can_build" type="bool" value="true"/>
    <property name="is_starting_building" type="bool" value="false"/>
   </properties>
  </object>
  <object id="1035" x="478.924" y="320.625" width="14.6589" height="14.6589">
   <properties>
    <property name="building_type" value="empty"/>
    <property name="can_build" type="bool" value="true"/>
    <property name="is_starting_building" type="bool" value="false"/>
   </properties>
  </object>
  <object id="1041" x="544.337" y="240.077" width="14.6589" height="14.6589">
   <properties>
    <property name="building_type" value="empty"/>
    <property name="can_build" type="bool" value="true"/>
    <property name="is_starting_building" type="bool" value="false"/>
   </properties>
  </object>
  <object id="1042" x="544.276" y="256.056" width="14.6589" height="14.6589">
   <properties>
    <property name="building_type" value="empty"/>
    <property name="can_build" type="bool" value="true"/>
    <property name="is_starting_building" type="bool" value="false"/>
   </properties>
  </object>
  <object id="1043" x="560.288" y="224.24" width="14.6589" height="14.6589">
   <properties>
    <property name="building_type" value="empty"/>
    <property name="can_build" type="bool" value="true"/>
    <property name="is_starting_building" type="bool" value="false"/>
   </properties>
  </object>
  <object id="1044" x="544.517" y="223.907" width="14.6589" height="14.6589">
   <properties>
    <property name="building_type" value="empty"/>
    <property name="can_build" type="bool" value="true"/>
    <property name="is_starting_building" type="bool" value="false"/>
   </properties>
  </object>
  <object id="1045" x="560.402" y="240.38" width="14.6589" height="14.6589">
   <properties>
    <property name="building_type" value="empty"/>
    <property name="can_build" type="bool" value="true"/>
    <property name="is_starting_building" type="bool" value="false"/>
   </properties>
  </object>
  <object id="1046" x="560.59" y="256.148" width="14.6589" height="14.6589">
   <properties>
    <property name="building_type" value="empty"/>
    <property name="can_build" type="bool" value="true"/>
    <property name="is_starting_building" type="bool" value="false"/>
   </properties>
  </object>
  <object id="1047" x="576.312" y="239.864" width="14.6589" height="14.6589">
   <properties>
    <property name="building_type" value="empty"/>
    <property name="can_build" type="bool" value="true"/>
    <property name="is_starting_building" type="bool" value="false"/>
   </properties>
  </object>
  <object id="1048" x="576.251" y="255.843" width="14.6589" height="14.6589">
   <properties>
    <property name="building_type" value="empty"/>
    <property name="can_build" type="bool" value="true"/>
    <property name="is_starting_building" type="bool" value="false"/>
   </properties>
  </object>
  <object id="1049" x="592.263" y="224.027" width="14.6589" height="14.6589">
   <properties>
    <property name="building_type" value="empty"/>
    <property name="can_build" type="bool" value="true"/>
    <property name="is_starting_building" type="bool" value="false"/>
   </properties>
  </object>
  <object id="1050" x="576.493" y="223.694" width="14.6589" height="14.6589">
   <properties>
    <property name="building_type" value="empty"/>
    <property name="can_build" type="bool" value="true"/>
    <property name="is_starting_building" type="bool" value="false"/>
   </properties>
  </object>
  <object id="1051" x="592.378" y="240.167" width="14.6589" height="14.6589">
   <properties>
    <property name="building_type" value="empty"/>
    <property name="can_build" type="bool" value="true"/>
    <property name="is_starting_building" type="bool" value="false"/>
   </properties>
  </object>
  <object id="1053" x="608.587" y="288.327" width="14.6589" height="14.6589">
   <properties>
    <property name="building_type" value="empty"/>
    <property name="can_build" type="bool" value="true"/>
    <property name="is_starting_building" type="bool" value="false"/>
   </properties>
  </object>
  <object id="1054" x="608.526" y="304.306" width="14.6589" height="14.6589">
   <properties>
    <property name="building_type" value="empty"/>
    <property name="can_build" type="bool" value="true"/>
    <property name="is_starting_building" type="bool" value="false"/>
   </properties>
  </object>
  <object id="1055" x="624.538" y="272.49" width="14.6589" height="14.6589">
   <properties>
    <property name="building_type" value="empty"/>
    <property name="can_build" type="bool" value="true"/>
    <property name="is_starting_building" type="bool" value="false"/>
   </properties>
  </object>
  <object id="1056" x="608.767" y="272.157" width="14.6589" height="14.6589">
   <properties>
    <property name="building_type" value="empty"/>
    <property name="can_build" type="bool" value="true"/>
    <property name="is_starting_building" type="bool" value="false"/>
   </properties>
  </object>
  <object id="1057" x="624.652" y="288.63" width="14.6589" height="14.6589">
   <properties>
    <property name="building_type" value="empty"/>
    <property name="can_build" type="bool" value="true"/>
    <property name="is_starting_building" type="bool" value="false"/>
   </properties>
  </object>
  <object id="1058" x="624.84" y="304.398" width="14.6589" height="14.6589">
   <properties>
    <property name="building_type" value="empty"/>
    <property name="can_build" type="bool" value="true"/>
    <property name="is_starting_building" type="bool" value="false"/>
   </properties>
  </object>
  <object id="1065" x="608.837" y="240.827" width="14.6589" height="14.6589">
   <properties>
    <property name="building_type" value="empty"/>
    <property name="can_build" type="bool" value="true"/>
    <property name="is_starting_building" type="bool" value="false"/>
   </properties>
  </object>
  <object id="1066" x="608.776" y="256.806" width="14.6589" height="14.6589">
   <properties>
    <property name="building_type" value="empty"/>
    <property name="can_build" type="bool" value="true"/>
    <property name="is_starting_building" type="bool" value="false"/>
   </properties>
  </object>
  <object id="1067" x="624.788" y="224.99" width="14.6589" height="14.6589">
   <properties>
    <property name="building_type" value="empty"/>
    <property name="can_build" type="bool" value="true"/>
    <property name="is_starting_building" type="bool" value="false"/>
   </properties>
  </object>
  <object id="1068" x="609.017" y="224.657" width="14.6589" height="14.6589">
   <properties>
    <property name="building_type" value="empty"/>
    <property name="can_build" type="bool" value="true"/>
    <property name="is_starting_building" type="bool" value="false"/>
   </properties>
  </object>
  <object id="1069" x="624.902" y="241.13" width="14.6589" height="14.6589">
   <properties>
    <property name="building_type" value="empty"/>
    <property name="can_build" type="bool" value="true"/>
    <property name="is_starting_building" type="bool" value="false"/>
   </properties>
  </object>
  <object id="1070" x="625.09" y="256.898" width="14.6589" height="14.6589">
   <properties>
    <property name="building_type" value="empty"/>
    <property name="can_build" type="bool" value="true"/>
    <property name="is_starting_building" type="bool" value="false"/>
   </properties>
  </object>
  <object id="1077" x="480.337" y="192.577" width="14.6589" height="14.6589">
   <properties>
    <property name="building_type" value="empty"/>
    <property name="can_build" type="bool" value="true"/>
    <property name="is_starting_building" type="bool" value="false"/>
   </properties>
  </object>
  <object id="1078" x="480.276" y="208.556" width="14.6589" height="14.6589">
   <properties>
    <property name="building_type" value="empty"/>
    <property name="can_build" type="bool" value="true"/>
    <property name="is_starting_building" type="bool" value="false"/>
   </properties>
  </object>
  <object id="1079" x="496.288" y="176.74" width="14.6589" height="14.6589">
   <properties>
    <property name="building_type" value="empty"/>
    <property name="can_build" type="bool" value="true"/>
    <property name="is_starting_building" type="bool" value="false"/>
   </properties>
  </object>
  <object id="1080" x="480.517" y="176.407" width="14.6589" height="14.6589">
   <properties>
    <property name="building_type" value="empty"/>
    <property name="can_build" type="bool" value="true"/>
    <property name="is_starting_building" type="bool" value="false"/>
   </properties>
  </object>
  <object id="1081" x="496.402" y="192.88" width="14.6589" height="14.6589">
   <properties>
    <property name="building_type" value="empty"/>
    <property name="can_build" type="bool" value="true"/>
    <property name="is_starting_building" type="bool" value="false"/>
   </properties>
  </object>
  <object id="1082" x="496.59" y="208.648" width="14.6589" height="14.6589">
   <properties>
    <property name="building_type" value="empty"/>
    <property name="can_build" type="bool" value="true"/>
    <property name="is_starting_building" type="bool" value="false"/>
   </properties>
  </object>
  <object id="1083" x="512.312" y="192.364" width="14.6589" height="14.6589">
   <properties>
    <property name="building_type" value="empty"/>
    <property name="can_build" type="bool" value="true"/>
    <property name="is_starting_building" type="bool" value="false"/>
   </properties>
  </object>
  <object id="1084" x="512.251" y="208.343" width="14.6589" height="14.6589">
   <properties>
    <property name="building_type" value="empty"/>
    <property name="can_build" type="bool" value="true"/>
    <property name="is_starting_building" type="bool" value="false"/>
   </properties>
  </object>
  <object id="1085" x="528.263" y="176.527" width="14.6589" height="14.6589">
   <properties>
    <property name="building_type" value="empty"/>
    <property name="can_build" type="bool" value="true"/>
    <property name="is_starting_building" type="bool" value="false"/>
   </properties>
  </object>
  <object id="1086" x="512.493" y="176.194" width="14.6589" height="14.6589">
   <properties>
    <property name="building_type" value="empty"/>
    <property name="can_build" type="bool" value="true"/>
    <property name="is_starting_building" type="bool" value="false"/>
   </properties>
  </object>
  <object id="1087" x="528.378" y="192.667" width="14.6589" height="14.6589">
   <properties>
    <property name="building_type" value="empty"/>
    <property name="can_build" type="bool" value="true"/>
    <property name="is_starting_building" type="bool" value="false"/>
   </properties>
  </object>
  <object id="1088" x="528.566" y="208.435" width="14.6589" height="14.6589">
   <properties>
    <property name="building_type" value="empty"/>
    <property name="can_build" type="bool" value="true"/>
    <property name="is_starting_building" type="bool" value="false"/>
   </properties>
  </object>
  <object id="1089" x="544.587" y="192.827" width="14.6589" height="14.6589">
   <properties>
    <property name="building_type" value="empty"/>
    <property name="can_build" type="bool" value="true"/>
    <property name="is_starting_building" type="bool" value="false"/>
   </properties>
  </object>
  <object id="1090" x="544.526" y="208.806" width="14.6589" height="14.6589">
   <properties>
    <property name="building_type" value="empty"/>
    <property name="can_build" type="bool" value="true"/>
    <property name="is_starting_building" type="bool" value="false"/>
   </properties>
  </object>
  <object id="1091" x="560.538" y="176.99" width="14.6589" height="14.6589">
   <properties>
    <property name="building_type" value="empty"/>
    <property name="can_build" type="bool" value="true"/>
    <property name="is_starting_building" type="bool" value="false"/>
   </properties>
  </object>
  <object id="1092" x="544.767" y="176.657" width="14.6589" height="14.6589">
   <properties>
    <property name="building_type" value="empty"/>
    <property name="can_build" type="bool" value="true"/>
    <property name="is_starting_building" type="bool" value="false"/>
   </properties>
  </object>
  <object id="1093" x="560.652" y="193.13" width="14.6589" height="14.6589">
   <properties>
    <property name="building_type" value="empty"/>
    <property name="can_build" type="bool" value="true"/>
    <property name="is_starting_building" type="bool" value="false"/>
   </properties>
  </object>
  <object id="1094" x="560.84" y="208.898" width="14.6589" height="14.6589">
   <properties>
    <property name="building_type" value="empty"/>
    <property name="can_build" type="bool" value="true"/>
    <property name="is_starting_building" type="bool" value="false"/>
   </properties>
  </object>
  <object id="1095" x="576.562" y="192.614" width="14.6589" height="14.6589">
   <properties>
    <property name="building_type" value="empty"/>
    <property name="can_build" type="bool" value="true"/>
    <property name="is_starting_building" type="bool" value="false"/>
   </properties>
  </object>
  <object id="1096" x="576.501" y="208.593" width="14.6589" height="14.6589">
   <properties>
    <property name="building_type" value="empty"/>
    <property name="can_build" type="bool" value="true"/>
    <property name="is_starting_building" type="bool" value="false"/>
   </properties>
  </object>
  <object id="1097" x="592.513" y="176.777" width="14.6589" height="14.6589">
   <properties>
    <property name="building_type" value="empty"/>
    <property name="can_build" type="bool" value="true"/>
    <property name="is_starting_building" type="bool" value="false"/>
   </properties>
  </object>
  <object id="1098" x="576.743" y="176.444" width="14.6589" height="14.6589">
   <properties>
    <property name="building_type" value="empty"/>
    <property name="can_build" type="bool" value="true"/>
    <property name="is_starting_building" type="bool" value="false"/>
   </properties>
  </object>
  <object id="1099" x="592.628" y="192.917" width="14.6589" height="14.6589">
   <properties>
    <property name="building_type" value="empty"/>
    <property name="can_build" type="bool" value="true"/>
    <property name="is_starting_building" type="bool" value="false"/>
   </properties>
  </object>
  <object id="1100" x="592.816" y="208.685" width="14.6589" height="14.6589">
   <properties>
    <property name="building_type" value="empty"/>
    <property name="can_build" type="bool" value="true"/>
    <property name="is_starting_building" type="bool" value="false"/>
   </properties>
  </object>
  <object id="1101" x="609.087" y="192.577" width="14.6589" height="14.6589">
   <properties>
    <property name="building_type" value="empty"/>
    <property name="can_build" type="bool" value="true"/>
    <property name="is_starting_building" type="bool" value="false"/>
   </properties>
  </object>
  <object id="1102" x="609.026" y="208.556" width="14.6589" height="14.6589">
   <properties>
    <property name="building_type" value="empty"/>
    <property name="can_build" type="bool" value="true"/>
    <property name="is_starting_building" type="bool" value="false"/>
   </properties>
  </object>
  <object id="1103" x="625.038" y="176.74" width="14.6589" height="14.6589">
   <properties>
    <property name="building_type" value="empty"/>
    <property name="can_build" type="bool" value="true"/>
    <property name="is_starting_building" type="bool" value="false"/>
   </properties>
  </object>
  <object id="1104" x="609.267" y="176.407" width="14.6589" height="14.6589">
   <properties>
    <property name="building_type" value="empty"/>
    <property name="can_build" type="bool" value="true"/>
    <property name="is_starting_building" type="bool" value="false"/>
   </properties>
  </object>
  <object id="1105" x="625.152" y="192.88" width="14.6589" height="14.6589">
   <properties>
    <property name="building_type" value="empty"/>
    <property name="can_build" type="bool" value="true"/>
    <property name="is_starting_building" type="bool" value="false"/>
   </properties>
  </object>
  <object id="1106" x="625.34" y="208.648" width="14.6589" height="14.6589">
   <properties>
    <property name="building_type" value="empty"/>
    <property name="can_build" type="bool" value="true"/>
    <property name="is_starting_building" type="bool" value="false"/>
   </properties>
  </object>
  <object id="1113" x="480.405" y="17.0084" width="14.6589" height="14.6589">
   <properties>
    <property name="building_type" value="empty"/>
    <property name="can_build" type="bool" value="true"/>
    <property name="is_starting_building" type="bool" value="false"/>
   </properties>
  </object>
  <object id="1114" x="480.344" y="32.9874" width="14.6589" height="14.6589">
   <properties>
    <property name="building_type" value="empty"/>
    <property name="can_build" type="bool" value="true"/>
    <property name="is_starting_building" type="bool" value="false"/>
   </properties>
  </object>
  <object id="1115" x="496.356" y="1.17137" width="14.6589" height="14.6589">
   <properties>
    <property name="building_type" value="empty"/>
    <property name="can_build" type="bool" value="true"/>
    <property name="is_starting_building" type="bool" value="false"/>
   </properties>
  </object>
  <object id="1116" x="480.586" y="0.838368" width="14.6589" height="14.6589">
   <properties>
    <property name="building_type" value="empty"/>
    <property name="can_build" type="bool" value="true"/>
    <property name="is_starting_building" type="bool" value="false"/>
   </properties>
  </object>
  <object id="1117" x="496.471" y="17.3114" width="14.6589" height="14.6589">
   <properties>
    <property name="building_type" value="empty"/>
    <property name="can_build" type="bool" value="true"/>
    <property name="is_starting_building" type="bool" value="false"/>
   </properties>
  </object>
  <object id="1118" x="496.658" y="33.0794" width="14.6589" height="14.6589">
   <properties>
    <property name="building_type" value="empty"/>
    <property name="can_build" type="bool" value="true"/>
    <property name="is_starting_building" type="bool" value="false"/>
   </properties>
  </object>
  <object id="1119" x="512.381" y="16.7954" width="14.6589" height="14.6589">
   <properties>
    <property name="building_type" value="empty"/>
    <property name="can_build" type="bool" value="true"/>
    <property name="is_starting_building" type="bool" value="false"/>
   </properties>
  </object>
  <object id="1120" x="512.319" y="32.7744" width="14.6589" height="14.6589">
   <properties>
    <property name="building_type" value="empty"/>
    <property name="can_build" type="bool" value="true"/>
    <property name="is_starting_building" type="bool" value="false"/>
   </properties>
  </object>
  <object id="1121" x="528.331" y="0.958368" width="14.6589" height="14.6589">
   <properties>
    <property name="building_type" value="empty"/>
    <property name="can_build" type="bool" value="true"/>
    <property name="is_starting_building" type="bool" value="false"/>
   </properties>
  </object>
  <object id="1122" x="512.561" y="0.625368" width="14.6589" height="14.6589">
   <properties>
    <property name="building_type" value="empty"/>
    <property name="can_build" type="bool" value="true"/>
    <property name="is_starting_building" type="bool" value="false"/>
   </properties>
  </object>
  <object id="1123" x="528.446" y="17.0984" width="14.6589" height="14.6589">
   <properties>
    <property name="building_type" value="empty"/>
    <property name="can_build" type="bool" value="true"/>
    <property name="is_starting_building" type="bool" value="false"/>
   </properties>
  </object>
  <object id="1124" x="528.634" y="32.8664" width="14.6589" height="14.6589">
   <properties>
    <property name="building_type" value="empty"/>
    <property name="can_build" type="bool" value="true"/>
    <property name="is_starting_building" type="bool" value="false"/>
   </properties>
  </object>
  <object id="1125" x="544.224" y="16.6447" width="14.6589" height="14.6589">
   <properties>
    <property name="building_type" value="empty"/>
    <property name="can_build" type="bool" value="true"/>
    <property name="is_starting_building" type="bool" value="false"/>
   </properties>
  </object>
  <object id="1126" x="544.162" y="32.6237" width="14.6589" height="14.6589">
   <properties>
    <property name="building_type" value="empty"/>
    <property name="can_build" type="bool" value="true"/>
    <property name="is_starting_building" type="bool" value="false"/>
   </properties>
  </object>
  <object id="1127" x="560.174" y="0.807732" width="14.6589" height="14.6589">
   <properties>
    <property name="building_type" value="empty"/>
    <property name="can_build" type="bool" value="true"/>
    <property name="is_starting_building" type="bool" value="false"/>
   </properties>
  </object>
  <object id="1128" x="544.404" y="0.474732" width="14.6589" height="14.6589">
   <properties>
    <property name="building_type" value="empty"/>
    <property name="can_build" type="bool" value="true"/>
    <property name="is_starting_building" type="bool" value="false"/>
   </properties>
  </object>
  <object id="1129" x="560.289" y="16.9477" width="14.6589" height="14.6589">
   <properties>
    <property name="building_type" value="empty"/>
    <property name="can_build" type="bool" value="true"/>
    <property name="is_starting_building" type="bool" value="false"/>
   </properties>
  </object>
  <object id="1130" x="560.477" y="32.7157" width="14.6589" height="14.6589">
   <properties>
    <property name="building_type" value="empty"/>
    <property name="can_build" type="bool" value="true"/>
    <property name="is_starting_building" type="bool" value="false"/>
   </properties>
  </object>
  <object id="1131" x="576.199" y="16.4317" width="14.6589" height="14.6589">
   <properties>
    <property name="building_type" value="empty"/>
    <property name="can_build" type="bool" value="true"/>
    <property name="is_starting_building" type="bool" value="false"/>
   </properties>
  </object>
  <object id="1132" x="576.137" y="32.4107" width="14.6589" height="14.6589">
   <properties>
    <property name="building_type" value="empty"/>
    <property name="can_build" type="bool" value="true"/>
    <property name="is_starting_building" type="bool" value="false"/>
   </properties>
  </object>
  <object id="1133" x="592.149" y="0.594732" width="14.6589" height="14.6589">
   <properties>
    <property name="building_type" value="empty"/>
    <property name="can_build" type="bool" value="true"/>
    <property name="is_starting_building" type="bool" value="false"/>
   </properties>
  </object>
  <object id="1134" x="576.379" y="0.261732" width="14.6589" height="14.6589">
   <properties>
    <property name="building_type" value="empty"/>
    <property name="can_build" type="bool" value="true"/>
    <property name="is_starting_building" type="bool" value="false"/>
   </properties>
  </object>
  <object id="1135" x="592.264" y="16.7347" width="14.6589" height="14.6589">
   <properties>
    <property name="building_type" value="empty"/>
    <property name="can_build" type="bool" value="true"/>
    <property name="is_starting_building" type="bool" value="false"/>
   </properties>
  </object>
  <object id="1136" x="592.452" y="32.5027" width="14.6589" height="14.6589">
   <properties>
    <property name="building_type" value="empty"/>
    <property name="can_build" type="bool" value="true"/>
    <property name="is_starting_building" type="bool" value="false"/>
   </properties>
  </object>
  <object id="1137" x="607.496" y="16.8266" width="14.6589" height="14.6589">
   <properties>
    <property name="building_type" value="empty"/>
    <property name="can_build" type="bool" value="true"/>
    <property name="is_starting_building" type="bool" value="false"/>
   </properties>
  </object>
  <object id="1138" x="607.435" y="32.8055" width="14.6589" height="14.6589">
   <properties>
    <property name="building_type" value="empty"/>
    <property name="can_build" type="bool" value="true"/>
    <property name="is_starting_building" type="bool" value="false"/>
   </properties>
  </object>
  <object id="1139" x="623.447" y="0.98955" width="14.6589" height="14.6589">
   <properties>
    <property name="building_type" value="empty"/>
    <property name="can_build" type="bool" value="true"/>
    <property name="is_starting_building" type="bool" value="false"/>
   </properties>
  </object>
  <object id="1140" x="607.676" y="0.65655" width="14.6589" height="14.6589">
   <properties>
    <property name="building_type" value="empty"/>
    <property name="can_build" type="bool" value="true"/>
    <property name="is_starting_building" type="bool" value="false"/>
   </properties>
  </object>
  <object id="1141" x="623.562" y="17.1296" width="14.6589" height="14.6589">
   <properties>
    <property name="building_type" value="empty"/>
    <property name="can_build" type="bool" value="true"/>
    <property name="is_starting_building" type="bool" value="false"/>
   </properties>
  </object>
  <object id="1142" x="623.749" y="32.8976" width="14.6589" height="14.6589">
   <properties>
    <property name="building_type" value="empty"/>
    <property name="can_build" type="bool" value="true"/>
    <property name="is_starting_building" type="bool" value="false"/>
   </properties>
  </object>
  <object id="1149" x="480.587" y="65.1902" width="14.6589" height="14.6589">
   <properties>
    <property name="building_type" value="empty"/>
    <property name="can_build" type="bool" value="true"/>
    <property name="is_starting_building" type="bool" value="false"/>
   </properties>
  </object>
  <object id="1150" x="480.526" y="81.1692" width="14.6589" height="14.6589">
   <properties>
    <property name="building_type" value="empty"/>
    <property name="can_build" type="bool" value="true"/>
    <property name="is_starting_building" type="bool" value="false"/>
   </properties>
  </object>
  <object id="1151" x="496.538" y="49.3532" width="14.6589" height="14.6589">
   <properties>
    <property name="building_type" value="empty"/>
    <property name="can_build" type="bool" value="true"/>
    <property name="is_starting_building" type="bool" value="false"/>
   </properties>
  </object>
  <object id="1152" x="480.767" y="49.0202" width="14.6589" height="14.6589">
   <properties>
    <property name="building_type" value="empty"/>
    <property name="can_build" type="bool" value="true"/>
    <property name="is_starting_building" type="bool" value="false"/>
   </properties>
  </object>
  <object id="1153" x="496.652" y="65.4932" width="14.6589" height="14.6589">
   <properties>
    <property name="building_type" value="empty"/>
    <property name="can_build" type="bool" value="true"/>
    <property name="is_starting_building" type="bool" value="false"/>
   </properties>
  </object>
  <object id="1154" x="496.84" y="81.2612" width="14.6589" height="14.6589">
   <properties>
    <property name="building_type" value="empty"/>
    <property name="can_build" type="bool" value="true"/>
    <property name="is_starting_building" type="bool" value="false"/>
   </properties>
  </object>
  <object id="1155" x="512.562" y="64.9772" width="14.6589" height="14.6589">
   <properties>
    <property name="building_type" value="empty"/>
    <property name="can_build" type="bool" value="true"/>
    <property name="is_starting_building" type="bool" value="false"/>
   </properties>
  </object>
  <object id="1156" x="512.501" y="80.9562" width="14.6589" height="14.6589">
   <properties>
    <property name="building_type" value="empty"/>
    <property name="can_build" type="bool" value="true"/>
    <property name="is_starting_building" type="bool" value="false"/>
   </properties>
  </object>
  <object id="1157" x="528.513" y="49.1402" width="14.6589" height="14.6589">
   <properties>
    <property name="building_type" value="empty"/>
    <property name="can_build" type="bool" value="true"/>
    <property name="is_starting_building" type="bool" value="false"/>
   </properties>
  </object>
  <object id="1158" x="512.743" y="48.8072" width="14.6589" height="14.6589">
   <properties>
    <property name="building_type" value="empty"/>
    <property name="can_build" type="bool" value="true"/>
    <property name="is_starting_building" type="bool" value="false"/>
   </properties>
  </object>
  <object id="1159" x="528.628" y="65.2802" width="14.6589" height="14.6589">
   <properties>
    <property name="building_type" value="empty"/>
    <property name="can_build" type="bool" value="true"/>
    <property name="is_starting_building" type="bool" value="false"/>
   </properties>
  </object>
  <object id="1160" x="528.816" y="81.0482" width="14.6589" height="14.6589">
   <properties>
    <property name="building_type" value="empty"/>
    <property name="can_build" type="bool" value="true"/>
    <property name="is_starting_building" type="bool" value="false"/>
   </properties>
  </object>
  <object id="1173" x="544.587" y="64.8265" width="14.6589" height="14.6589">
   <properties>
    <property name="building_type" value="empty"/>
    <property name="can_build" type="bool" value="true"/>
    <property name="is_starting_building" type="bool" value="false"/>
   </properties>
  </object>
  <object id="1174" x="544.526" y="80.8055" width="14.6589" height="14.6589">
   <properties>
    <property name="building_type" value="empty"/>
    <property name="can_build" type="bool" value="true"/>
    <property name="is_starting_building" type="bool" value="false"/>
   </properties>
  </object>
  <object id="1176" x="544.767" y="48.6565" width="14.6589" height="14.6589">
   <properties>
    <property name="building_type" value="empty"/>
    <property name="can_build" type="bool" value="true"/>
    <property name="is_starting_building" type="bool" value="false"/>
   </properties>
  </object>
  <object id="1188" x="560.222" y="48.8384" width="14.6589" height="14.6589">
   <properties>
    <property name="building_type" value="empty"/>
    <property name="can_build" type="bool" value="true"/>
    <property name="is_starting_building" type="bool" value="false"/>
   </properties>
  </object>
  <object id="1209" x="576.405" y="64.6447" width="14.6589" height="14.6589">
   <properties>
    <property name="building_type" value="empty"/>
    <property name="can_build" type="bool" value="true"/>
    <property name="is_starting_building" type="bool" value="false"/>
   </properties>
  </object>
  <object id="1210" x="576.344" y="80.6237" width="14.6589" height="14.6589">
   <properties>
    <property name="building_type" value="empty"/>
    <property name="can_build" type="bool" value="true"/>
    <property name="is_starting_building" type="bool" value="false"/>
   </properties>
  </object>
  <object id="1211" x="592.356" y="48.8077" width="14.6589" height="14.6589">
   <properties>
    <property name="building_type" value="empty"/>
    <property name="can_build" type="bool" value="true"/>
    <property name="is_starting_building" type="bool" value="false"/>
   </properties>
  </object>
  <object id="1212" x="576.586" y="48.4747" width="14.6589" height="14.6589">
   <properties>
    <property name="building_type" value="empty"/>
    <property name="can_build" type="bool" value="true"/>
    <property name="is_starting_building" type="bool" value="false"/>
   </properties>
  </object>
  <object id="1213" x="592.471" y="64.9477" width="14.6589" height="14.6589">
   <properties>
    <property name="building_type" value="empty"/>
    <property name="can_build" type="bool" value="true"/>
    <property name="is_starting_building" type="bool" value="false"/>
   </properties>
  </object>
  <object id="1214" x="592.658" y="80.7157" width="14.6589" height="14.6589">
   <properties>
    <property name="building_type" value="empty"/>
    <property name="can_build" type="bool" value="true"/>
    <property name="is_starting_building" type="bool" value="false"/>
   </properties>
  </object>
  <object id="1215" x="608.381" y="64.4317" width="14.6589" height="14.6589">
   <properties>
    <property name="building_type" value="empty"/>
    <property name="can_build" type="bool" value="true"/>
    <property name="is_starting_building" type="bool" value="false"/>
   </properties>
  </object>
  <object id="1216" x="608.319" y="80.4107" width="14.6589" height="14.6589">
   <properties>
    <property name="building_type" value="empty"/>
    <property name="can_build" type="bool" value="true"/>
    <property name="is_starting_building" type="bool" value="false"/>
   </properties>
  </object>
  <object id="1217" x="624.331" y="48.5947" width="14.6589" height="14.6589">
   <properties>
    <property name="building_type" value="empty"/>
    <property name="can_build" type="bool" value="true"/>
    <property name="is_starting_building" type="bool" value="false"/>
   </properties>
  </object>
  <object id="1218" x="608.561" y="48.2617" width="14.6589" height="14.6589">
   <properties>
    <property name="building_type" value="empty"/>
    <property name="can_build" type="bool" value="true"/>
    <property name="is_starting_building" type="bool" value="false"/>
   </properties>
  </object>
  <object id="1219" x="624.446" y="64.7347" width="14.6589" height="14.6589">
   <properties>
    <property name="building_type" value="empty"/>
    <property name="can_build" type="bool" value="true"/>
    <property name="is_starting_building" type="bool" value="false"/>
   </properties>
  </object>
  <object id="1220" x="624.634" y="80.5027" width="14.6589" height="14.6589">
   <properties>
    <property name="building_type" value="empty"/>
    <property name="can_build" type="bool" value="true"/>
    <property name="is_starting_building" type="bool" value="false"/>
   </properties>
  </object>
  <object id="1221" x="480.405" y="113.19" width="14.6589" height="14.6589">
   <properties>
    <property name="building_type" value="empty"/>
    <property name="can_build" type="bool" value="true"/>
    <property name="is_starting_building" type="bool" value="false"/>
   </properties>
  </object>
  <object id="1275" x="480.769" y="144.281" width="14.6589" height="14.6589">
   <properties>
    <property name="building_type" value="empty"/>
    <property name="can_build" type="bool" value="true"/>
    <property name="is_starting_building" type="bool" value="false"/>
   </properties>
  </object>
  <object id="1222" x="480.344" y="129.169" width="14.6589" height="14.6589">
   <properties>
    <property name="building_type" value="empty"/>
    <property name="can_build" type="bool" value="true"/>
    <property name="is_starting_building" type="bool" value="false"/>
   </properties>
  </object>
  <object id="1270" x="480.707" y="160.26" width="14.6589" height="14.6589">
   <properties>
    <property name="building_type" value="empty"/>
    <property name="can_build" type="bool" value="true"/>
    <property name="is_starting_building" type="bool" value="false"/>
   </properties>
  </object>
  <object id="1223" x="496.356" y="97.3532" width="14.6589" height="14.6589">
   <properties>
    <property name="building_type" value="empty"/>
    <property name="can_build" type="bool" value="true"/>
    <property name="is_starting_building" type="bool" value="false"/>
   </properties>
  </object>
  <object id="1224" x="480.586" y="97.0202" width="14.6589" height="14.6589">
   <properties>
    <property name="building_type" value="empty"/>
    <property name="can_build" type="bool" value="true"/>
    <property name="is_starting_building" type="bool" value="false"/>
   </properties>
  </object>
  <object id="1225" x="496.471" y="113.493" width="14.6589" height="14.6589">
   <properties>
    <property name="building_type" value="empty"/>
    <property name="can_build" type="bool" value="true"/>
    <property name="is_starting_building" type="bool" value="false"/>
   </properties>
  </object>
  <object id="1273" x="496.834" y="144.584" width="14.6589" height="14.6589">
   <properties>
    <property name="building_type" value="empty"/>
    <property name="can_build" type="bool" value="true"/>
    <property name="is_starting_building" type="bool" value="false"/>
   </properties>
  </object>
  <object id="1226" x="496.658" y="129.261" width="14.6589" height="14.6589">
   <properties>
    <property name="building_type" value="empty"/>
    <property name="can_build" type="bool" value="true"/>
    <property name="is_starting_building" type="bool" value="false"/>
   </properties>
  </object>
  <object id="1269" x="497.022" y="160.352" width="14.6589" height="14.6589">
   <properties>
    <property name="building_type" value="empty"/>
    <property name="can_build" type="bool" value="true"/>
    <property name="is_starting_building" type="bool" value="false"/>
   </properties>
  </object>
  <object id="1227" x="512.381" y="112.977" width="14.6589" height="14.6589">
   <properties>
    <property name="building_type" value="empty"/>
    <property name="can_build" type="bool" value="true"/>
    <property name="is_starting_building" type="bool" value="false"/>
   </properties>
  </object>
  <object id="1276" x="512.744" y="144.068" width="14.6589" height="14.6589">
   <properties>
    <property name="building_type" value="empty"/>
    <property name="can_build" type="bool" value="true"/>
    <property name="is_starting_building" type="bool" value="false"/>
   </properties>
  </object>
  <object id="1228" x="512.319" y="128.956" width="14.6589" height="14.6589">
   <properties>
    <property name="building_type" value="empty"/>
    <property name="can_build" type="bool" value="true"/>
    <property name="is_starting_building" type="bool" value="false"/>
   </properties>
  </object>
  <object id="1272" x="512.683" y="160.047" width="14.6589" height="14.6589">
   <properties>
    <property name="building_type" value="empty"/>
    <property name="can_build" type="bool" value="true"/>
    <property name="is_starting_building" type="bool" value="false"/>
   </properties>
  </object>
  <object id="1230" x="512.561" y="96.8072" width="14.6589" height="14.6589">
   <properties>
    <property name="building_type" value="empty"/>
    <property name="can_build" type="bool" value="true"/>
    <property name="is_starting_building" type="bool" value="false"/>
   </properties>
  </object>
  <object id="1231" x="528.446" y="113.28" width="14.6589" height="14.6589">
   <properties>
    <property name="building_type" value="empty"/>
    <property name="can_build" type="bool" value="true"/>
    <property name="is_starting_building" type="bool" value="false"/>
   </properties>
  </object>
  <object id="1274" x="528.81" y="144.371" width="14.6589" height="14.6589">
   <properties>
    <property name="building_type" value="empty"/>
    <property name="can_build" type="bool" value="true"/>
    <property name="is_starting_building" type="bool" value="false"/>
   </properties>
  </object>
  <object id="1232" x="528.634" y="129.048" width="14.6589" height="14.6589">
   <properties>
    <property name="building_type" value="empty"/>
    <property name="can_build" type="bool" value="true"/>
    <property name="is_starting_building" type="bool" value="false"/>
   </properties>
  </object>
  <object id="1271" x="528.997" y="160.139" width="14.6589" height="14.6589">
   <properties>
    <property name="building_type" value="empty"/>
    <property name="can_build" type="bool" value="true"/>
    <property name="is_starting_building" type="bool" value="false"/>
   </properties>
  </object>
  <object id="1233" x="544.769" y="112.827" width="14.6589" height="14.6589">
   <properties>
    <property name="building_type" value="empty"/>
    <property name="can_build" type="bool" value="true"/>
    <property name="is_starting_building" type="bool" value="false"/>
   </properties>
  </object>
  <object id="1234" x="544.707" y="128.806" width="14.6589" height="14.6589">
   <properties>
    <property name="building_type" value="empty"/>
    <property name="can_build" type="bool" value="true"/>
    <property name="is_starting_building" type="bool" value="false"/>
   </properties>
  </object>
  <object id="1235" x="560.719" y="96.9896" width="14.6589" height="14.6589">
   <properties>
    <property name="building_type" value="empty"/>
    <property name="can_build" type="bool" value="true"/>
    <property name="is_starting_building" type="bool" value="false"/>
   </properties>
  </object>
  <object id="1236" x="544.949" y="96.6565" width="14.6589" height="14.6589">
   <properties>
    <property name="building_type" value="empty"/>
    <property name="can_build" type="bool" value="true"/>
    <property name="is_starting_building" type="bool" value="false"/>
   </properties>
  </object>
  <object id="1237" x="560.834" y="113.13" width="14.6589" height="14.6589">
   <properties>
    <property name="building_type" value="empty"/>
    <property name="can_build" type="bool" value="true"/>
    <property name="is_starting_building" type="bool" value="false"/>
   </properties>
  </object>
  <object id="1238" x="561.022" y="128.898" width="14.6589" height="14.6589">
   <properties>
    <property name="building_type" value="empty"/>
    <property name="can_build" type="bool" value="true"/>
    <property name="is_starting_building" type="bool" value="false"/>
   </properties>
  </object>
  <object id="1239" x="576.744" y="112.614" width="14.6589" height="14.6589">
   <properties>
    <property name="building_type" value="empty"/>
    <property name="can_build" type="bool" value="true"/>
    <property name="is_starting_building" type="bool" value="false"/>
   </properties>
  </object>
  <object id="1240" x="576.683" y="128.593" width="14.6589" height="14.6589">
   <properties>
    <property name="building_type" value="empty"/>
    <property name="can_build" type="bool" value="true"/>
    <property name="is_starting_building" type="bool" value="false"/>
   </properties>
  </object>
  <object id="1241" x="592.695" y="96.7766" width="14.6589" height="14.6589">
   <properties>
    <property name="building_type" value="empty"/>
    <property name="can_build" type="bool" value="true"/>
    <property name="is_starting_building" type="bool" value="false"/>
   </properties>
  </object>
  <object id="1242" x="576.924" y="96.4436" width="14.6589" height="14.6589">
   <properties>
    <property name="building_type" value="empty"/>
    <property name="can_build" type="bool" value="true"/>
    <property name="is_starting_building" type="bool" value="false"/>
   </properties>
  </object>
  <object id="1243" x="592.81" y="112.917" width="14.6589" height="14.6589">
   <properties>
    <property name="building_type" value="empty"/>
    <property name="can_build" type="bool" value="true"/>
    <property name="is_starting_building" type="bool" value="false"/>
   </properties>
  </object>
  <object id="1245" x="608.587" y="113.008" width="14.6589" height="14.6589">
   <properties>
    <property name="building_type" value="empty"/>
    <property name="can_build" type="bool" value="true"/>
    <property name="is_starting_building" type="bool" value="false"/>
   </properties>
  </object>
  <object id="1247" x="624.538" y="97.1714" width="14.6589" height="14.6589">
   <properties>
    <property name="building_type" value="empty"/>
    <property name="can_build" type="bool" value="true"/>
    <property name="is_starting_building" type="bool" value="false"/>
   </properties>
  </object>
  <object id="1248" x="608.767" y="96.8384" width="14.6589" height="14.6589">
   <properties>
    <property name="building_type" value="empty"/>
    <property name="can_build" type="bool" value="true"/>
    <property name="is_starting_building" type="bool" value="false"/>
   </properties>
  </object>
  <object id="1249" x="624.652" y="113.311" width="14.6589" height="14.6589">
   <properties>
    <property name="building_type" value="empty"/>
    <property name="can_build" type="bool" value="true"/>
    <property name="is_starting_building" type="bool" value="false"/>
   </properties>
  </object>
  <object id="1250" x="624.84" y="129.079" width="14.6589" height="14.6589">
   <properties>
    <property name="building_type" value="empty"/>
    <property name="can_build" type="bool" value="true"/>
    <property name="is_starting_building" type="bool" value="false"/>
   </properties>
  </object>
  <object id="1277" x="544.951" y="144.742" width="14.6589" height="14.6589">
   <properties>
    <property name="building_type" value="empty"/>
    <property name="can_build" type="bool" value="true"/>
    <property name="is_starting_building" type="bool" value="false"/>
   </properties>
  </object>
  <object id="1278" x="544.889" y="160.721" width="14.6589" height="14.6589">
   <properties>
    <property name="building_type" value="empty"/>
    <property name="can_build" type="bool" value="true"/>
    <property name="is_starting_building" type="bool" value="false"/>
   </properties>
  </object>
  <object id="1279" x="561.016" y="145.045" width="14.6589" height="14.6589">
   <properties>
    <property name="building_type" value="empty"/>
    <property name="can_build" type="bool" value="true"/>
    <property name="is_starting_building" type="bool" value="false"/>
   </properties>
  </object>
  <object id="1280" x="561.204" y="160.813" width="14.6589" height="14.6589">
   <properties>
    <property name="building_type" value="empty"/>
    <property name="can_build" type="bool" value="true"/>
    <property name="is_starting_building" type="bool" value="false"/>
   </properties>
  </object>
  <object id="1281" x="576.926" y="144.529" width="14.6589" height="14.6589">
   <properties>
    <property name="building_type" value="empty"/>
    <property name="can_build" type="bool" value="true"/>
    <property name="is_starting_building" type="bool" value="false"/>
   </properties>
  </object>
  <object id="1282" x="576.865" y="160.508" width="14.6589" height="14.6589">
   <properties>
    <property name="building_type" value="empty"/>
    <property name="can_build" type="bool" value="true"/>
    <property name="is_starting_building" type="bool" value="false"/>
   </properties>
  </object>
  <object id="1284" x="593.179" y="160.6" width="14.6589" height="14.6589">
   <properties>
    <property name="building_type" value="empty"/>
    <property name="can_build" type="bool" value="true"/>
    <property name="is_starting_building" type="bool" value="false"/>
   </properties>
  </object>
  <object id="1286" x="608.707" y="160.539" width="14.6589" height="14.6589">
   <properties>
    <property name="building_type" value="empty"/>
    <property name="can_build" type="bool" value="true"/>
    <property name="is_starting_building" type="bool" value="false"/>
   </properties>
  </object>
  <object id="1287" x="624.834" y="144.863" width="14.6589" height="14.6589">
   <properties>
    <property name="building_type" value="empty"/>
    <property name="can_build" type="bool" value="true"/>
    <property name="is_starting_building" type="bool" value="false"/>
   </properties>
  </object>
  <object id="1288" x="625.022" y="160.631" width="14.6589" height="14.6589">
   <properties>
    <property name="building_type" value="empty"/>
    <property name="can_build" type="bool" value="true"/>
    <property name="is_starting_building" type="bool" value="false"/>
   </properties>
  </object>
  <object id="1293" x="433.421" y="144.398" width="14.6589" height="14.6589">
   <properties>
    <property name="building_type" value="empty"/>
    <property name="can_build" type="bool" value="true"/>
    <property name="is_starting_building" type="bool" value="false"/>
   </properties>
  </object>
  <object id="1294" x="416.921" y="160.671" width="14.6589" height="14.6589">
   <properties>
    <property name="building_type" value="empty"/>
    <property name="can_build" type="bool" value="true"/>
    <property name="is_starting_building" type="bool" value="false"/>
   </properties>
  </object>
  <object id="1295" x="433.421" y="160.921" width="14.6589" height="14.6589">
   <properties>
    <property name="building_type" value="empty"/>
    <property name="can_build" type="bool" value="true"/>
    <property name="is_starting_building" type="bool" value="false"/>
   </properties>
  </object>
  <object id="1296" x="400.921" y="96.4205" width="14.6589" height="14.6589">
   <properties>
    <property name="building_type" value="empty"/>
    <property name="can_build" type="bool" value="true"/>
    <property name="is_starting_building" type="bool" value="false"/>
   </properties>
  </object>
  <object id="1298" x="1.62366" y="609.077" width="14.6589" height="14.6589">
   <properties>
    <property name="building_type" value="empty"/>
    <property name="can_build" type="bool" value="true"/>
    <property name="is_starting_building" type="bool" value="false"/>
   </properties>
  </object>
  <object id="1299" x="1.562" y="625.056" width="14.6589" height="14.6589">
   <properties>
    <property name="building_type" value="empty"/>
    <property name="can_build" type="bool" value="true"/>
    <property name="is_starting_building" type="bool" value="false"/>
   </properties>
  </object>
  <object id="1300" x="17.5741" y="593.24" width="14.6589" height="14.6589">
   <properties>
    <property name="building_type" value="empty"/>
    <property name="can_build" type="bool" value="true"/>
    <property name="is_starting_building" type="bool" value="false"/>
   </properties>
  </object>
  <object id="1301" x="1.80381" y="592.907" width="14.6589" height="14.6589">
   <properties>
    <property name="building_type" value="empty"/>
    <property name="can_build" type="bool" value="true"/>
    <property name="is_starting_building" type="bool" value="false"/>
   </properties>
  </object>
  <object id="1302" x="17.6889" y="609.38" width="14.6589" height="14.6589">
   <properties>
    <property name="building_type" value="empty"/>
    <property name="can_build" type="bool" value="true"/>
    <property name="is_starting_building" type="bool" value="false"/>
   </properties>
  </object>
  <object id="1304" x="33.5989" y="608.864" width="14.6589" height="14.6589">
   <properties>
    <property name="building_type" value="empty"/>
    <property name="can_build" type="bool" value="true"/>
    <property name="is_starting_building" type="bool" value="false"/>
   </properties>
  </object>
  <object id="1305" x="33.5373" y="624.843" width="14.6589" height="14.6589">
   <properties>
    <property name="building_type" value="empty"/>
    <property name="can_build" type="bool" value="true"/>
    <property name="is_starting_building" type="bool" value="false"/>
   </properties>
  </object>
  <object id="1306" x="33.7791" y="592.694" width="14.6589" height="14.6589">
   <properties>
    <property name="building_type" value="empty"/>
    <property name="can_build" type="bool" value="true"/>
    <property name="is_starting_building" type="bool" value="false"/>
   </properties>
  </object>
  <object id="1307" x="49.6237" y="609.327" width="14.6589" height="14.6589">
   <properties>
    <property name="building_type" value="empty"/>
    <property name="can_build" type="bool" value="true"/>
    <property name="is_starting_building" type="bool" value="false"/>
   </properties>
  </object>
  <object id="1308" x="49.562" y="625.306" width="14.6589" height="14.6589">
   <properties>
    <property name="building_type" value="empty"/>
    <property name="can_build" type="bool" value="true"/>
    <property name="is_starting_building" type="bool" value="false"/>
   </properties>
  </object>
  <object id="1309" x="65.5741" y="593.49" width="14.6589" height="14.6589">
   <properties>
    <property name="building_type" value="empty"/>
    <property name="can_build" type="bool" value="true"/>
    <property name="is_starting_building" type="bool" value="false"/>
   </properties>
  </object>
  <object id="1310" x="49.8038" y="593.157" width="14.6589" height="14.6589">
   <properties>
    <property name="building_type" value="empty"/>
    <property name="can_build" type="bool" value="true"/>
    <property name="is_starting_building" type="bool" value="false"/>
   </properties>
  </object>
  <object id="1311" x="65.6889" y="609.63" width="14.6589" height="14.6589">
   <properties>
    <property name="building_type" value="empty"/>
    <property name="can_build" type="bool" value="true"/>
    <property name="is_starting_building" type="bool" value="false"/>
   </properties>
  </object>
  <object id="1312" x="65.8767" y="625.398" width="14.6589" height="14.6589">
   <properties>
    <property name="building_type" value="empty"/>
    <property name="can_build" type="bool" value="true"/>
    <property name="is_starting_building" type="bool" value="false"/>
   </properties>
  </object>
  <object id="1313" x="81.5989" y="609.114" width="14.6589" height="14.6589">
   <properties>
    <property name="building_type" value="empty"/>
    <property name="can_build" type="bool" value="true"/>
    <property name="is_starting_building" type="bool" value="false"/>
   </properties>
  </object>
  <object id="1314" x="81.5373" y="625.093" width="14.6589" height="14.6589">
   <properties>
    <property name="building_type" value="empty"/>
    <property name="can_build" type="bool" value="true"/>
    <property name="is_starting_building" type="bool" value="false"/>
   </properties>
  </object>
  <object id="1315" x="81.7791" y="592.944" width="14.6589" height="14.6589">
   <properties>
    <property name="building_type" value="empty"/>
    <property name="can_build" type="bool" value="true"/>
    <property name="is_starting_building" type="bool" value="false"/>
   </properties>
  </object>
  <object id="1317" x="97.2893" y="625.896" width="14.6589" height="14.6589">
   <properties>
    <property name="building_type" value="empty"/>
    <property name="can_build" type="bool" value="true"/>
    <property name="is_starting_building" type="bool" value="false"/>
   </properties>
  </object>
  <object id="1318" x="113.301" y="594.08" width="14.6589" height="14.6589">
   <properties>
    <property name="building_type" value="empty"/>
    <property name="can_build" type="bool" value="true"/>
    <property name="is_starting_building" type="bool" value="false"/>
   </properties>
  </object>
  <object id="1319" x="97.5311" y="593.747" width="14.6589" height="14.6589">
   <properties>
    <property name="building_type" value="empty"/>
    <property name="can_build" type="bool" value="true"/>
    <property name="is_starting_building" type="bool" value="false"/>
   </properties>
  </object>
  <object id="1320" x="113.416" y="610.22" width="14.6589" height="14.6589">
   <properties>
    <property name="building_type" value="empty"/>
    <property name="can_build" type="bool" value="true"/>
    <property name="is_starting_building" type="bool" value="false"/>
   </properties>
  </object>
  <object id="1321" x="113.604" y="625.988" width="14.6589" height="14.6589">
   <properties>
    <property name="building_type" value="empty"/>
    <property name="can_build" type="bool" value="true"/>
    <property name="is_starting_building" type="bool" value="false"/>
   </properties>
  </object>
  <object id="1322" x="129.326" y="609.704" width="14.6589" height="14.6589">
   <properties>
    <property name="building_type" value="empty"/>
    <property name="can_build" type="bool" value="true"/>
    <property name="is_starting_building" type="bool" value="false"/>
   </properties>
  </object>
  <object id="1323" x="129.265" y="625.683" width="14.6589" height="14.6589">
   <properties>
    <property name="building_type" value="empty"/>
    <property name="can_build" type="bool" value="true"/>
    <property name="is_starting_building" type="bool" value="false"/>
   </properties>
  </object>
  <object id="1324" x="129.506" y="593.534" width="14.6589" height="14.6589">
   <properties>
    <property name="building_type" value="empty"/>
    <property name="can_build" type="bool" value="true"/>
    <property name="is_starting_building" type="bool" value="false"/>
   </properties>
  </object>
  <object id="1325" x="144.805" y="609.554" width="14.6589" height="14.6589">
   <properties>
    <property name="building_type" value="empty"/>
    <property name="can_build" type="bool" value="true"/>
    <property name="is_starting_building" type="bool" value="false"/>
   </properties>
  </object>
  <object id="1326" x="144.744" y="625.533" width="14.6589" height="14.6589">
   <properties>
    <property name="building_type" value="empty"/>
    <property name="can_build" type="bool" value="true"/>
    <property name="is_starting_building" type="bool" value="false"/>
   </properties>
  </object>
  <object id="1327" x="160.756" y="593.717" width="14.6589" height="14.6589">
   <properties>
    <property name="building_type" value="empty"/>
    <property name="can_build" type="bool" value="true"/>
    <property name="is_starting_building" type="bool" value="false"/>
   </properties>
  </object>
  <object id="1328" x="144.986" y="593.384" width="14.6589" height="14.6589">
   <properties>
    <property name="building_type" value="empty"/>
    <property name="can_build" type="bool" value="true"/>
    <property name="is_starting_building" type="bool" value="false"/>
   </properties>
  </object>
  <object id="1329" x="160.871" y="609.857" width="14.6589" height="14.6589">
   <properties>
    <property name="building_type" value="empty"/>
    <property name="can_build" type="bool" value="true"/>
    <property name="is_starting_building" type="bool" value="false"/>
   </properties>
  </object>
  <object id="1330" x="161.059" y="625.625" width="14.6589" height="14.6589">
   <properties>
    <property name="building_type" value="empty"/>
    <property name="can_build" type="bool" value="true"/>
    <property name="is_starting_building" type="bool" value="false"/>
   </properties>
  </object>
  <object id="1331" x="176.781" y="609.341" width="14.6589" height="14.6589">
   <properties>
    <property name="building_type" value="empty"/>
    <property name="can_build" type="bool" value="true"/>
    <property name="is_starting_building" type="bool" value="false"/>
   </properties>
  </object>
  <object id="1332" x="176.719" y="625.32" width="14.6589" height="14.6589">
   <properties>
    <property name="building_type" value="empty"/>
    <property name="can_build" type="bool" value="true"/>
    <property name="is_starting_building" type="bool" value="false"/>
   </properties>
  </object>
  <object id="1333" x="176.961" y="593.171" width="14.6589" height="14.6589">
   <properties>
    <property name="building_type" value="empty"/>
    <property name="can_build" type="bool" value="true"/>
    <property name="is_starting_building" type="bool" value="false"/>
   </properties>
  </object>
  <object id="1334" x="192.26" y="609.008" width="14.6589" height="14.6589">
   <properties>
    <property name="building_type" value="empty"/>
    <property name="can_build" type="bool" value="true"/>
    <property name="is_starting_building" type="bool" value="false"/>
   </properties>
  </object>
  <object id="1335" x="192.198" y="624.987" width="14.6589" height="14.6589">
   <properties>
    <property name="building_type" value="empty"/>
    <property name="can_build" type="bool" value="true"/>
    <property name="is_starting_building" type="bool" value="false"/>
   </properties>
  </object>
  <object id="1336" x="208.21" y="593.171" width="14.6589" height="14.6589">
   <properties>
    <property name="building_type" value="empty"/>
    <property name="can_build" type="bool" value="true"/>
    <property name="is_starting_building" type="bool" value="false"/>
   </properties>
  </object>
  <object id="1337" x="192.44" y="592.838" width="14.6589" height="14.6589">
   <properties>
    <property name="building_type" value="empty"/>
    <property name="can_build" type="bool" value="true"/>
    <property name="is_starting_building" type="bool" value="false"/>
   </properties>
  </object>
  <object id="1338" x="208.325" y="609.311" width="14.6589" height="14.6589">
   <properties>
    <property name="building_type" value="empty"/>
    <property name="can_build" type="bool" value="true"/>
    <property name="is_starting_building" type="bool" value="false"/>
   </properties>
  </object>
  <object id="1339" x="208.513" y="625.079" width="14.6589" height="14.6589">
   <properties>
    <property name="building_type" value="empty"/>
    <property name="can_build" type="bool" value="true"/>
    <property name="is_starting_building" type="bool" value="false"/>
   </properties>
  </object>
  <object id="1340" x="224.235" y="608.795" width="14.6589" height="14.6589">
   <properties>
    <property name="building_type" value="empty"/>
    <property name="can_build" type="bool" value="true"/>
    <property name="is_starting_building" type="bool" value="false"/>
   </properties>
  </object>
  <object id="1341" x="224.174" y="624.774" width="14.6589" height="14.6589">
   <properties>
    <property name="building_type" value="empty"/>
    <property name="can_build" type="bool" value="true"/>
    <property name="is_starting_building" type="bool" value="false"/>
   </properties>
  </object>
  <object id="1376" x="288.052" y="625.168" width="14.6589" height="14.6589">
   <properties>
    <property name="building_type" value="empty"/>
    <property name="can_build" type="bool" value="true"/>
    <property name="is_starting_building" type="bool" value="false"/>
   </properties>
  </object>
  <object id="1342" x="224.415" y="592.625" width="14.6589" height="14.6589">
   <properties>
    <property name="building_type" value="empty"/>
    <property name="can_build" type="bool" value="true"/>
    <property name="is_starting_building" type="bool" value="false"/>
   </properties>
  </object>
  <object id="1343" x="240.442" y="609.008" width="14.6589" height="14.6589">
   <properties>
    <property name="building_type" value="empty"/>
    <property name="can_build" type="bool" value="true"/>
    <property name="is_starting_building" type="bool" value="false"/>
   </properties>
  </object>
  <object id="1344" x="240.38" y="624.987" width="14.6589" height="14.6589">
   <properties>
    <property name="building_type" value="empty"/>
    <property name="can_build" type="bool" value="true"/>
    <property name="is_starting_building" type="bool" value="false"/>
   </properties>
  </object>
  <object id="1374" x="304.259" y="625.381" width="14.6589" height="14.6589">
   <properties>
    <property name="building_type" value="empty"/>
    <property name="can_build" type="bool" value="true"/>
    <property name="is_starting_building" type="bool" value="false"/>
   </properties>
  </object>
  <object id="1345" x="256.392" y="593.171" width="14.6589" height="14.6589">
   <properties>
    <property name="building_type" value="empty"/>
    <property name="can_build" type="bool" value="true"/>
    <property name="is_starting_building" type="bool" value="false"/>
   </properties>
  </object>
  <object id="1346" x="240.622" y="592.838" width="14.6589" height="14.6589">
   <properties>
    <property name="building_type" value="empty"/>
    <property name="can_build" type="bool" value="true"/>
    <property name="is_starting_building" type="bool" value="false"/>
   </properties>
  </object>
  <object id="1347" x="256.507" y="609.311" width="14.6589" height="14.6589">
   <properties>
    <property name="building_type" value="empty"/>
    <property name="can_build" type="bool" value="true"/>
    <property name="is_starting_building" type="bool" value="false"/>
   </properties>
  </object>
  <object id="1348" x="256.695" y="625.079" width="14.6589" height="14.6589">
   <properties>
    <property name="building_type" value="empty"/>
    <property name="can_build" type="bool" value="true"/>
    <property name="is_starting_building" type="bool" value="false"/>
   </properties>
  </object>
  <object id="1373" x="320.574" y="625.473" width="14.6589" height="14.6589">
   <properties>
    <property name="building_type" value="empty"/>
    <property name="can_build" type="bool" value="true"/>
    <property name="is_starting_building" type="bool" value="false"/>
   </properties>
  </object>
  <object id="1349" x="272.417" y="608.795" width="14.6589" height="14.6589">
   <properties>
    <property name="building_type" value="empty"/>
    <property name="can_build" type="bool" value="true"/>
    <property name="is_starting_building" type="bool" value="false"/>
   </properties>
  </object>
  <object id="1350" x="272.355" y="624.774" width="14.6589" height="14.6589">
   <properties>
    <property name="building_type" value="empty"/>
    <property name="can_build" type="bool" value="true"/>
    <property name="is_starting_building" type="bool" value="false"/>
   </properties>
  </object>
  <object id="1375" x="336.234" y="625.168" width="14.6589" height="14.6589">
   <properties>
    <property name="building_type" value="empty"/>
    <property name="can_build" type="bool" value="true"/>
    <property name="is_starting_building" type="bool" value="false"/>
   </properties>
  </object>
  <object id="1351" x="272.597" y="592.625" width="14.6589" height="14.6589">
   <properties>
    <property name="building_type" value="empty"/>
    <property name="can_build" type="bool" value="true"/>
    <property name="is_starting_building" type="bool" value="false"/>
   </properties>
  </object>
  <object id="1352" x="367.957" y="610.16" width="14.6589" height="14.6589">
   <properties>
    <property name="building_type" value="empty"/>
    <property name="can_build" type="bool" value="true"/>
    <property name="is_starting_building" type="bool" value="false"/>
   </properties>
  </object>
  <object id="1362" x="352.169" y="609.524" width="14.6589" height="14.6589">
   <properties>
    <property name="building_type" value="empty"/>
    <property name="can_build" type="bool" value="true"/>
    <property name="is_starting_building" type="bool" value="false"/>
   </properties>
  </object>
  <object id="1353" x="367.895" y="626.139" width="14.6589" height="14.6589">
   <properties>
    <property name="building_type" value="empty"/>
    <property name="can_build" type="bool" value="true"/>
    <property name="is_starting_building" type="bool" value="false"/>
   </properties>
  </object>
  <object id="1361" x="352.107" y="625.503" width="14.6589" height="14.6589">
   <properties>
    <property name="building_type" value="empty"/>
    <property name="can_build" type="bool" value="true"/>
    <property name="is_starting_building" type="bool" value="false"/>
   </properties>
  </object>
  <object id="1354" x="383.907" y="594.323" width="14.6589" height="14.6589">
   <properties>
    <property name="building_type" value="empty"/>
    <property name="can_build" type="bool" value="true"/>
    <property name="is_starting_building" type="bool" value="false"/>
   </properties>
  </object>
  <object id="1355" x="368.137" y="593.99" width="14.6589" height="14.6589">
   <properties>
    <property name="building_type" value="empty"/>
    <property name="can_build" type="bool" value="true"/>
    <property name="is_starting_building" type="bool" value="false"/>
   </properties>
  </object>
  <object id="1363" x="352.349" y="593.354" width="14.6589" height="14.6589">
   <properties>
    <property name="building_type" value="empty"/>
    <property name="can_build" type="bool" value="true"/>
    <property name="is_starting_building" type="bool" value="false"/>
   </properties>
  </object>
  <object id="1356" x="384.022" y="610.463" width="14.6589" height="14.6589">
   <properties>
    <property name="building_type" value="empty"/>
    <property name="can_build" type="bool" value="true"/>
    <property name="is_starting_building" type="bool" value="false"/>
   </properties>
  </object>
  <object id="1357" x="384.21" y="626.231" width="14.6589" height="14.6589">
   <properties>
    <property name="building_type" value="empty"/>
    <property name="can_build" type="bool" value="true"/>
    <property name="is_starting_building" type="bool" value="false"/>
   </properties>
  </object>
  <object id="1358" x="399.932" y="609.947" width="14.6589" height="14.6589">
   <properties>
    <property name="building_type" value="empty"/>
    <property name="can_build" type="bool" value="true"/>
    <property name="is_starting_building" type="bool" value="false"/>
   </properties>
  </object>
  <object id="1359" x="399.871" y="625.926" width="14.6589" height="14.6589">
   <properties>
    <property name="building_type" value="empty"/>
    <property name="can_build" type="bool" value="true"/>
    <property name="is_starting_building" type="bool" value="false"/>
   </properties>
  </object>
  <object id="1360" x="400.112" y="593.777" width="14.6589" height="14.6589">
   <properties>
    <property name="building_type" value="empty"/>
    <property name="can_build" type="bool" value="true"/>
    <property name="is_starting_building" type="bool" value="false"/>
   </properties>
  </object>
  <object id="1377" x="368.26" y="657.008" width="14.6589" height="14.6589">
   <properties>
    <property name="building_type" value="empty"/>
    <property name="can_build" type="bool" value="true"/>
    <property name="is_starting_building" type="bool" value="false"/>
   </properties>
  </object>
  <object id="1378" x="368.198" y="672.987" width="14.6589" height="14.6589">
   <properties>
    <property name="building_type" value="empty"/>
    <property name="can_build" type="bool" value="true"/>
    <property name="is_starting_building" type="bool" value="false"/>
   </properties>
  </object>
  <object id="1379" x="384.21" y="641.171" width="14.6589" height="14.6589">
   <properties>
    <property name="building_type" value="empty"/>
    <property name="can_build" type="bool" value="true"/>
    <property name="is_starting_building" type="bool" value="false"/>
   </properties>
  </object>
  <object id="1380" x="368.44" y="640.838" width="14.6589" height="14.6589">
   <properties>
    <property name="building_type" value="empty"/>
    <property name="can_build" type="bool" value="true"/>
    <property name="is_starting_building" type="bool" value="false"/>
   </properties>
  </object>
  <object id="1381" x="384.325" y="657.311" width="14.6589" height="14.6589">
   <properties>
    <property name="building_type" value="empty"/>
    <property name="can_build" type="bool" value="true"/>
    <property name="is_starting_building" type="bool" value="false"/>
   </properties>
  </object>
  <object id="1382" x="384.513" y="673.079" width="14.6589" height="14.6589">
   <properties>
    <property name="building_type" value="empty"/>
    <property name="can_build" type="bool" value="true"/>
    <property name="is_starting_building" type="bool" value="false"/>
   </properties>
  </object>
  <object id="1383" x="400.235" y="656.795" width="14.6589" height="14.6589">
   <properties>
    <property name="building_type" value="empty"/>
    <property name="can_build" type="bool" value="true"/>
    <property name="is_starting_building" type="bool" value="false"/>
   </properties>
  </object>
  <object id="1384" x="400.174" y="672.774" width="14.6589" height="14.6589">
   <properties>
    <property name="building_type" value="empty"/>
    <property name="can_build" type="bool" value="true"/>
    <property name="is_starting_building" type="bool" value="false"/>
   </properties>
  </object>
  <object id="1385" x="400.415" y="640.625" width="14.6589" height="14.6589">
   <properties>
    <property name="building_type" value="empty"/>
    <property name="can_build" type="bool" value="true"/>
    <property name="is_starting_building" type="bool" value="false"/>
   </properties>
  </object>
  <object id="1386" x="368.749" y="705.452" width="14.6589" height="14.6589">
   <properties>
    <property name="building_type" value="empty"/>
    <property name="can_build" type="bool" value="true"/>
    <property name="is_starting_building" type="bool" value="false"/>
   </properties>
  </object>
  <object id="1540" x="320.187" y="640.431" width="14.6589" height="14.6589">
   <properties>
    <property name="building_type" value="empty"/>
    <property name="can_build" type="bool" value="true"/>
    <property name="is_starting_building" type="bool" value="false"/>
   </properties>
  </object>
  <object id="1388" x="384.699" y="689.615" width="14.6589" height="14.6589">
   <properties>
    <property name="building_type" value="empty"/>
    <property name="can_build" type="bool" value="true"/>
    <property name="is_starting_building" type="bool" value="false"/>
   </properties>
  </object>
  <object id="1389" x="368.929" y="689.282" width="14.6589" height="14.6589">
   <properties>
    <property name="building_type" value="empty"/>
    <property name="can_build" type="bool" value="true"/>
    <property name="is_starting_building" type="bool" value="false"/>
   </properties>
  </object>
  <object id="1390" x="384.814" y="705.755" width="14.6589" height="14.6589">
   <properties>
    <property name="building_type" value="empty"/>
    <property name="can_build" type="bool" value="true"/>
    <property name="is_starting_building" type="bool" value="false"/>
   </properties>
  </object>
  <object id="1391" x="385.002" y="721.523" width="14.6589" height="14.6589">
   <properties>
    <property name="building_type" value="empty"/>
    <property name="can_build" type="bool" value="true"/>
    <property name="is_starting_building" type="bool" value="false"/>
   </properties>
  </object>
  <object id="1539" x="336.502" y="640.523" width="14.6589" height="14.6589">
   <properties>
    <property name="building_type" value="empty"/>
    <property name="can_build" type="bool" value="true"/>
    <property name="is_starting_building" type="bool" value="false"/>
   </properties>
  </object>
  <object id="1392" x="400.724" y="705.239" width="14.6589" height="14.6589">
   <properties>
    <property name="building_type" value="empty"/>
    <property name="can_build" type="bool" value="true"/>
    <property name="is_starting_building" type="bool" value="false"/>
   </properties>
  </object>
  <object id="1544" x="353.474" y="656.739" width="14.6589" height="14.6589">
   <properties>
    <property name="building_type" value="empty"/>
    <property name="can_build" type="bool" value="true"/>
    <property name="is_starting_building" type="bool" value="false"/>
   </properties>
  </object>
  <object id="1393" x="400.662" y="721.218" width="14.6589" height="14.6589">
   <properties>
    <property name="building_type" value="empty"/>
    <property name="can_build" type="bool" value="true"/>
    <property name="is_starting_building" type="bool" value="false"/>
   </properties>
  </object>
  <object id="1543" x="353.412" y="672.718" width="14.6589" height="14.6589">
   <properties>
    <property name="building_type" value="empty"/>
    <property name="can_build" type="bool" value="true"/>
    <property name="is_starting_building" type="bool" value="false"/>
   </properties>
  </object>
  <object id="1541" x="352.162" y="640.218" width="14.6589" height="14.6589">
   <properties>
    <property name="building_type" value="empty"/>
    <property name="can_build" type="bool" value="true"/>
    <property name="is_starting_building" type="bool" value="false"/>
   </properties>
  </object>
  <object id="1394" x="400.904" y="689.069" width="14.6589" height="14.6589">
   <properties>
    <property name="building_type" value="empty"/>
    <property name="can_build" type="bool" value="true"/>
    <property name="is_starting_building" type="bool" value="false"/>
   </properties>
  </object>
  <object id="1395" x="321.374" y="705.202" width="14.6589" height="14.6589">
   <properties>
    <property name="building_type" value="empty"/>
    <property name="can_build" type="bool" value="true"/>
    <property name="is_starting_building" type="bool" value="false"/>
   </properties>
  </object>
  <object id="1396" x="321.312" y="721.181" width="14.6589" height="14.6589">
   <properties>
    <property name="building_type" value="empty"/>
    <property name="can_build" type="bool" value="true"/>
    <property name="is_starting_building" type="bool" value="false"/>
   </properties>
  </object>
  <object id="1397" x="337.324" y="689.365" width="14.6589" height="14.6589">
   <properties>
    <property name="building_type" value="empty"/>
    <property name="can_build" type="bool" value="true"/>
    <property name="is_starting_building" type="bool" value="false"/>
   </properties>
  </object>
  <object id="1398" x="321.554" y="689.032" width="14.6589" height="14.6589">
   <properties>
    <property name="building_type" value="empty"/>
    <property name="can_build" type="bool" value="true"/>
    <property name="is_starting_building" type="bool" value="false"/>
   </properties>
  </object>
  <object id="1399" x="337.439" y="705.505" width="14.6589" height="14.6589">
   <properties>
    <property name="building_type" value="empty"/>
    <property name="can_build" type="bool" value="true"/>
    <property name="is_starting_building" type="bool" value="false"/>
   </properties>
  </object>
  <object id="1400" x="337.627" y="721.273" width="14.6589" height="14.6589">
   <properties>
    <property name="building_type" value="empty"/>
    <property name="can_build" type="bool" value="true"/>
    <property name="is_starting_building" type="bool" value="false"/>
   </properties>
  </object>
  <object id="1401" x="353.349" y="704.989" width="14.6589" height="14.6589">
   <properties>
    <property name="building_type" value="empty"/>
    <property name="can_build" type="bool" value="true"/>
    <property name="is_starting_building" type="bool" value="false"/>
   </properties>
  </object>
  <object id="1402" x="353.287" y="720.968" width="14.6589" height="14.6589">
   <properties>
    <property name="building_type" value="empty"/>
    <property name="can_build" type="bool" value="true"/>
    <property name="is_starting_building" type="bool" value="false"/>
   </properties>
  </object>
  <object id="1542" x="304.787" y="639.968" width="14.6589" height="14.6589">
   <properties>
    <property name="building_type" value="empty"/>
    <property name="can_build" type="bool" value="true"/>
    <property name="is_starting_building" type="bool" value="false"/>
   </properties>
  </object>
  <object id="1403" x="353.529" y="688.819" width="14.6589" height="14.6589">
   <properties>
    <property name="building_type" value="empty"/>
    <property name="can_build" type="bool" value="true"/>
    <property name="is_starting_building" type="bool" value="false"/>
   </properties>
  </object>
  <object id="1404" x="272.749" y="704.827" width="14.6589" height="14.6589">
   <properties>
    <property name="building_type" value="empty"/>
    <property name="can_build" type="bool" value="true"/>
    <property name="is_starting_building" type="bool" value="false"/>
   </properties>
  </object>
  <object id="1405" x="272.687" y="720.806" width="14.6589" height="14.6589">
   <properties>
    <property name="building_type" value="empty"/>
    <property name="can_build" type="bool" value="true"/>
    <property name="is_starting_building" type="bool" value="false"/>
   </properties>
  </object>
  <object id="1406" x="288.699" y="688.99" width="14.6589" height="14.6589">
   <properties>
    <property name="building_type" value="empty"/>
    <property name="can_build" type="bool" value="true"/>
    <property name="is_starting_building" type="bool" value="false"/>
   </properties>
  </object>
  <object id="1407" x="272.929" y="688.657" width="14.6589" height="14.6589">
   <properties>
    <property name="building_type" value="empty"/>
    <property name="can_build" type="bool" value="true"/>
    <property name="is_starting_building" type="bool" value="false"/>
   </properties>
  </object>
  <object id="1408" x="288.814" y="705.13" width="14.6589" height="14.6589">
   <properties>
    <property name="building_type" value="empty"/>
    <property name="can_build" type="bool" value="true"/>
    <property name="is_starting_building" type="bool" value="false"/>
   </properties>
  </object>
  <object id="1409" x="289.002" y="720.898" width="14.6589" height="14.6589">
   <properties>
    <property name="building_type" value="empty"/>
    <property name="can_build" type="bool" value="true"/>
    <property name="is_starting_building" type="bool" value="false"/>
   </properties>
  </object>
  <object id="1410" x="304.724" y="704.614" width="14.6589" height="14.6589">
   <properties>
    <property name="building_type" value="empty"/>
    <property name="can_build" type="bool" value="true"/>
    <property name="is_starting_building" type="bool" value="false"/>
   </properties>
  </object>
  <object id="1411" x="304.662" y="720.593" width="14.6589" height="14.6589">
   <properties>
    <property name="building_type" value="empty"/>
    <property name="can_build" type="bool" value="true"/>
    <property name="is_starting_building" type="bool" value="false"/>
   </properties>
  </object>
  <object id="1412" x="304.904" y="688.444" width="14.6589" height="14.6589">
   <properties>
    <property name="building_type" value="empty"/>
    <property name="can_build" type="bool" value="true"/>
    <property name="is_starting_building" type="bool" value="false"/>
   </properties>
  </object>
  <object id="1413" x="256.624" y="656.827" width="14.6589" height="14.6589">
   <properties>
    <property name="building_type" value="empty"/>
    <property name="can_build" type="bool" value="true"/>
    <property name="is_starting_building" type="bool" value="false"/>
   </properties>
  </object>
  <object id="1414" x="256.562" y="672.806" width="14.6589" height="14.6589">
   <properties>
    <property name="building_type" value="empty"/>
    <property name="can_build" type="bool" value="true"/>
    <property name="is_starting_building" type="bool" value="false"/>
   </properties>
  </object>
  <object id="1415" x="272.574" y="640.99" width="14.6589" height="14.6589">
   <properties>
    <property name="building_type" value="empty"/>
    <property name="can_build" type="bool" value="true"/>
    <property name="is_starting_building" type="bool" value="false"/>
   </properties>
  </object>
  <object id="1416" x="256.804" y="640.657" width="14.6589" height="14.6589">
   <properties>
    <property name="building_type" value="empty"/>
    <property name="can_build" type="bool" value="true"/>
    <property name="is_starting_building" type="bool" value="false"/>
   </properties>
  </object>
  <object id="1417" x="272.689" y="657.13" width="14.6589" height="14.6589">
   <properties>
    <property name="building_type" value="empty"/>
    <property name="can_build" type="bool" value="true"/>
    <property name="is_starting_building" type="bool" value="false"/>
   </properties>
  </object>
  <object id="1418" x="272.877" y="672.898" width="14.6589" height="14.6589">
   <properties>
    <property name="building_type" value="empty"/>
    <property name="can_build" type="bool" value="true"/>
    <property name="is_starting_building" type="bool" value="false"/>
   </properties>
  </object>
  <object id="1419" x="288.599" y="656.614" width="14.6589" height="14.6589">
   <properties>
    <property name="building_type" value="empty"/>
    <property name="can_build" type="bool" value="true"/>
    <property name="is_starting_building" type="bool" value="false"/>
   </properties>
  </object>
  <object id="1420" x="288.537" y="672.593" width="14.6589" height="14.6589">
   <properties>
    <property name="building_type" value="empty"/>
    <property name="can_build" type="bool" value="true"/>
    <property name="is_starting_building" type="bool" value="false"/>
   </properties>
  </object>
  <object id="1421" x="288.779" y="640.444" width="14.6589" height="14.6589">
   <properties>
    <property name="building_type" value="empty"/>
    <property name="can_build" type="bool" value="true"/>
    <property name="is_starting_building" type="bool" value="false"/>
   </properties>
  </object>
  <object id="1422" x="207.896" y="657.372" width="14.6589" height="14.6589">
   <properties>
    <property name="building_type" value="empty"/>
    <property name="can_build" type="bool" value="true"/>
    <property name="is_starting_building" type="bool" value="false"/>
   </properties>
  </object>
  <object id="1423" x="207.835" y="673.351" width="14.6589" height="14.6589">
   <properties>
    <property name="building_type" value="empty"/>
    <property name="can_build" type="bool" value="true"/>
    <property name="is_starting_building" type="bool" value="false"/>
   </properties>
  </object>
  <object id="1424" x="223.847" y="641.535" width="14.6589" height="14.6589">
   <properties>
    <property name="building_type" value="empty"/>
    <property name="can_build" type="bool" value="true"/>
    <property name="is_starting_building" type="bool" value="false"/>
   </properties>
  </object>
  <object id="1425" x="208.077" y="641.202" width="14.6589" height="14.6589">
   <properties>
    <property name="building_type" value="empty"/>
    <property name="can_build" type="bool" value="true"/>
    <property name="is_starting_building" type="bool" value="false"/>
   </properties>
  </object>
  <object id="1426" x="223.962" y="657.675" width="14.6589" height="14.6589">
   <properties>
    <property name="building_type" value="empty"/>
    <property name="can_build" type="bool" value="true"/>
    <property name="is_starting_building" type="bool" value="false"/>
   </properties>
  </object>
  <object id="1427" x="224.149" y="673.443" width="14.6589" height="14.6589">
   <properties>
    <property name="building_type" value="empty"/>
    <property name="can_build" type="bool" value="true"/>
    <property name="is_starting_building" type="bool" value="false"/>
   </properties>
  </object>
  <object id="1428" x="239.872" y="657.159" width="14.6589" height="14.6589">
   <properties>
    <property name="building_type" value="empty"/>
    <property name="can_build" type="bool" value="true"/>
    <property name="is_starting_building" type="bool" value="false"/>
   </properties>
  </object>
  <object id="1429" x="239.81" y="673.138" width="14.6589" height="14.6589">
   <properties>
    <property name="building_type" value="empty"/>
    <property name="can_build" type="bool" value="true"/>
    <property name="is_starting_building" type="bool" value="false"/>
   </properties>
  </object>
  <object id="1430" x="240.052" y="640.989" width="14.6589" height="14.6589">
   <properties>
    <property name="building_type" value="empty"/>
    <property name="can_build" type="bool" value="true"/>
    <property name="is_starting_building" type="bool" value="false"/>
   </properties>
  </object>
  <object id="1431" x="224.624" y="704.827" width="14.6589" height="14.6589">
   <properties>
    <property name="building_type" value="empty"/>
    <property name="can_build" type="bool" value="true"/>
    <property name="is_starting_building" type="bool" value="false"/>
   </properties>
  </object>
  <object id="1432" x="224.562" y="720.806" width="14.6589" height="14.6589">
   <properties>
    <property name="building_type" value="empty"/>
    <property name="can_build" type="bool" value="true"/>
    <property name="is_starting_building" type="bool" value="false"/>
   </properties>
  </object>
  <object id="1433" x="240.574" y="688.99" width="14.6589" height="14.6589">
   <properties>
    <property name="building_type" value="empty"/>
    <property name="can_build" type="bool" value="true"/>
    <property name="is_starting_building" type="bool" value="false"/>
   </properties>
  </object>
  <object id="1434" x="224.804" y="688.657" width="14.6589" height="14.6589">
   <properties>
    <property name="building_type" value="empty"/>
    <property name="can_build" type="bool" value="true"/>
    <property name="is_starting_building" type="bool" value="false"/>
   </properties>
  </object>
  <object id="1435" x="240.689" y="705.13" width="14.6589" height="14.6589">
   <properties>
    <property name="building_type" value="empty"/>
    <property name="can_build" type="bool" value="true"/>
    <property name="is_starting_building" type="bool" value="false"/>
   </properties>
  </object>
  <object id="1436" x="240.877" y="720.898" width="14.6589" height="14.6589">
   <properties>
    <property name="building_type" value="empty"/>
    <property name="can_build" type="bool" value="true"/>
    <property name="is_starting_building" type="bool" value="false"/>
   </properties>
  </object>
  <object id="1437" x="256.599" y="704.614" width="14.6589" height="14.6589">
   <properties>
    <property name="building_type" value="empty"/>
    <property name="can_build" type="bool" value="true"/>
    <property name="is_starting_building" type="bool" value="false"/>
   </properties>
  </object>
  <object id="1438" x="256.537" y="720.593" width="14.6589" height="14.6589">
   <properties>
    <property name="building_type" value="empty"/>
    <property name="can_build" type="bool" value="true"/>
    <property name="is_starting_building" type="bool" value="false"/>
   </properties>
  </object>
  <object id="1439" x="256.779" y="688.444" width="14.6589" height="14.6589">
   <properties>
    <property name="building_type" value="empty"/>
    <property name="can_build" type="bool" value="true"/>
    <property name="is_starting_building" type="bool" value="false"/>
   </properties>
  </object>
  <object id="1440" x="176.442" y="705.19" width="14.6589" height="14.6589">
   <properties>
    <property name="building_type" value="empty"/>
    <property name="can_build" type="bool" value="true"/>
    <property name="is_starting_building" type="bool" value="false"/>
   </properties>
  </object>
  <object id="1441" x="176.38" y="721.169" width="14.6589" height="14.6589">
   <properties>
    <property name="building_type" value="empty"/>
    <property name="can_build" type="bool" value="true"/>
    <property name="is_starting_building" type="bool" value="false"/>
   </properties>
  </object>
  <object id="1442" x="192.392" y="689.353" width="14.6589" height="14.6589">
   <properties>
    <property name="building_type" value="empty"/>
    <property name="can_build" type="bool" value="true"/>
    <property name="is_starting_building" type="bool" value="false"/>
   </properties>
  </object>
  <object id="1443" x="176.622" y="689.02" width="14.6589" height="14.6589">
   <properties>
    <property name="building_type" value="empty"/>
    <property name="can_build" type="bool" value="true"/>
    <property name="is_starting_building" type="bool" value="false"/>
   </properties>
  </object>
  <object id="1444" x="192.507" y="705.493" width="14.6589" height="14.6589">
   <properties>
    <property name="building_type" value="empty"/>
    <property name="can_build" type="bool" value="true"/>
    <property name="is_starting_building" type="bool" value="false"/>
   </properties>
  </object>
  <object id="1445" x="192.695" y="721.261" width="14.6589" height="14.6589">
   <properties>
    <property name="building_type" value="empty"/>
    <property name="can_build" type="bool" value="true"/>
    <property name="is_starting_building" type="bool" value="false"/>
   </properties>
  </object>
  <object id="1446" x="208.417" y="704.977" width="14.6589" height="14.6589">
   <properties>
    <property name="building_type" value="empty"/>
    <property name="can_build" type="bool" value="true"/>
    <property name="is_starting_building" type="bool" value="false"/>
   </properties>
  </object>
  <object id="1447" x="208.355" y="720.956" width="14.6589" height="14.6589">
   <properties>
    <property name="building_type" value="empty"/>
    <property name="can_build" type="bool" value="true"/>
    <property name="is_starting_building" type="bool" value="false"/>
   </properties>
  </object>
  <object id="1448" x="208.597" y="688.807" width="14.6589" height="14.6589">
   <properties>
    <property name="building_type" value="empty"/>
    <property name="can_build" type="bool" value="true"/>
    <property name="is_starting_building" type="bool" value="false"/>
   </properties>
  </object>
  <object id="1449" x="159.715" y="657.554" width="14.6589" height="14.6589">
   <properties>
    <property name="building_type" value="empty"/>
    <property name="can_build" type="bool" value="true"/>
    <property name="is_starting_building" type="bool" value="false"/>
   </properties>
  </object>
  <object id="1450" x="159.653" y="673.533" width="14.6589" height="14.6589">
   <properties>
    <property name="building_type" value="empty"/>
    <property name="can_build" type="bool" value="true"/>
    <property name="is_starting_building" type="bool" value="false"/>
   </properties>
  </object>
  <object id="1451" x="175.665" y="641.717" width="14.6589" height="14.6589">
   <properties>
    <property name="building_type" value="empty"/>
    <property name="can_build" type="bool" value="true"/>
    <property name="is_starting_building" type="bool" value="false"/>
   </properties>
  </object>
  <object id="1452" x="159.895" y="641.384" width="14.6589" height="14.6589">
   <properties>
    <property name="building_type" value="empty"/>
    <property name="can_build" type="bool" value="true"/>
    <property name="is_starting_building" type="bool" value="false"/>
   </properties>
  </object>
  <object id="1453" x="175.78" y="657.857" width="14.6589" height="14.6589">
   <properties>
    <property name="building_type" value="empty"/>
    <property name="can_build" type="bool" value="true"/>
    <property name="is_starting_building" type="bool" value="false"/>
   </properties>
  </object>
  <object id="1454" x="175.968" y="673.625" width="14.6589" height="14.6589">
   <properties>
    <property name="building_type" value="empty"/>
    <property name="can_build" type="bool" value="true"/>
    <property name="is_starting_building" type="bool" value="false"/>
   </properties>
  </object>
  <object id="1455" x="191.69" y="657.341" width="14.6589" height="14.6589">
   <properties>
    <property name="building_type" value="empty"/>
    <property name="can_build" type="bool" value="true"/>
    <property name="is_starting_building" type="bool" value="false"/>
   </properties>
  </object>
  <object id="1457" x="191.87" y="641.171" width="14.6589" height="14.6589">
   <properties>
    <property name="building_type" value="empty"/>
    <property name="can_build" type="bool" value="true"/>
    <property name="is_starting_building" type="bool" value="false"/>
   </properties>
  </object>
  <object id="1458" x="112.124" y="657.077" width="14.6589" height="14.6589">
   <properties>
    <property name="building_type" value="empty"/>
    <property name="can_build" type="bool" value="true"/>
    <property name="is_starting_building" type="bool" value="false"/>
   </properties>
  </object>
  <object id="1459" x="112.062" y="673.056" width="14.6589" height="14.6589">
   <properties>
    <property name="building_type" value="empty"/>
    <property name="can_build" type="bool" value="true"/>
    <property name="is_starting_building" type="bool" value="false"/>
   </properties>
  </object>
  <object id="1460" x="128.074" y="641.24" width="14.6589" height="14.6589">
   <properties>
    <property name="building_type" value="empty"/>
    <property name="can_build" type="bool" value="true"/>
    <property name="is_starting_building" type="bool" value="false"/>
   </properties>
  </object>
  <object id="1461" x="112.304" y="640.907" width="14.6589" height="14.6589">
   <properties>
    <property name="building_type" value="empty"/>
    <property name="can_build" type="bool" value="true"/>
    <property name="is_starting_building" type="bool" value="false"/>
   </properties>
  </object>
  <object id="1462" x="128.189" y="657.38" width="14.6589" height="14.6589">
   <properties>
    <property name="building_type" value="empty"/>
    <property name="can_build" type="bool" value="true"/>
    <property name="is_starting_building" type="bool" value="false"/>
   </properties>
  </object>
  <object id="1463" x="128.377" y="673.148" width="14.6589" height="14.6589">
   <properties>
    <property name="building_type" value="empty"/>
    <property name="can_build" type="bool" value="true"/>
    <property name="is_starting_building" type="bool" value="false"/>
   </properties>
  </object>
  <object id="1464" x="144.099" y="656.864" width="14.6589" height="14.6589">
   <properties>
    <property name="building_type" value="empty"/>
    <property name="can_build" type="bool" value="true"/>
    <property name="is_starting_building" type="bool" value="false"/>
   </properties>
  </object>
  <object id="1465" x="144.037" y="672.843" width="14.6589" height="14.6589">
   <properties>
    <property name="building_type" value="empty"/>
    <property name="can_build" type="bool" value="true"/>
    <property name="is_starting_building" type="bool" value="false"/>
   </properties>
  </object>
  <object id="1466" x="144.279" y="640.694" width="14.6589" height="14.6589">
   <properties>
    <property name="building_type" value="empty"/>
    <property name="can_build" type="bool" value="true"/>
    <property name="is_starting_building" type="bool" value="false"/>
   </properties>
  </object>
  <object id="1467" x="127.874" y="705.077" width="14.6589" height="14.6589">
   <properties>
    <property name="building_type" value="empty"/>
    <property name="can_build" type="bool" value="true"/>
    <property name="is_starting_building" type="bool" value="false"/>
   </properties>
  </object>
  <object id="1468" x="127.812" y="721.056" width="14.6589" height="14.6589">
   <properties>
    <property name="building_type" value="empty"/>
    <property name="can_build" type="bool" value="true"/>
    <property name="is_starting_building" type="bool" value="false"/>
   </properties>
  </object>
  <object id="1469" x="143.824" y="689.24" width="14.6589" height="14.6589">
   <properties>
    <property name="building_type" value="empty"/>
    <property name="can_build" type="bool" value="true"/>
    <property name="is_starting_building" type="bool" value="false"/>
   </properties>
  </object>
  <object id="1470" x="128.054" y="688.907" width="14.6589" height="14.6589">
   <properties>
    <property name="building_type" value="empty"/>
    <property name="can_build" type="bool" value="true"/>
    <property name="is_starting_building" type="bool" value="false"/>
   </properties>
  </object>
  <object id="1472" x="144.127" y="721.148" width="14.6589" height="14.6589">
   <properties>
    <property name="building_type" value="empty"/>
    <property name="can_build" type="bool" value="true"/>
    <property name="is_starting_building" type="bool" value="false"/>
   </properties>
  </object>
  <object id="1473" x="159.849" y="704.864" width="14.6589" height="14.6589">
   <properties>
    <property name="building_type" value="empty"/>
    <property name="can_build" type="bool" value="true"/>
    <property name="is_starting_building" type="bool" value="false"/>
   </properties>
  </object>
  <object id="1474" x="159.787" y="720.843" width="14.6589" height="14.6589">
   <properties>
    <property name="building_type" value="empty"/>
    <property name="can_build" type="bool" value="true"/>
    <property name="is_starting_building" type="bool" value="false"/>
   </properties>
  </object>
  <object id="1475" x="160.029" y="688.694" width="14.6589" height="14.6589">
   <properties>
    <property name="building_type" value="empty"/>
    <property name="can_build" type="bool" value="true"/>
    <property name="is_starting_building" type="bool" value="false"/>
   </properties>
  </object>
  <object id="1477" x="79.562" y="720.306" width="14.6589" height="14.6589">
   <properties>
    <property name="building_type" value="empty"/>
    <property name="can_build" type="bool" value="true"/>
    <property name="is_starting_building" type="bool" value="false"/>
   </properties>
  </object>
  <object id="1478" x="95.5741" y="688.49" width="14.6589" height="14.6589">
   <properties>
    <property name="building_type" value="empty"/>
    <property name="can_build" type="bool" value="true"/>
    <property name="is_starting_building" type="bool" value="false"/>
   </properties>
  </object>
  <object id="1480" x="95.6889" y="704.63" width="14.6589" height="14.6589">
   <properties>
    <property name="building_type" value="empty"/>
    <property name="can_build" type="bool" value="true"/>
    <property name="is_starting_building" type="bool" value="false"/>
   </properties>
  </object>
  <object id="1481" x="95.8767" y="720.398" width="14.6589" height="14.6589">
   <properties>
    <property name="building_type" value="empty"/>
    <property name="can_build" type="bool" value="true"/>
    <property name="is_starting_building" type="bool" value="false"/>
   </properties>
  </object>
  <object id="1482" x="111.599" y="704.114" width="14.6589" height="14.6589">
   <properties>
    <property name="building_type" value="empty"/>
    <property name="can_build" type="bool" value="true"/>
    <property name="is_starting_building" type="bool" value="false"/>
   </properties>
  </object>
  <object id="1483" x="111.537" y="720.093" width="14.6589" height="14.6589">
   <properties>
    <property name="building_type" value="empty"/>
    <property name="can_build" type="bool" value="true"/>
    <property name="is_starting_building" type="bool" value="false"/>
   </properties>
  </object>
  <object id="1484" x="111.779" y="687.944" width="14.6589" height="14.6589">
   <properties>
    <property name="building_type" value="empty"/>
    <property name="can_build" type="bool" value="true"/>
    <property name="is_starting_building" type="bool" value="false"/>
   </properties>
  </object>
  <object id="1485" x="63.6237" y="657.327" width="14.6589" height="14.6589">
   <properties>
    <property name="building_type" value="empty"/>
    <property name="can_build" type="bool" value="true"/>
    <property name="is_starting_building" type="bool" value="false"/>
   </properties>
  </object>
  <object id="1486" x="63.562" y="673.306" width="14.6589" height="14.6589">
   <properties>
    <property name="building_type" value="empty"/>
    <property name="can_build" type="bool" value="true"/>
    <property name="is_starting_building" type="bool" value="false"/>
   </properties>
  </object>
  <object id="1487" x="79.5741" y="641.49" width="14.6589" height="14.6589">
   <properties>
    <property name="building_type" value="empty"/>
    <property name="can_build" type="bool" value="true"/>
    <property name="is_starting_building" type="bool" value="false"/>
   </properties>
  </object>
  <object id="1488" x="63.8038" y="641.157" width="14.6589" height="14.6589">
   <properties>
    <property name="building_type" value="empty"/>
    <property name="can_build" type="bool" value="true"/>
    <property name="is_starting_building" type="bool" value="false"/>
   </properties>
  </object>
  <object id="1489" x="79.6889" y="657.63" width="14.6589" height="14.6589">
   <properties>
    <property name="building_type" value="empty"/>
    <property name="can_build" type="bool" value="true"/>
    <property name="is_starting_building" type="bool" value="false"/>
   </properties>
  </object>
  <object id="1491" x="95.5989" y="657.114" width="14.6589" height="14.6589">
   <properties>
    <property name="building_type" value="empty"/>
    <property name="can_build" type="bool" value="true"/>
    <property name="is_starting_building" type="bool" value="false"/>
   </properties>
  </object>
  <object id="1492" x="95.5373" y="673.093" width="14.6589" height="14.6589">
   <properties>
    <property name="building_type" value="empty"/>
    <property name="can_build" type="bool" value="true"/>
    <property name="is_starting_building" type="bool" value="false"/>
   </properties>
  </object>
  <object id="1493" x="95.7791" y="640.944" width="14.6589" height="14.6589">
   <properties>
    <property name="building_type" value="empty"/>
    <property name="can_build" type="bool" value="true"/>
    <property name="is_starting_building" type="bool" value="false"/>
   </properties>
  </object>
  <object id="1494" x="16.3737" y="657.327" width="14.6589" height="14.6589">
   <properties>
    <property name="building_type" value="empty"/>
    <property name="can_build" type="bool" value="true"/>
    <property name="is_starting_building" type="bool" value="false"/>
   </properties>
  </object>
  <object id="1495" x="16.312" y="673.306" width="14.6589" height="14.6589">
   <properties>
    <property name="building_type" value="empty"/>
    <property name="can_build" type="bool" value="true"/>
    <property name="is_starting_building" type="bool" value="false"/>
   </properties>
  </object>
  <object id="1496" x="32.3241" y="641.49" width="14.6589" height="14.6589">
   <properties>
    <property name="building_type" value="empty"/>
    <property name="can_build" type="bool" value="true"/>
    <property name="is_starting_building" type="bool" value="false"/>
   </properties>
  </object>
  <object id="1497" x="16.5538" y="641.157" width="14.6589" height="14.6589">
   <properties>
    <property name="building_type" value="empty"/>
    <property name="can_build" type="bool" value="true"/>
    <property name="is_starting_building" type="bool" value="false"/>
   </properties>
  </object>
  <object id="1498" x="32.4389" y="657.63" width="14.6589" height="14.6589">
   <properties>
    <property name="building_type" value="empty"/>
    <property name="can_build" type="bool" value="true"/>
    <property name="is_starting_building" type="bool" value="false"/>
   </properties>
  </object>
  <object id="1499" x="32.6267" y="673.398" width="14.6589" height="14.6589">
   <properties>
    <property name="building_type" value="empty"/>
    <property name="can_build" type="bool" value="true"/>
    <property name="is_starting_building" type="bool" value="false"/>
   </properties>
  </object>
  <object id="1501" x="48.2873" y="673.093" width="14.6589" height="14.6589">
   <properties>
    <property name="building_type" value="empty"/>
    <property name="can_build" type="bool" value="true"/>
    <property name="is_starting_building" type="bool" value="false"/>
   </properties>
  </object>
  <object id="1502" x="48.5291" y="640.944" width="14.6589" height="14.6589">
   <properties>
    <property name="building_type" value="empty"/>
    <property name="can_build" type="bool" value="true"/>
    <property name="is_starting_building" type="bool" value="false"/>
   </properties>
  </object>
  <object id="1505" x="47.5741" y="688.74" width="14.6589" height="14.6589">
   <properties>
    <property name="building_type" value="empty"/>
    <property name="can_build" type="bool" value="true"/>
    <property name="is_starting_building" type="bool" value="false"/>
   </properties>
  </object>
  <object id="1507" x="47.6889" y="704.88" width="14.6589" height="14.6589">
   <properties>
    <property name="building_type" value="empty"/>
    <property name="can_build" type="bool" value="true"/>
    <property name="is_starting_building" type="bool" value="false"/>
   </properties>
  </object>
  <object id="1508" x="47.8767" y="720.648" width="14.6589" height="14.6589">
   <properties>
    <property name="building_type" value="empty"/>
    <property name="can_build" type="bool" value="true"/>
    <property name="is_starting_building" type="bool" value="false"/>
   </properties>
  </object>
  <object id="1511" x="63.7791" y="688.194" width="14.6589" height="14.6589">
   <properties>
    <property name="building_type" value="empty"/>
    <property name="can_build" type="bool" value="true"/>
    <property name="is_starting_building" type="bool" value="false"/>
   </properties>
  </object>
  <object id="1521" x="0.123657" y="704.827" width="14.6589" height="14.6589">
   <properties>
    <property name="building_type" value="empty"/>
    <property name="can_build" type="bool" value="true"/>
    <property name="is_starting_building" type="bool" value="false"/>
   </properties>
  </object>
  <object id="1522" x="0.0620045" y="720.806" width="14.6589" height="14.6589">
   <properties>
    <property name="building_type" value="empty"/>
    <property name="can_build" type="bool" value="true"/>
    <property name="is_starting_building" type="bool" value="false"/>
   </properties>
  </object>
  <object id="1523" x="16.0741" y="688.99" width="14.6589" height="14.6589">
   <properties>
    <property name="building_type" value="empty"/>
    <property name="can_build" type="bool" value="true"/>
    <property name="is_starting_building" type="bool" value="false"/>
   </properties>
  </object>
  <object id="1524" x="0.303807" y="688.657" width="14.6589" height="14.6589">
   <properties>
    <property name="building_type" value="empty"/>
    <property name="can_build" type="bool" value="true"/>
    <property name="is_starting_building" type="bool" value="false"/>
   </properties>
  </object>
  <object id="1525" x="16.1889" y="705.13" width="14.6589" height="14.6589">
   <properties>
    <property name="building_type" value="empty"/>
    <property name="can_build" type="bool" value="true"/>
    <property name="is_starting_building" type="bool" value="false"/>
   </properties>
  </object>
  <object id="1526" x="16.3767" y="720.898" width="14.6589" height="14.6589">
   <properties>
    <property name="building_type" value="empty"/>
    <property name="can_build" type="bool" value="true"/>
    <property name="is_starting_building" type="bool" value="false"/>
   </properties>
  </object>
  <object id="1536" x="0.848895" y="656.864" width="14.6589" height="14.6589">
   <properties>
    <property name="building_type" value="empty"/>
    <property name="can_build" type="bool" value="true"/>
    <property name="is_starting_building" type="bool" value="false"/>
   </properties>
  </object>
  <object id="1537" x="0.787295" y="672.843" width="14.6589" height="14.6589">
   <properties>
    <property name="building_type" value="empty"/>
    <property name="can_build" type="bool" value="true"/>
    <property name="is_starting_building" type="bool" value="false"/>
   </properties>
  </object>
  <object id="1538" x="1.0291" y="640.694" width="14.6589" height="14.6589">
   <properties>
    <property name="building_type" value="empty"/>
    <property name="can_build" type="bool" value="true"/>
    <property name="is_starting_building" type="bool" value="false"/>
   </properties>
  </object>
  <object id="1545" x="416.624" y="721.077" width="14.6589" height="14.6589">
   <properties>
    <property name="building_type" value="empty"/>
    <property name="can_build" type="bool" value="true"/>
    <property name="is_starting_building" type="bool" value="false"/>
   </properties>
  </object>
  <object id="1546" x="416.562" y="737.056" width="14.6589" height="14.6589">
   <properties>
    <property name="building_type" value="empty"/>
    <property name="can_build" type="bool" value="true"/>
    <property name="is_starting_building" type="bool" value="false"/>
   </properties>
  </object>
  <object id="1547" x="432.574" y="705.24" width="14.6589" height="14.6589">
   <properties>
    <property name="building_type" value="empty"/>
    <property name="can_build" type="bool" value="true"/>
    <property name="is_starting_building" type="bool" value="false"/>
   </properties>
  </object>
  <object id="1548" x="416.804" y="704.907" width="14.6589" height="14.6589">
   <properties>
    <property name="building_type" value="empty"/>
    <property name="can_build" type="bool" value="true"/>
    <property name="is_starting_building" type="bool" value="false"/>
   </properties>
  </object>
  <object id="1549" x="432.689" y="721.38" width="14.6589" height="14.6589">
   <properties>
    <property name="building_type" value="empty"/>
    <property name="can_build" type="bool" value="true"/>
    <property name="is_starting_building" type="bool" value="false"/>
   </properties>
  </object>
  <object id="1550" x="432.877" y="737.148" width="14.6589" height="14.6589">
   <properties>
    <property name="building_type" value="empty"/>
    <property name="can_build" type="bool" value="true"/>
    <property name="is_starting_building" type="bool" value="false"/>
   </properties>
  </object>
  <object id="1551" x="448.599" y="720.864" width="14.6589" height="14.6589">
   <properties>
    <property name="building_type" value="empty"/>
    <property name="can_build" type="bool" value="true"/>
    <property name="is_starting_building" type="bool" value="false"/>
   </properties>
  </object>
  <object id="1552" x="448.537" y="736.843" width="14.6589" height="14.6589">
   <properties>
    <property name="building_type" value="empty"/>
    <property name="can_build" type="bool" value="true"/>
    <property name="is_starting_building" type="bool" value="false"/>
   </properties>
  </object>
  <object id="1553" x="448.779" y="704.694" width="14.6589" height="14.6589">
   <properties>
    <property name="building_type" value="empty"/>
    <property name="can_build" type="bool" value="true"/>
    <property name="is_starting_building" type="bool" value="false"/>
   </properties>
  </object>
  <object id="1554" x="368.624" y="753.327" width="14.6589" height="14.6589">
   <properties>
    <property name="building_type" value="empty"/>
    <property name="can_build" type="bool" value="true"/>
    <property name="is_starting_building" type="bool" value="false"/>
   </properties>
  </object>
  <object id="1555" x="368.562" y="769.306" width="14.6589" height="14.6589">
   <properties>
    <property name="building_type" value="empty"/>
    <property name="can_build" type="bool" value="true"/>
    <property name="is_starting_building" type="bool" value="false"/>
   </properties>
  </object>
  <object id="1556" x="384.574" y="737.49" width="14.6589" height="14.6589">
   <properties>
    <property name="building_type" value="empty"/>
    <property name="can_build" type="bool" value="true"/>
    <property name="is_starting_building" type="bool" value="false"/>
   </properties>
  </object>
  <object id="1557" x="368.804" y="737.157" width="14.6589" height="14.6589">
   <properties>
    <property name="building_type" value="empty"/>
    <property name="can_build" type="bool" value="true"/>
    <property name="is_starting_building" type="bool" value="false"/>
   </properties>
  </object>
  <object id="1558" x="384.689" y="753.63" width="14.6589" height="14.6589">
   <properties>
    <property name="building_type" value="empty"/>
    <property name="can_build" type="bool" value="true"/>
    <property name="is_starting_building" type="bool" value="false"/>
   </properties>
  </object>
  <object id="1559" x="384.877" y="769.398" width="14.6589" height="14.6589">
   <properties>
    <property name="building_type" value="empty"/>
    <property name="can_build" type="bool" value="true"/>
    <property name="is_starting_building" type="bool" value="false"/>
   </properties>
  </object>
  <object id="1560" x="400.599" y="753.114" width="14.6589" height="14.6589">
   <properties>
    <property name="building_type" value="empty"/>
    <property name="can_build" type="bool" value="true"/>
    <property name="is_starting_building" type="bool" value="false"/>
   </properties>
  </object>
  <object id="1561" x="400.537" y="769.093" width="14.6589" height="14.6589">
   <properties>
    <property name="building_type" value="empty"/>
    <property name="can_build" type="bool" value="true"/>
    <property name="is_starting_building" type="bool" value="false"/>
   </properties>
  </object>
  <object id="1562" x="400.779" y="736.944" width="14.6589" height="14.6589">
   <properties>
    <property name="building_type" value="empty"/>
    <property name="can_build" type="bool" value="true"/>
    <property name="is_starting_building" type="bool" value="false"/>
   </properties>
  </object>
  <object id="1563" x="320.624" y="752.827" width="14.6589" height="14.6589">
   <properties>
    <property name="building_type" value="empty"/>
    <property name="can_build" type="bool" value="true"/>
    <property name="is_starting_building" type="bool" value="false"/>
   </properties>
  </object>
  <object id="1564" x="320.562" y="768.806" width="14.6589" height="14.6589">
   <properties>
    <property name="building_type" value="empty"/>
    <property name="can_build" type="bool" value="true"/>
    <property name="is_starting_building" type="bool" value="false"/>
   </properties>
  </object>
  <object id="1565" x="336.574" y="736.99" width="14.6589" height="14.6589">
   <properties>
    <property name="building_type" value="empty"/>
    <property name="can_build" type="bool" value="true"/>
    <property name="is_starting_building" type="bool" value="false"/>
   </properties>
  </object>
  <object id="1566" x="320.804" y="736.657" width="14.6589" height="14.6589">
   <properties>
    <property name="building_type" value="empty"/>
    <property name="can_build" type="bool" value="true"/>
    <property name="is_starting_building" type="bool" value="false"/>
   </properties>
  </object>
  <object id="1567" x="336.689" y="753.13" width="14.6589" height="14.6589">
   <properties>
    <property name="building_type" value="empty"/>
    <property name="can_build" type="bool" value="true"/>
    <property name="is_starting_building" type="bool" value="false"/>
   </properties>
  </object>
  <object id="1568" x="336.877" y="768.898" width="14.6589" height="14.6589">
   <properties>
    <property name="building_type" value="empty"/>
    <property name="can_build" type="bool" value="true"/>
    <property name="is_starting_building" type="bool" value="false"/>
   </properties>
  </object>
  <object id="1569" x="352.599" y="752.614" width="14.6589" height="14.6589">
   <properties>
    <property name="building_type" value="empty"/>
    <property name="can_build" type="bool" value="true"/>
    <property name="is_starting_building" type="bool" value="false"/>
   </properties>
  </object>
  <object id="1570" x="352.537" y="768.593" width="14.6589" height="14.6589">
   <properties>
    <property name="building_type" value="empty"/>
    <property name="can_build" type="bool" value="true"/>
    <property name="is_starting_building" type="bool" value="false"/>
   </properties>
  </object>
  <object id="1571" x="352.779" y="736.444" width="14.6589" height="14.6589">
   <properties>
    <property name="building_type" value="empty"/>
    <property name="can_build" type="bool" value="true"/>
    <property name="is_starting_building" type="bool" value="false"/>
   </properties>
  </object>
  <object id="1572" x="271.624" y="753.327" width="14.6589" height="14.6589">
   <properties>
    <property name="building_type" value="empty"/>
    <property name="can_build" type="bool" value="true"/>
    <property name="is_starting_building" type="bool" value="false"/>
   </properties>
  </object>
  <object id="1573" x="271.562" y="769.306" width="14.6589" height="14.6589">
   <properties>
    <property name="building_type" value="empty"/>
    <property name="can_build" type="bool" value="true"/>
    <property name="is_starting_building" type="bool" value="false"/>
   </properties>
  </object>
  <object id="1574" x="287.574" y="737.49" width="14.6589" height="14.6589">
   <properties>
    <property name="building_type" value="empty"/>
    <property name="can_build" type="bool" value="true"/>
    <property name="is_starting_building" type="bool" value="false"/>
   </properties>
  </object>
  <object id="1575" x="271.804" y="737.157" width="14.6589" height="14.6589">
   <properties>
    <property name="building_type" value="empty"/>
    <property name="can_build" type="bool" value="true"/>
    <property name="is_starting_building" type="bool" value="false"/>
   </properties>
  </object>
  <object id="1576" x="287.689" y="753.63" width="14.6589" height="14.6589">
   <properties>
    <property name="building_type" value="empty"/>
    <property name="can_build" type="bool" value="true"/>
    <property name="is_starting_building" type="bool" value="false"/>
   </properties>
  </object>
  <object id="1577" x="287.877" y="769.398" width="14.6589" height="14.6589">
   <properties>
    <property name="building_type" value="empty"/>
    <property name="can_build" type="bool" value="true"/>
    <property name="is_starting_building" type="bool" value="false"/>
   </properties>
  </object>
  <object id="1578" x="303.599" y="753.114" width="14.6589" height="14.6589">
   <properties>
    <property name="building_type" value="empty"/>
    <property name="can_build" type="bool" value="true"/>
    <property name="is_starting_building" type="bool" value="false"/>
   </properties>
  </object>
  <object id="1579" x="303.537" y="769.093" width="14.6589" height="14.6589">
   <properties>
    <property name="building_type" value="empty"/>
    <property name="can_build" type="bool" value="true"/>
    <property name="is_starting_building" type="bool" value="false"/>
   </properties>
  </object>
  <object id="1580" x="303.779" y="736.944" width="14.6589" height="14.6589">
   <properties>
    <property name="building_type" value="empty"/>
    <property name="can_build" type="bool" value="true"/>
    <property name="is_starting_building" type="bool" value="false"/>
   </properties>
  </object>
  <object id="1581" x="223.874" y="753.577" width="14.6589" height="14.6589">
   <properties>
    <property name="building_type" value="empty"/>
    <property name="can_build" type="bool" value="true"/>
    <property name="is_starting_building" type="bool" value="false"/>
   </properties>
  </object>
  <object id="1583" x="239.824" y="737.74" width="14.6589" height="14.6589">
   <properties>
    <property name="building_type" value="empty"/>
    <property name="can_build" type="bool" value="true"/>
    <property name="is_starting_building" type="bool" value="false"/>
   </properties>
  </object>
  <object id="1584" x="224.054" y="737.407" width="14.6589" height="14.6589">
   <properties>
    <property name="building_type" value="empty"/>
    <property name="can_build" type="bool" value="true"/>
    <property name="is_starting_building" type="bool" value="false"/>
   </properties>
  </object>
  <object id="1585" x="239.939" y="753.88" width="14.6589" height="14.6589">
   <properties>
    <property name="building_type" value="empty"/>
    <property name="can_build" type="bool" value="true"/>
    <property name="is_starting_building" type="bool" value="false"/>
   </properties>
  </object>
  <object id="1586" x="240.127" y="769.648" width="14.6589" height="14.6589">
   <properties>
    <property name="building_type" value="empty"/>
    <property name="can_build" type="bool" value="true"/>
    <property name="is_starting_building" type="bool" value="false"/>
   </properties>
  </object>
  <object id="1587" x="255.849" y="753.364" width="14.6589" height="14.6589">
   <properties>
    <property name="building_type" value="empty"/>
    <property name="can_build" type="bool" value="true"/>
    <property name="is_starting_building" type="bool" value="false"/>
   </properties>
  </object>
  <object id="1588" x="255.787" y="769.343" width="14.6589" height="14.6589">
   <properties>
    <property name="building_type" value="empty"/>
    <property name="can_build" type="bool" value="true"/>
    <property name="is_starting_building" type="bool" value="false"/>
   </properties>
  </object>
  <object id="1589" x="256.029" y="737.194" width="14.6589" height="14.6589">
   <properties>
    <property name="building_type" value="empty"/>
    <property name="can_build" type="bool" value="true"/>
    <property name="is_starting_building" type="bool" value="false"/>
   </properties>
  </object>
  <object id="1590" x="176.374" y="753.827" width="14.6589" height="14.6589">
   <properties>
    <property name="building_type" value="empty"/>
    <property name="can_build" type="bool" value="true"/>
    <property name="is_starting_building" type="bool" value="false"/>
   </properties>
  </object>
  <object id="1591" x="176.312" y="769.806" width="14.6589" height="14.6589">
   <properties>
    <property name="building_type" value="empty"/>
    <property name="can_build" type="bool" value="true"/>
    <property name="is_starting_building" type="bool" value="false"/>
   </properties>
  </object>
  <object id="1592" x="192.324" y="737.99" width="14.6589" height="14.6589">
   <properties>
    <property name="building_type" value="empty"/>
    <property name="can_build" type="bool" value="true"/>
    <property name="is_starting_building" type="bool" value="false"/>
   </properties>
  </object>
  <object id="1593" x="176.554" y="737.657" width="14.6589" height="14.6589">
   <properties>
    <property name="building_type" value="empty"/>
    <property name="can_build" type="bool" value="true"/>
    <property name="is_starting_building" type="bool" value="false"/>
   </properties>
  </object>
  <object id="1594" x="192.439" y="754.13" width="14.6589" height="14.6589">
   <properties>
    <property name="building_type" value="empty"/>
    <property name="can_build" type="bool" value="true"/>
    <property name="is_starting_building" type="bool" value="false"/>
   </properties>
  </object>
  <object id="1595" x="192.627" y="769.898" width="14.6589" height="14.6589">
   <properties>
    <property name="building_type" value="empty"/>
    <property name="can_build" type="bool" value="true"/>
    <property name="is_starting_building" type="bool" value="false"/>
   </properties>
  </object>
  <object id="1596" x="208.349" y="753.614" width="14.6589" height="14.6589">
   <properties>
    <property name="building_type" value="empty"/>
    <property name="can_build" type="bool" value="true"/>
    <property name="is_starting_building" type="bool" value="false"/>
   </properties>
  </object>
  <object id="1597" x="208.287" y="769.593" width="14.6589" height="14.6589">
   <properties>
    <property name="building_type" value="empty"/>
    <property name="can_build" type="bool" value="true"/>
    <property name="is_starting_building" type="bool" value="false"/>
   </properties>
  </object>
  <object id="1598" x="208.529" y="737.444" width="14.6589" height="14.6589">
   <properties>
    <property name="building_type" value="empty"/>
    <property name="can_build" type="bool" value="true"/>
    <property name="is_starting_building" type="bool" value="false"/>
   </properties>
  </object>
  <object id="1599" x="176.942" y="802.213" width="14.6589" height="14.6589">
   <properties>
    <property name="building_type" value="empty"/>
    <property name="can_build" type="bool" value="true"/>
    <property name="is_starting_building" type="bool" value="false"/>
   </properties>
  </object>
  <object id="1600" x="176.88" y="818.192" width="14.6589" height="14.6589">
   <properties>
    <property name="building_type" value="empty"/>
    <property name="can_build" type="bool" value="true"/>
    <property name="is_starting_building" type="bool" value="false"/>
   </properties>
  </object>
  <object id="1601" x="192.892" y="786.376" width="14.6589" height="14.6589">
   <properties>
    <property name="building_type" value="empty"/>
    <property name="can_build" type="bool" value="true"/>
    <property name="is_starting_building" type="bool" value="false"/>
   </properties>
  </object>
  <object id="1602" x="177.122" y="786.043" width="14.6589" height="14.6589">
   <properties>
    <property name="building_type" value="empty"/>
    <property name="can_build" type="bool" value="true"/>
    <property name="is_starting_building" type="bool" value="false"/>
   </properties>
  </object>
  <object id="1604" x="193.195" y="818.284" width="14.6589" height="14.6589">
   <properties>
    <property name="building_type" value="empty"/>
    <property name="can_build" type="bool" value="true"/>
    <property name="is_starting_building" type="bool" value="false"/>
   </properties>
  </object>
  <object id="1605" x="208.917" y="802" width="14.6589" height="14.6589">
   <properties>
    <property name="building_type" value="empty"/>
    <property name="can_build" type="bool" value="true"/>
    <property name="is_starting_building" type="bool" value="false"/>
   </properties>
  </object>
  <object id="1606" x="208.855" y="817.979" width="14.6589" height="14.6589">
   <properties>
    <property name="building_type" value="empty"/>
    <property name="can_build" type="bool" value="true"/>
    <property name="is_starting_building" type="bool" value="false"/>
   </properties>
  </object>
  <object id="1607" x="209.097" y="785.83" width="14.6589" height="14.6589">
   <properties>
    <property name="building_type" value="empty"/>
    <property name="can_build" type="bool" value="true"/>
    <property name="is_starting_building" type="bool" value="false"/>
   </properties>
  </object>
  <object id="1610" x="144.574" y="736.74" width="14.6589" height="14.6589">
   <properties>
    <property name="building_type" value="empty"/>
    <property name="can_build" type="bool" value="true"/>
    <property name="is_starting_building" type="bool" value="false"/>
   </properties>
  </object>
  <object id="1611" x="128.804" y="736.407" width="14.6589" height="14.6589">
   <properties>
    <property name="building_type" value="empty"/>
    <property name="can_build" type="bool" value="true"/>
    <property name="is_starting_building" type="bool" value="false"/>
   </properties>
  </object>
  <object id="1614" x="160.599" y="752.364" width="14.6589" height="14.6589">
   <properties>
    <property name="building_type" value="empty"/>
    <property name="can_build" type="bool" value="true"/>
    <property name="is_starting_building" type="bool" value="false"/>
   </properties>
  </object>
  <object id="1615" x="160.537" y="768.343" width="14.6589" height="14.6589">
   <properties>
    <property name="building_type" value="empty"/>
    <property name="can_build" type="bool" value="true"/>
    <property name="is_starting_building" type="bool" value="false"/>
   </properties>
  </object>
  <object id="1616" x="160.779" y="736.194" width="14.6589" height="14.6589">
   <properties>
    <property name="building_type" value="empty"/>
    <property name="can_build" type="bool" value="true"/>
    <property name="is_starting_building" type="bool" value="false"/>
   </properties>
  </object>
  <object id="1619" x="96.3923" y="736.08" width="14.6589" height="14.6589">
   <properties>
    <property name="building_type" value="empty"/>
    <property name="can_build" type="bool" value="true"/>
    <property name="is_starting_building" type="bool" value="false"/>
   </properties>
  </object>
  <object id="1620" x="80.622" y="735.747" width="14.6589" height="14.6589">
   <properties>
    <property name="building_type" value="empty"/>
    <property name="can_build" type="bool" value="true"/>
    <property name="is_starting_building" type="bool" value="false"/>
   </properties>
  </object>
  <object id="1625" x="112.597" y="735.534" width="14.6589" height="14.6589">
   <properties>
    <property name="building_type" value="empty"/>
    <property name="can_build" type="bool" value="true"/>
    <property name="is_starting_building" type="bool" value="false"/>
   </properties>
  </object>
  <object id="1628" x="48.2105" y="736.626" width="14.6589" height="14.6589">
   <properties>
    <property name="building_type" value="empty"/>
    <property name="can_build" type="bool" value="true"/>
    <property name="is_starting_building" type="bool" value="false"/>
   </properties>
  </object>
  <object id="1629" x="32.4402" y="736.293" width="14.6589" height="14.6589">
   <properties>
    <property name="building_type" value="empty"/>
    <property name="can_build" type="bool" value="true"/>
    <property name="is_starting_building" type="bool" value="false"/>
   </properties>
  </object>
  <object id="1634" x="64.4155" y="736.08" width="14.6589" height="14.6589">
   <properties>
    <property name="building_type" value="empty"/>
    <property name="can_build" type="bool" value="true"/>
    <property name="is_starting_building" type="bool" value="false"/>
   </properties>
  </object>
  <object id="1637" x="0.028641" y="736.626" width="14.6589" height="14.6589">
   <properties>
    <property name="building_type" value="empty"/>
    <property name="can_build" type="bool" value="true"/>
    <property name="is_starting_building" type="bool" value="false"/>
   </properties>
  </object>
  <object id="1643" x="16.2336" y="736.08" width="14.6589" height="14.6589">
   <properties>
    <property name="building_type" value="empty"/>
    <property name="can_build" type="bool" value="true"/>
    <property name="is_starting_building" type="bool" value="false"/>
   </properties>
  </object>
  <object id="1650" x="160.75" y="802.038" width="14.6589" height="14.6589">
   <properties>
    <property name="building_type" value="empty"/>
    <property name="can_build" type="bool" value="true"/>
    <property name="is_starting_building" type="bool" value="false"/>
   </properties>
  </object>
  <object id="1651" x="160.689" y="818.017" width="14.6589" height="14.6589">
   <properties>
    <property name="building_type" value="empty"/>
    <property name="can_build" type="bool" value="true"/>
    <property name="is_starting_building" type="bool" value="false"/>
   </properties>
  </object>
  <object id="1652" x="160.931" y="785.868" width="14.6589" height="14.6589">
   <properties>
    <property name="building_type" value="empty"/>
    <property name="can_build" type="bool" value="true"/>
    <property name="is_starting_building" type="bool" value="false"/>
   </properties>
  </object>
  <object id="1653" x="160.805" y="849.554" width="14.6589" height="14.6589">
   <properties>
    <property name="building_type" value="empty"/>
    <property name="can_build" type="bool" value="true"/>
    <property name="is_starting_building" type="bool" value="false"/>
   </properties>
  </object>
  <object id="1654" x="160.744" y="865.533" width="14.6589" height="14.6589">
   <properties>
    <property name="building_type" value="empty"/>
    <property name="can_build" type="bool" value="true"/>
    <property name="is_starting_building" type="bool" value="false"/>
   </properties>
  </object>
  <object id="1655" x="176.756" y="833.717" width="14.6589" height="14.6589">
   <properties>
    <property name="building_type" value="empty"/>
    <property name="can_build" type="bool" value="true"/>
    <property name="is_starting_building" type="bool" value="false"/>
   </properties>
  </object>
  <object id="1656" x="160.986" y="833.384" width="14.6589" height="14.6589">
   <properties>
    <property name="building_type" value="empty"/>
    <property name="can_build" type="bool" value="true"/>
    <property name="is_starting_building" type="bool" value="false"/>
   </properties>
  </object>
  <object id="1657" x="176.871" y="849.857" width="14.6589" height="14.6589">
   <properties>
    <property name="building_type" value="empty"/>
    <property name="can_build" type="bool" value="true"/>
    <property name="is_starting_building" type="bool" value="false"/>
   </properties>
  </object>
  <object id="1658" x="177.059" y="865.625" width="14.6589" height="14.6589">
   <properties>
    <property name="building_type" value="empty"/>
    <property name="can_build" type="bool" value="true"/>
    <property name="is_starting_building" type="bool" value="false"/>
   </properties>
  </object>
  <object id="1659" x="192.781" y="849.341" width="14.6589" height="14.6589">
   <properties>
    <property name="building_type" value="empty"/>
    <property name="can_build" type="bool" value="true"/>
    <property name="is_starting_building" type="bool" value="false"/>
   </properties>
  </object>
  <object id="1660" x="192.719" y="865.32" width="14.6589" height="14.6589">
   <properties>
    <property name="building_type" value="empty"/>
    <property name="can_build" type="bool" value="true"/>
    <property name="is_starting_building" type="bool" value="false"/>
   </properties>
  </object>
  <object id="1661" x="192.961" y="833.171" width="14.6589" height="14.6589">
   <properties>
    <property name="building_type" value="empty"/>
    <property name="can_build" type="bool" value="true"/>
    <property name="is_starting_building" type="bool" value="false"/>
   </properties>
  </object>
  <object id="1662" x="208.624" y="850.099" width="14.6589" height="14.6589">
   <properties>
    <property name="building_type" value="empty"/>
    <property name="can_build" type="bool" value="true"/>
    <property name="is_starting_building" type="bool" value="false"/>
   </properties>
  </object>
  <object id="1663" x="208.562" y="866.078" width="14.6589" height="14.6589">
   <properties>
    <property name="building_type" value="empty"/>
    <property name="can_build" type="bool" value="true"/>
    <property name="is_starting_building" type="bool" value="false"/>
   </properties>
  </object>
  <object id="1664" x="224.574" y="834.262" width="14.6589" height="14.6589">
   <properties>
    <property name="building_type" value="empty"/>
    <property name="can_build" type="bool" value="true"/>
    <property name="is_starting_building" type="bool" value="false"/>
   </properties>
  </object>
  <object id="1665" x="208.804" y="833.929" width="14.6589" height="14.6589">
   <properties>
    <property name="building_type" value="empty"/>
    <property name="can_build" type="bool" value="true"/>
    <property name="is_starting_building" type="bool" value="false"/>
   </properties>
  </object>
  <object id="1666" x="224.689" y="850.402" width="14.6589" height="14.6589">
   <properties>
    <property name="building_type" value="empty"/>
    <property name="can_build" type="bool" value="true"/>
    <property name="is_starting_building" type="bool" value="false"/>
   </properties>
  </object>
  <object id="1667" x="224.877" y="866.17" width="14.6589" height="14.6589">
   <properties>
    <property name="building_type" value="empty"/>
    <property name="can_build" type="bool" value="true"/>
    <property name="is_starting_building" type="bool" value="false"/>
   </properties>
  </object>
  <object id="1668" x="240.599" y="849.886" width="14.6589" height="14.6589">
   <properties>
    <property name="building_type" value="empty"/>
    <property name="can_build" type="bool" value="true"/>
    <property name="is_starting_building" type="bool" value="false"/>
   </properties>
  </object>
  <object id="1669" x="240.537" y="865.865" width="14.6589" height="14.6589">
   <properties>
    <property name="building_type" value="empty"/>
    <property name="can_build" type="bool" value="true"/>
    <property name="is_starting_building" type="bool" value="false"/>
   </properties>
  </object>
  <object id="1670" x="240.779" y="833.716" width="14.6589" height="14.6589">
   <properties>
    <property name="building_type" value="empty"/>
    <property name="can_build" type="bool" value="true"/>
    <property name="is_starting_building" type="bool" value="false"/>
   </properties>
  </object>
  <object id="1671" x="224.805" y="801.917" width="14.6589" height="14.6589">
   <properties>
    <property name="building_type" value="empty"/>
    <property name="can_build" type="bool" value="true"/>
    <property name="is_starting_building" type="bool" value="false"/>
   </properties>
  </object>
  <object id="1672" x="224.744" y="817.896" width="14.6589" height="14.6589">
   <properties>
    <property name="building_type" value="empty"/>
    <property name="can_build" type="bool" value="true"/>
    <property name="is_starting_building" type="bool" value="false"/>
   </properties>
  </object>
  <object id="1673" x="240.756" y="786.08" width="14.6589" height="14.6589">
   <properties>
    <property name="building_type" value="empty"/>
    <property name="can_build" type="bool" value="true"/>
    <property name="is_starting_building" type="bool" value="false"/>
   </properties>
  </object>
  <object id="1674" x="224.986" y="785.747" width="14.6589" height="14.6589">
   <properties>
    <property name="building_type" value="empty"/>
    <property name="can_build" type="bool" value="true"/>
    <property name="is_starting_building" type="bool" value="false"/>
   </properties>
  </object>
  <object id="1675" x="240.871" y="802.22" width="14.6589" height="14.6589">
   <properties>
    <property name="building_type" value="empty"/>
    <property name="can_build" type="bool" value="true"/>
    <property name="is_starting_building" type="bool" value="false"/>
   </properties>
  </object>
  <object id="1676" x="241.059" y="817.988" width="14.6589" height="14.6589">
   <properties>
    <property name="building_type" value="empty"/>
    <property name="can_build" type="bool" value="true"/>
    <property name="is_starting_building" type="bool" value="false"/>
   </properties>
  </object>
  <object id="1677" x="256.781" y="801.704" width="14.6589" height="14.6589">
   <properties>
    <property name="building_type" value="empty"/>
    <property name="can_build" type="bool" value="true"/>
    <property name="is_starting_building" type="bool" value="false"/>
   </properties>
  </object>
  <object id="1678" x="256.719" y="817.683" width="14.6589" height="14.6589">
   <properties>
    <property name="building_type" value="empty"/>
    <property name="can_build" type="bool" value="true"/>
    <property name="is_starting_building" type="bool" value="false"/>
   </properties>
  </object>
  <object id="1679" x="256.961" y="785.534" width="14.6589" height="14.6589">
   <properties>
    <property name="building_type" value="empty"/>
    <property name="can_build" type="bool" value="true"/>
    <property name="is_starting_building" type="bool" value="false"/>
   </properties>
  </object>
  <object id="1680" x="160.499" y="897.452" width="14.6589" height="14.6589">
   <properties>
    <property name="building_type" value="empty"/>
    <property name="can_build" type="bool" value="true"/>
    <property name="is_starting_building" type="bool" value="false"/>
   </properties>
  </object>
  <object id="1681" x="160.437" y="913.431" width="14.6589" height="14.6589">
   <properties>
    <property name="building_type" value="empty"/>
    <property name="can_build" type="bool" value="true"/>
    <property name="is_starting_building" type="bool" value="false"/>
   </properties>
  </object>
  <object id="1682" x="176.449" y="881.615" width="14.6589" height="14.6589">
   <properties>
    <property name="building_type" value="empty"/>
    <property name="can_build" type="bool" value="true"/>
    <property name="is_starting_building" type="bool" value="false"/>
   </properties>
  </object>
  <object id="1683" x="160.679" y="881.282" width="14.6589" height="14.6589">
   <properties>
    <property name="building_type" value="empty"/>
    <property name="can_build" type="bool" value="true"/>
    <property name="is_starting_building" type="bool" value="false"/>
   </properties>
  </object>
  <object id="1684" x="176.564" y="897.755" width="14.6589" height="14.6589">
   <properties>
    <property name="building_type" value="empty"/>
    <property name="can_build" type="bool" value="true"/>
    <property name="is_starting_building" type="bool" value="false"/>
   </properties>
  </object>
  <object id="1685" x="176.752" y="913.523" width="14.6589" height="14.6589">
   <properties>
    <property name="building_type" value="empty"/>
    <property name="can_build" type="bool" value="true"/>
    <property name="is_starting_building" type="bool" value="false"/>
   </properties>
  </object>
  <object id="1686" x="192.474" y="897.239" width="14.6589" height="14.6589">
   <properties>
    <property name="building_type" value="empty"/>
    <property name="can_build" type="bool" value="true"/>
    <property name="is_starting_building" type="bool" value="false"/>
   </properties>
  </object>
  <object id="1687" x="192.412" y="913.218" width="14.6589" height="14.6589">
   <properties>
    <property name="building_type" value="empty"/>
    <property name="can_build" type="bool" value="true"/>
    <property name="is_starting_building" type="bool" value="false"/>
   </properties>
  </object>
  <object id="1688" x="192.654" y="881.069" width="14.6589" height="14.6589">
   <properties>
    <property name="building_type" value="empty"/>
    <property name="can_build" type="bool" value="true"/>
    <property name="is_starting_building" type="bool" value="false"/>
   </properties>
  </object>
  <object id="1689" x="208.749" y="897.577" width="14.6589" height="14.6589">
   <properties>
    <property name="building_type" value="empty"/>
    <property name="can_build" type="bool" value="true"/>
    <property name="is_starting_building" type="bool" value="false"/>
   </properties>
  </object>
  <object id="1691" x="224.699" y="881.74" width="14.6589" height="14.6589">
   <properties>
    <property name="building_type" value="empty"/>
    <property name="can_build" type="bool" value="true"/>
    <property name="is_starting_building" type="bool" value="false"/>
   </properties>
  </object>
  <object id="1692" x="208.929" y="881.407" width="14.6589" height="14.6589">
   <properties>
    <property name="building_type" value="empty"/>
    <property name="can_build" type="bool" value="true"/>
    <property name="is_starting_building" type="bool" value="false"/>
   </properties>
  </object>
  <object id="1693" x="224.814" y="897.88" width="14.6589" height="14.6589">
   <properties>
    <property name="building_type" value="empty"/>
    <property name="can_build" type="bool" value="true"/>
    <property name="is_starting_building" type="bool" value="false"/>
   </properties>
  </object>
  <object id="1694" x="225.002" y="913.648" width="14.6589" height="14.6589">
   <properties>
    <property name="building_type" value="empty"/>
    <property name="can_build" type="bool" value="true"/>
    <property name="is_starting_building" type="bool" value="false"/>
   </properties>
  </object>
  <object id="1695" x="240.724" y="897.364" width="14.6589" height="14.6589">
   <properties>
    <property name="building_type" value="empty"/>
    <property name="can_build" type="bool" value="true"/>
    <property name="is_starting_building" type="bool" value="false"/>
   </properties>
  </object>
  <object id="1696" x="240.662" y="913.343" width="14.6589" height="14.6589">
   <properties>
    <property name="building_type" value="empty"/>
    <property name="can_build" type="bool" value="true"/>
    <property name="is_starting_building" type="bool" value="false"/>
   </properties>
  </object>
  <object id="1697" x="240.904" y="881.194" width="14.6589" height="14.6589">
   <properties>
    <property name="building_type" value="empty"/>
    <property name="can_build" type="bool" value="true"/>
    <property name="is_starting_building" type="bool" value="false"/>
   </properties>
  </object>
  <object id="1698" x="256.442" y="849.736" width="14.6589" height="14.6589">
   <properties>
    <property name="building_type" value="empty"/>
    <property name="can_build" type="bool" value="true"/>
    <property name="is_starting_building" type="bool" value="false"/>
   </properties>
  </object>
  <object id="1699" x="256.38" y="865.715" width="14.6589" height="14.6589">
   <properties>
    <property name="building_type" value="empty"/>
    <property name="can_build" type="bool" value="true"/>
    <property name="is_starting_building" type="bool" value="false"/>
   </properties>
  </object>
  <object id="1700" x="272.392" y="833.899" width="14.6589" height="14.6589">
   <properties>
    <property name="building_type" value="empty"/>
    <property name="can_build" type="bool" value="true"/>
    <property name="is_starting_building" type="bool" value="false"/>
   </properties>
  </object>
  <object id="1701" x="256.622" y="833.566" width="14.6589" height="14.6589">
   <properties>
    <property name="building_type" value="empty"/>
    <property name="can_build" type="bool" value="true"/>
    <property name="is_starting_building" type="bool" value="false"/>
   </properties>
  </object>
  <object id="1702" x="272.507" y="850.039" width="14.6589" height="14.6589">
   <properties>
    <property name="building_type" value="empty"/>
    <property name="can_build" type="bool" value="true"/>
    <property name="is_starting_building" type="bool" value="false"/>
   </properties>
  </object>
  <object id="1703" x="272.695" y="865.807" width="14.6589" height="14.6589">
   <properties>
    <property name="building_type" value="empty"/>
    <property name="can_build" type="bool" value="true"/>
    <property name="is_starting_building" type="bool" value="false"/>
   </properties>
  </object>
  <object id="1704" x="288.417" y="849.523" width="14.6589" height="14.6589">
   <properties>
    <property name="building_type" value="empty"/>
    <property name="can_build" type="bool" value="true"/>
    <property name="is_starting_building" type="bool" value="false"/>
   </properties>
  </object>
  <object id="1705" x="288.355" y="865.502" width="14.6589" height="14.6589">
   <properties>
    <property name="building_type" value="empty"/>
    <property name="can_build" type="bool" value="true"/>
    <property name="is_starting_building" type="bool" value="false"/>
   </properties>
  </object>
  <object id="1706" x="288.597" y="833.353" width="14.6589" height="14.6589">
   <properties>
    <property name="building_type" value="empty"/>
    <property name="can_build" type="bool" value="true"/>
    <property name="is_starting_building" type="bool" value="false"/>
   </properties>
  </object>
  <object id="1707" x="272.442" y="801.736" width="14.6589" height="14.6589">
   <properties>
    <property name="building_type" value="empty"/>
    <property name="can_build" type="bool" value="true"/>
    <property name="is_starting_building" type="bool" value="false"/>
   </properties>
  </object>
  <object id="1708" x="272.38" y="817.715" width="14.6589" height="14.6589">
   <properties>
    <property name="building_type" value="empty"/>
    <property name="can_build" type="bool" value="true"/>
    <property name="is_starting_building" type="bool" value="false"/>
   </properties>
  </object>
  <object id="1709" x="288.392" y="785.899" width="14.6589" height="14.6589">
   <properties>
    <property name="building_type" value="empty"/>
    <property name="can_build" type="bool" value="true"/>
    <property name="is_starting_building" type="bool" value="false"/>
   </properties>
  </object>
  <object id="1710" x="272.622" y="785.566" width="14.6589" height="14.6589">
   <properties>
    <property name="building_type" value="empty"/>
    <property name="can_build" type="bool" value="true"/>
    <property name="is_starting_building" type="bool" value="false"/>
   </properties>
  </object>
  <object id="1711" x="288.507" y="802.039" width="14.6589" height="14.6589">
   <properties>
    <property name="building_type" value="empty"/>
    <property name="can_build" type="bool" value="true"/>
    <property name="is_starting_building" type="bool" value="false"/>
   </properties>
  </object>
  <object id="1712" x="288.695" y="817.807" width="14.6589" height="14.6589">
   <properties>
    <property name="building_type" value="empty"/>
    <property name="can_build" type="bool" value="true"/>
    <property name="is_starting_building" type="bool" value="false"/>
   </properties>
  </object>
  <object id="1713" x="304.417" y="801.523" width="14.6589" height="14.6589">
   <properties>
    <property name="building_type" value="empty"/>
    <property name="can_build" type="bool" value="true"/>
    <property name="is_starting_building" type="bool" value="false"/>
   </properties>
  </object>
  <object id="1714" x="304.355" y="817.502" width="14.6589" height="14.6589">
   <properties>
    <property name="building_type" value="empty"/>
    <property name="can_build" type="bool" value="true"/>
    <property name="is_starting_building" type="bool" value="false"/>
   </properties>
  </object>
  <object id="1715" x="304.597" y="785.353" width="14.6589" height="14.6589">
   <properties>
    <property name="building_type" value="empty"/>
    <property name="can_build" type="bool" value="true"/>
    <property name="is_starting_building" type="bool" value="false"/>
   </properties>
  </object>
  <object id="1716" x="336.987" y="801.008" width="14.6589" height="14.6589">
   <properties>
    <property name="building_type" value="empty"/>
    <property name="can_build" type="bool" value="true"/>
    <property name="is_starting_building" type="bool" value="false"/>
   </properties>
  </object>
  <object id="1726" x="320.805" y="800.645" width="14.6589" height="14.6589">
   <properties>
    <property name="building_type" value="empty"/>
    <property name="can_build" type="bool" value="true"/>
    <property name="is_starting_building" type="bool" value="false"/>
   </properties>
  </object>
  <object id="1717" x="336.926" y="816.987" width="14.6589" height="14.6589">
   <properties>
    <property name="building_type" value="empty"/>
    <property name="can_build" type="bool" value="true"/>
    <property name="is_starting_building" type="bool" value="false"/>
   </properties>
  </object>
  <object id="1725" x="320.744" y="816.624" width="14.6589" height="14.6589">
   <properties>
    <property name="building_type" value="empty"/>
    <property name="can_build" type="bool" value="true"/>
    <property name="is_starting_building" type="bool" value="false"/>
   </properties>
  </object>
  <object id="1718" x="352.938" y="785.171" width="14.6589" height="14.6589">
   <properties>
    <property name="building_type" value="empty"/>
    <property name="can_build" type="bool" value="true"/>
    <property name="is_starting_building" type="bool" value="false"/>
   </properties>
  </object>
  <object id="1719" x="337.167" y="784.838" width="14.6589" height="14.6589">
   <properties>
    <property name="building_type" value="empty"/>
    <property name="can_build" type="bool" value="true"/>
    <property name="is_starting_building" type="bool" value="false"/>
   </properties>
  </object>
  <object id="1720" x="353.053" y="801.311" width="14.6589" height="14.6589">
   <properties>
    <property name="building_type" value="empty"/>
    <property name="can_build" type="bool" value="true"/>
    <property name="is_starting_building" type="bool" value="false"/>
   </properties>
  </object>
  <object id="1721" x="353.24" y="817.079" width="14.6589" height="14.6589">
   <properties>
    <property name="building_type" value="empty"/>
    <property name="can_build" type="bool" value="true"/>
    <property name="is_starting_building" type="bool" value="false"/>
   </properties>
  </object>
  <object id="1722" x="368.963" y="800.795" width="14.6589" height="14.6589">
   <properties>
    <property name="building_type" value="empty"/>
    <property name="can_build" type="bool" value="true"/>
    <property name="is_starting_building" type="bool" value="false"/>
   </properties>
  </object>
  <object id="1723" x="368.901" y="816.774" width="14.6589" height="14.6589">
   <properties>
    <property name="building_type" value="empty"/>
    <property name="can_build" type="bool" value="true"/>
    <property name="is_starting_building" type="bool" value="false"/>
   </properties>
  </object>
  <object id="1724" x="369.143" y="784.625" width="14.6589" height="14.6589">
   <properties>
    <property name="building_type" value="empty"/>
    <property name="can_build" type="bool" value="true"/>
    <property name="is_starting_building" type="bool" value="false"/>
   </properties>
  </object>
  <object id="1727" x="304.624" y="849.372" width="14.6589" height="14.6589">
   <properties>
    <property name="building_type" value="empty"/>
    <property name="can_build" type="bool" value="true"/>
    <property name="is_starting_building" type="bool" value="false"/>
   </properties>
  </object>
  <object id="1728" x="304.562" y="865.351" width="14.6589" height="14.6589">
   <properties>
    <property name="building_type" value="empty"/>
    <property name="can_build" type="bool" value="true"/>
    <property name="is_starting_building" type="bool" value="false"/>
   </properties>
  </object>
  <object id="1729" x="320.574" y="833.535" width="14.6589" height="14.6589">
   <properties>
    <property name="building_type" value="empty"/>
    <property name="can_build" type="bool" value="true"/>
    <property name="is_starting_building" type="bool" value="false"/>
   </properties>
  </object>
  <object id="1730" x="304.804" y="833.202" width="14.6589" height="14.6589">
   <properties>
    <property name="building_type" value="empty"/>
    <property name="can_build" type="bool" value="true"/>
    <property name="is_starting_building" type="bool" value="false"/>
   </properties>
  </object>
  <object id="1731" x="320.689" y="849.675" width="14.6589" height="14.6589">
   <properties>
    <property name="building_type" value="empty"/>
    <property name="can_build" type="bool" value="true"/>
    <property name="is_starting_building" type="bool" value="false"/>
   </properties>
  </object>
  <object id="1732" x="320.877" y="865.443" width="14.6589" height="14.6589">
   <properties>
    <property name="building_type" value="empty"/>
    <property name="can_build" type="bool" value="true"/>
    <property name="is_starting_building" type="bool" value="false"/>
   </properties>
  </object>
  <object id="1733" x="336.599" y="849.159" width="14.6589" height="14.6589">
   <properties>
    <property name="building_type" value="empty"/>
    <property name="can_build" type="bool" value="true"/>
    <property name="is_starting_building" type="bool" value="false"/>
   </properties>
  </object>
  <object id="1734" x="336.537" y="865.138" width="14.6589" height="14.6589">
   <properties>
    <property name="building_type" value="empty"/>
    <property name="can_build" type="bool" value="true"/>
    <property name="is_starting_building" type="bool" value="false"/>
   </properties>
  </object>
  <object id="1735" x="336.779" y="832.989" width="14.6589" height="14.6589">
   <properties>
    <property name="building_type" value="empty"/>
    <property name="can_build" type="bool" value="true"/>
    <property name="is_starting_building" type="bool" value="false"/>
   </properties>
  </object>
  <object id="1736" x="256.805" y="897.372" width="14.6589" height="14.6589">
   <properties>
    <property name="building_type" value="empty"/>
    <property name="can_build" type="bool" value="true"/>
    <property name="is_starting_building" type="bool" value="false"/>
   </properties>
  </object>
  <object id="1737" x="256.744" y="913.351" width="14.6589" height="14.6589">
   <properties>
    <property name="building_type" value="empty"/>
    <property name="can_build" type="bool" value="true"/>
    <property name="is_starting_building" type="bool" value="false"/>
   </properties>
  </object>
  <object id="1738" x="272.756" y="881.535" width="14.6589" height="14.6589">
   <properties>
    <property name="building_type" value="empty"/>
    <property name="can_build" type="bool" value="true"/>
    <property name="is_starting_building" type="bool" value="false"/>
   </properties>
  </object>
  <object id="1739" x="256.986" y="881.202" width="14.6589" height="14.6589">
   <properties>
    <property name="building_type" value="empty"/>
    <property name="can_build" type="bool" value="true"/>
    <property name="is_starting_building" type="bool" value="false"/>
   </properties>
  </object>
  <object id="1740" x="272.871" y="897.675" width="14.6589" height="14.6589">
   <properties>
    <property name="building_type" value="empty"/>
    <property name="can_build" type="bool" value="true"/>
    <property name="is_starting_building" type="bool" value="false"/>
   </properties>
  </object>
  <object id="1741" x="273.059" y="913.443" width="14.6589" height="14.6589">
   <properties>
    <property name="building_type" value="empty"/>
    <property name="can_build" type="bool" value="true"/>
    <property name="is_starting_building" type="bool" value="false"/>
   </properties>
  </object>
  <object id="1743" x="288.719" y="913.138" width="14.6589" height="14.6589">
   <properties>
    <property name="building_type" value="empty"/>
    <property name="can_build" type="bool" value="true"/>
    <property name="is_starting_building" type="bool" value="false"/>
   </properties>
  </object>
  <object id="1744" x="288.961" y="880.989" width="14.6589" height="14.6589">
   <properties>
    <property name="building_type" value="empty"/>
    <property name="can_build" type="bool" value="true"/>
    <property name="is_starting_building" type="bool" value="false"/>
   </properties>
  </object>
  <object id="1745" x="304.987" y="897.554" width="14.6589" height="14.6589">
   <properties>
    <property name="building_type" value="empty"/>
    <property name="can_build" type="bool" value="true"/>
    <property name="is_starting_building" type="bool" value="false"/>
   </properties>
  </object>
  <object id="1746" x="304.926" y="913.533" width="14.6589" height="14.6589">
   <properties>
    <property name="building_type" value="empty"/>
    <property name="can_build" type="bool" value="true"/>
    <property name="is_starting_building" type="bool" value="false"/>
   </properties>
  </object>
  <object id="1747" x="320.938" y="881.717" width="14.6589" height="14.6589">
   <properties>
    <property name="building_type" value="empty"/>
    <property name="can_build" type="bool" value="true"/>
    <property name="is_starting_building" type="bool" value="false"/>
   </properties>
  </object>
  <object id="1748" x="305.167" y="881.384" width="14.6589" height="14.6589">
   <properties>
    <property name="building_type" value="empty"/>
    <property name="can_build" type="bool" value="true"/>
    <property name="is_starting_building" type="bool" value="false"/>
   </properties>
  </object>
  <object id="1749" x="321.053" y="897.857" width="14.6589" height="14.6589">
   <properties>
    <property name="building_type" value="empty"/>
    <property name="can_build" type="bool" value="true"/>
    <property name="is_starting_building" type="bool" value="false"/>
   </properties>
  </object>
  <object id="1750" x="321.24" y="913.625" width="14.6589" height="14.6589">
   <properties>
    <property name="building_type" value="empty"/>
    <property name="can_build" type="bool" value="true"/>
    <property name="is_starting_building" type="bool" value="false"/>
   </properties>
  </object>
  <object id="1751" x="336.963" y="897.341" width="14.6589" height="14.6589">
   <properties>
    <property name="building_type" value="empty"/>
    <property name="can_build" type="bool" value="true"/>
    <property name="is_starting_building" type="bool" value="false"/>
   </properties>
  </object>
  <object id="1752" x="336.901" y="913.32" width="14.6589" height="14.6589">
   <properties>
    <property name="building_type" value="empty"/>
    <property name="can_build" type="bool" value="true"/>
    <property name="is_starting_building" type="bool" value="false"/>
   </properties>
  </object>
  <object id="1753" x="337.143" y="881.171" width="14.6589" height="14.6589">
   <properties>
    <property name="building_type" value="empty"/>
    <property name="can_build" type="bool" value="true"/>
    <property name="is_starting_building" type="bool" value="false"/>
   </properties>
  </object>
  <object id="1754" x="385.374" y="801.077" width="14.6589" height="14.6589">
   <properties>
    <property name="building_type" value="empty"/>
    <property name="can_build" type="bool" value="true"/>
    <property name="is_starting_building" type="bool" value="false"/>
   </properties>
  </object>
  <object id="1755" x="385.312" y="817.056" width="14.6589" height="14.6589">
   <properties>
    <property name="building_type" value="empty"/>
    <property name="can_build" type="bool" value="true"/>
    <property name="is_starting_building" type="bool" value="false"/>
   </properties>
  </object>
  <object id="1756" x="401.324" y="785.24" width="14.6589" height="14.6589">
   <properties>
    <property name="building_type" value="empty"/>
    <property name="can_build" type="bool" value="true"/>
    <property name="is_starting_building" type="bool" value="false"/>
   </properties>
  </object>
  <object id="1757" x="385.554" y="784.907" width="14.6589" height="14.6589">
   <properties>
    <property name="building_type" value="empty"/>
    <property name="can_build" type="bool" value="true"/>
    <property name="is_starting_building" type="bool" value="false"/>
   </properties>
  </object>
  <object id="1758" x="401.439" y="801.38" width="14.6589" height="14.6589">
   <properties>
    <property name="building_type" value="empty"/>
    <property name="can_build" type="bool" value="true"/>
    <property name="is_starting_building" type="bool" value="false"/>
   </properties>
  </object>
  <object id="1759" x="401.627" y="817.148" width="14.6589" height="14.6589">
   <properties>
    <property name="building_type" value="empty"/>
    <property name="can_build" type="bool" value="true"/>
    <property name="is_starting_building" type="bool" value="false"/>
   </properties>
  </object>
  <object id="1761" x="417.287" y="816.843" width="14.6589" height="14.6589">
   <properties>
    <property name="building_type" value="empty"/>
    <property name="can_build" type="bool" value="true"/>
    <property name="is_starting_building" type="bool" value="false"/>
   </properties>
  </object>
  <object id="1762" x="417.529" y="784.694" width="14.6589" height="14.6589">
   <properties>
    <property name="building_type" value="empty"/>
    <property name="can_build" type="bool" value="true"/>
    <property name="is_starting_building" type="bool" value="false"/>
   </properties>
  </object>
  <object id="1763" x="433.624" y="800.577" width="14.6589" height="14.6589">
   <properties>
    <property name="building_type" value="empty"/>
    <property name="can_build" type="bool" value="true"/>
    <property name="is_starting_building" type="bool" value="false"/>
   </properties>
  </object>
  <object id="1764" x="433.562" y="816.556" width="14.6589" height="14.6589">
   <properties>
    <property name="building_type" value="empty"/>
    <property name="can_build" type="bool" value="true"/>
    <property name="is_starting_building" type="bool" value="false"/>
   </properties>
  </object>
  <object id="1765" x="449.574" y="784.74" width="14.6589" height="14.6589">
   <properties>
    <property name="building_type" value="empty"/>
    <property name="can_build" type="bool" value="true"/>
    <property name="is_starting_building" type="bool" value="false"/>
   </properties>
  </object>
  <object id="1776" x="448.824" y="768.99" width="14.6589" height="14.6589">
   <properties>
    <property name="building_type" value="empty"/>
    <property name="can_build" type="bool" value="true"/>
    <property name="is_starting_building" type="bool" value="false"/>
   </properties>
  </object>
  <object id="1774" x="417.074" y="753.24" width="14.6589" height="14.6589">
   <properties>
    <property name="building_type" value="empty"/>
    <property name="can_build" type="bool" value="true"/>
    <property name="is_starting_building" type="bool" value="false"/>
   </properties>
  </object>
  <object id="1766" x="433.804" y="784.407" width="14.6589" height="14.6589">
   <properties>
    <property name="building_type" value="empty"/>
    <property name="can_build" type="bool" value="true"/>
    <property name="is_starting_building" type="bool" value="false"/>
   </properties>
  </object>
  <object id="1767" x="449.689" y="800.88" width="14.6589" height="14.6589">
   <properties>
    <property name="building_type" value="empty"/>
    <property name="can_build" type="bool" value="true"/>
    <property name="is_starting_building" type="bool" value="false"/>
   </properties>
  </object>
  <object id="1772" x="417.189" y="769.38" width="14.6589" height="14.6589">
   <properties>
    <property name="building_type" value="empty"/>
    <property name="can_build" type="bool" value="true"/>
    <property name="is_starting_building" type="bool" value="false"/>
   </properties>
  </object>
  <object id="1768" x="449.877" y="816.648" width="14.6589" height="14.6589">
   <properties>
    <property name="building_type" value="empty"/>
    <property name="can_build" type="bool" value="true"/>
    <property name="is_starting_building" type="bool" value="false"/>
   </properties>
  </object>
  <object id="1769" x="465.599" y="800.364" width="14.6589" height="14.6589">
   <properties>
    <property name="building_type" value="empty"/>
    <property name="can_build" type="bool" value="true"/>
    <property name="is_starting_building" type="bool" value="false"/>
   </properties>
  </object>
  <object id="1779" x="465.099" y="737.864" width="14.6589" height="14.6589">
   <properties>
    <property name="building_type" value="empty"/>
    <property name="can_build" type="bool" value="true"/>
    <property name="is_starting_building" type="bool" value="false"/>
   </properties>
  </object>
  <object id="1773" x="433.099" y="768.864" width="14.6589" height="14.6589">
   <properties>
    <property name="building_type" value="empty"/>
    <property name="can_build" type="bool" value="true"/>
    <property name="is_starting_building" type="bool" value="false"/>
   </properties>
  </object>
  <object id="1770" x="465.537" y="816.343" width="14.6589" height="14.6589">
   <properties>
    <property name="building_type" value="empty"/>
    <property name="can_build" type="bool" value="true"/>
    <property name="is_starting_building" type="bool" value="false"/>
   </properties>
  </object>
  <object id="1778" x="465.037" y="753.843" width="14.6589" height="14.6589">
   <properties>
    <property name="building_type" value="empty"/>
    <property name="can_build" type="bool" value="true"/>
    <property name="is_starting_building" type="bool" value="false"/>
   </properties>
  </object>
  <object id="1771" x="465.779" y="784.194" width="14.6589" height="14.6589">
   <properties>
    <property name="building_type" value="empty"/>
    <property name="can_build" type="bool" value="true"/>
    <property name="is_starting_building" type="bool" value="false"/>
   </properties>
  </object>
  <object id="1780" x="465.279" y="721.694" width="14.6589" height="14.6589">
   <properties>
    <property name="building_type" value="empty"/>
    <property name="can_build" type="bool" value="true"/>
    <property name="is_starting_building" type="bool" value="false"/>
   </properties>
  </object>
  <object id="1777" x="465.029" y="768.444" width="14.6589" height="14.6589">
   <properties>
    <property name="building_type" value="empty"/>
    <property name="can_build" type="bool" value="true"/>
    <property name="is_starting_building" type="bool" value="false"/>
   </properties>
  </object>
  <object id="1775" x="433.279" y="752.694" width="14.6589" height="14.6589">
   <properties>
    <property name="building_type" value="empty"/>
    <property name="can_build" type="bool" value="true"/>
    <property name="is_starting_building" type="bool" value="false"/>
   </properties>
  </object>
  <object id="1782" x="480.874" y="768.827" width="14.6589" height="14.6589">
   <properties>
    <property name="building_type" value="empty"/>
    <property name="can_build" type="bool" value="true"/>
    <property name="is_starting_building" type="bool" value="false"/>
   </properties>
  </object>
  <object id="1783" x="480.812" y="784.806" width="14.6589" height="14.6589">
   <properties>
    <property name="building_type" value="empty"/>
    <property name="can_build" type="bool" value="true"/>
    <property name="is_starting_building" type="bool" value="false"/>
   </properties>
  </object>
  <object id="1784" x="496.824" y="752.99" width="14.6589" height="14.6589">
   <properties>
    <property name="building_type" value="empty"/>
    <property name="can_build" type="bool" value="true"/>
    <property name="is_starting_building" type="bool" value="false"/>
   </properties>
  </object>
  <object id="1785" x="481.054" y="752.657" width="14.6589" height="14.6589">
   <properties>
    <property name="building_type" value="empty"/>
    <property name="can_build" type="bool" value="true"/>
    <property name="is_starting_building" type="bool" value="false"/>
   </properties>
  </object>
  <object id="1786" x="496.939" y="769.13" width="14.6589" height="14.6589">
   <properties>
    <property name="building_type" value="empty"/>
    <property name="can_build" type="bool" value="true"/>
    <property name="is_starting_building" type="bool" value="false"/>
   </properties>
  </object>
  <object id="1787" x="497.127" y="784.898" width="14.6589" height="14.6589">
   <properties>
    <property name="building_type" value="empty"/>
    <property name="can_build" type="bool" value="true"/>
    <property name="is_starting_building" type="bool" value="false"/>
   </properties>
  </object>
  <object id="1791" x="481.377" y="800.398" width="14.6589" height="14.6589">
   <properties>
    <property name="building_type" value="empty"/>
    <property name="can_build" type="bool" value="true"/>
    <property name="is_starting_building" type="bool" value="false"/>
   </properties>
  </object>
  <object id="1788" x="512.849" y="768.614" width="14.6589" height="14.6589">
   <properties>
    <property name="building_type" value="empty"/>
    <property name="can_build" type="bool" value="true"/>
    <property name="is_starting_building" type="bool" value="false"/>
   </properties>
  </object>
  <object id="1789" x="512.787" y="784.593" width="14.6589" height="14.6589">
   <properties>
    <property name="building_type" value="empty"/>
    <property name="can_build" type="bool" value="true"/>
    <property name="is_starting_building" type="bool" value="false"/>
   </properties>
  </object>
  <object id="1792" x="497.037" y="800.093" width="14.6589" height="14.6589">
   <properties>
    <property name="building_type" value="empty"/>
    <property name="can_build" type="bool" value="true"/>
    <property name="is_starting_building" type="bool" value="false"/>
   </properties>
  </object>
  <object id="1793" x="480.537" y="816.343" width="14.6589" height="14.6589">
   <properties>
    <property name="building_type" value="empty"/>
    <property name="can_build" type="bool" value="true"/>
    <property name="is_starting_building" type="bool" value="false"/>
   </properties>
  </object>
  <object id="1790" x="513.029" y="752.444" width="14.6589" height="14.6589">
   <properties>
    <property name="building_type" value="empty"/>
    <property name="can_build" type="bool" value="true"/>
    <property name="is_starting_building" type="bool" value="false"/>
   </properties>
  </object>
  <object id="1794" x="529.291" y="767.827" width="14.6589" height="14.6589">
   <properties>
    <property name="building_type" value="empty"/>
    <property name="can_build" type="bool" value="true"/>
    <property name="is_starting_building" type="bool" value="false"/>
   </properties>
  </object>
  <object id="1795" x="529.229" y="783.806" width="14.6589" height="14.6589">
   <properties>
    <property name="building_type" value="empty"/>
    <property name="can_build" type="bool" value="true"/>
    <property name="is_starting_building" type="bool" value="false"/>
   </properties>
  </object>
  <object id="1796" x="545.241" y="751.99" width="14.6589" height="14.6589">
   <properties>
    <property name="building_type" value="empty"/>
    <property name="can_build" type="bool" value="true"/>
    <property name="is_starting_building" type="bool" value="false"/>
   </properties>
  </object>
  <object id="1797" x="529.471" y="751.657" width="14.6589" height="14.6589">
   <properties>
    <property name="building_type" value="empty"/>
    <property name="can_build" type="bool" value="true"/>
    <property name="is_starting_building" type="bool" value="false"/>
   </properties>
  </object>
  <object id="1798" x="545.356" y="768.13" width="14.6589" height="14.6589">
   <properties>
    <property name="building_type" value="empty"/>
    <property name="can_build" type="bool" value="true"/>
    <property name="is_starting_building" type="bool" value="false"/>
   </properties>
  </object>
  <object id="1799" x="545.544" y="783.898" width="14.6589" height="14.6589">
   <properties>
    <property name="building_type" value="empty"/>
    <property name="can_build" type="bool" value="true"/>
    <property name="is_starting_building" type="bool" value="false"/>
   </properties>
  </object>
  <object id="1800" x="561.266" y="767.614" width="14.6589" height="14.6589">
   <properties>
    <property name="building_type" value="empty"/>
    <property name="can_build" type="bool" value="true"/>
    <property name="is_starting_building" type="bool" value="false"/>
   </properties>
  </object>
  <object id="1801" x="561.204" y="783.593" width="14.6589" height="14.6589">
   <properties>
    <property name="building_type" value="empty"/>
    <property name="can_build" type="bool" value="true"/>
    <property name="is_starting_building" type="bool" value="false"/>
   </properties>
  </object>
  <object id="1802" x="561.446" y="751.444" width="14.6589" height="14.6589">
   <properties>
    <property name="building_type" value="empty"/>
    <property name="can_build" type="bool" value="true"/>
    <property name="is_starting_building" type="bool" value="false"/>
   </properties>
  </object>
  <object id="1803" x="576.957" y="768.827" width="14.6589" height="14.6589">
   <properties>
    <property name="building_type" value="empty"/>
    <property name="can_build" type="bool" value="true"/>
    <property name="is_starting_building" type="bool" value="false"/>
   </properties>
  </object>
  <object id="1804" x="576.895" y="784.806" width="14.6589" height="14.6589">
   <properties>
    <property name="building_type" value="empty"/>
    <property name="can_build" type="bool" value="true"/>
    <property name="is_starting_building" type="bool" value="false"/>
   </properties>
  </object>
  <object id="1805" x="592.907" y="752.99" width="14.6589" height="14.6589">
   <properties>
    <property name="building_type" value="empty"/>
    <property name="can_build" type="bool" value="true"/>
    <property name="is_starting_building" type="bool" value="false"/>
   </properties>
  </object>
  <object id="1806" x="577.137" y="752.657" width="14.6589" height="14.6589">
   <properties>
    <property name="building_type" value="empty"/>
    <property name="can_build" type="bool" value="true"/>
    <property name="is_starting_building" type="bool" value="false"/>
   </properties>
  </object>
  <object id="1807" x="593.022" y="769.13" width="14.6589" height="14.6589">
   <properties>
    <property name="building_type" value="empty"/>
    <property name="can_build" type="bool" value="true"/>
    <property name="is_starting_building" type="bool" value="false"/>
   </properties>
  </object>
  <object id="1808" x="593.21" y="784.898" width="14.6589" height="14.6589">
   <properties>
    <property name="building_type" value="empty"/>
    <property name="can_build" type="bool" value="true"/>
    <property name="is_starting_building" type="bool" value="false"/>
   </properties>
  </object>
  <object id="1809" x="608.932" y="768.614" width="14.6589" height="14.6589">
   <properties>
    <property name="building_type" value="empty"/>
    <property name="can_build" type="bool" value="true"/>
    <property name="is_starting_building" type="bool" value="false"/>
   </properties>
  </object>
  <object id="1810" x="608.87" y="784.593" width="14.6589" height="14.6589">
   <properties>
    <property name="building_type" value="empty"/>
    <property name="can_build" type="bool" value="true"/>
    <property name="is_starting_building" type="bool" value="false"/>
   </properties>
  </object>
  <object id="1811" x="609.112" y="752.444" width="14.6589" height="14.6589">
   <properties>
    <property name="building_type" value="empty"/>
    <property name="can_build" type="bool" value="true"/>
    <property name="is_starting_building" type="bool" value="false"/>
   </properties>
  </object>
  <object id="1812" x="624.874" y="768.577" width="14.6589" height="14.6589">
   <properties>
    <property name="building_type" value="empty"/>
    <property name="can_build" type="bool" value="true"/>
    <property name="is_starting_building" type="bool" value="false"/>
   </properties>
  </object>
  <object id="1813" x="624.812" y="784.556" width="14.6589" height="14.6589">
   <properties>
    <property name="building_type" value="empty"/>
    <property name="can_build" type="bool" value="true"/>
    <property name="is_starting_building" type="bool" value="false"/>
   </properties>
  </object>
  <object id="1815" x="625.054" y="752.407" width="14.6589" height="14.6589">
   <properties>
    <property name="building_type" value="empty"/>
    <property name="can_build" type="bool" value="true"/>
    <property name="is_starting_building" type="bool" value="false"/>
   </properties>
  </object>
  <object id="1821" x="592.624" y="721.077" width="14.6589" height="14.6589">
   <properties>
    <property name="building_type" value="empty"/>
    <property name="can_build" type="bool" value="true"/>
    <property name="is_starting_building" type="bool" value="false"/>
   </properties>
  </object>
  <object id="1822" x="592.562" y="737.056" width="14.6589" height="14.6589">
   <properties>
    <property name="building_type" value="empty"/>
    <property name="can_build" type="bool" value="true"/>
    <property name="is_starting_building" type="bool" value="false"/>
   </properties>
  </object>
  <object id="1823" x="608.574" y="705.24" width="14.6589" height="14.6589">
   <properties>
    <property name="building_type" value="empty"/>
    <property name="can_build" type="bool" value="true"/>
    <property name="is_starting_building" type="bool" value="false"/>
   </properties>
  </object>
  <object id="1824" x="592.804" y="704.907" width="14.6589" height="14.6589">
   <properties>
    <property name="building_type" value="empty"/>
    <property name="can_build" type="bool" value="true"/>
    <property name="is_starting_building" type="bool" value="false"/>
   </properties>
  </object>
  <object id="1825" x="608.689" y="721.38" width="14.6589" height="14.6589">
   <properties>
    <property name="building_type" value="empty"/>
    <property name="can_build" type="bool" value="true"/>
    <property name="is_starting_building" type="bool" value="false"/>
   </properties>
  </object>
  <object id="1826" x="608.877" y="737.148" width="14.6589" height="14.6589">
   <properties>
    <property name="building_type" value="empty"/>
    <property name="can_build" type="bool" value="true"/>
    <property name="is_starting_building" type="bool" value="false"/>
   </properties>
  </object>
  <object id="1827" x="624.599" y="720.864" width="14.6589" height="14.6589">
   <properties>
    <property name="building_type" value="empty"/>
    <property name="can_build" type="bool" value="true"/>
    <property name="is_starting_building" type="bool" value="false"/>
   </properties>
  </object>
  <object id="1828" x="624.537" y="736.843" width="14.6589" height="14.6589">
   <properties>
    <property name="building_type" value="empty"/>
    <property name="can_build" type="bool" value="true"/>
    <property name="is_starting_building" type="bool" value="false"/>
   </properties>
  </object>
  <object id="1829" x="624.779" y="704.694" width="14.6589" height="14.6589">
   <properties>
    <property name="building_type" value="empty"/>
    <property name="can_build" type="bool" value="true"/>
    <property name="is_starting_building" type="bool" value="false"/>
   </properties>
  </object>
  <object id="1830" x="593.124" y="817.077" width="14.6589" height="14.6589">
   <properties>
    <property name="building_type" value="empty"/>
    <property name="can_build" type="bool" value="true"/>
    <property name="is_starting_building" type="bool" value="false"/>
   </properties>
  </object>
  <object id="1831" x="593.062" y="833.056" width="14.6589" height="14.6589">
   <properties>
    <property name="building_type" value="empty"/>
    <property name="can_build" type="bool" value="true"/>
    <property name="is_starting_building" type="bool" value="false"/>
   </properties>
  </object>
  <object id="1832" x="609.074" y="801.24" width="14.6589" height="14.6589">
   <properties>
    <property name="building_type" value="empty"/>
    <property name="can_build" type="bool" value="true"/>
    <property name="is_starting_building" type="bool" value="false"/>
   </properties>
  </object>
  <object id="1833" x="593.304" y="800.907" width="14.6589" height="14.6589">
   <properties>
    <property name="building_type" value="empty"/>
    <property name="can_build" type="bool" value="true"/>
    <property name="is_starting_building" type="bool" value="false"/>
   </properties>
  </object>
  <object id="1835" x="609.377" y="833.148" width="14.6589" height="14.6589">
   <properties>
    <property name="building_type" value="empty"/>
    <property name="can_build" type="bool" value="true"/>
    <property name="is_starting_building" type="bool" value="false"/>
   </properties>
  </object>
  <object id="1836" x="625.099" y="816.864" width="14.6589" height="14.6589">
   <properties>
    <property name="building_type" value="empty"/>
    <property name="can_build" type="bool" value="true"/>
    <property name="is_starting_building" type="bool" value="false"/>
   </properties>
  </object>
  <object id="1837" x="625.037" y="832.843" width="14.6589" height="14.6589">
   <properties>
    <property name="building_type" value="empty"/>
    <property name="can_build" type="bool" value="true"/>
    <property name="is_starting_building" type="bool" value="false"/>
   </properties>
  </object>
  <object id="1838" x="625.279" y="800.694" width="14.6589" height="14.6589">
   <properties>
    <property name="building_type" value="empty"/>
    <property name="can_build" type="bool" value="true"/>
    <property name="is_starting_building" type="bool" value="false"/>
   </properties>
  </object>
  <object id="1841" x="561.324" y="800.74" width="14.6589" height="14.6589">
   <properties>
    <property name="building_type" value="empty"/>
    <property name="can_build" type="bool" value="true"/>
    <property name="is_starting_building" type="bool" value="false"/>
   </properties>
  </object>
  <object id="1843" x="561.439" y="816.88" width="14.6589" height="14.6589">
   <properties>
    <property name="building_type" value="empty"/>
    <property name="can_build" type="bool" value="true"/>
    <property name="is_starting_building" type="bool" value="false"/>
   </properties>
  </object>
  <object id="1844" x="561.627" y="832.648" width="14.6589" height="14.6589">
   <properties>
    <property name="building_type" value="empty"/>
    <property name="can_build" type="bool" value="true"/>
    <property name="is_starting_building" type="bool" value="false"/>
   </properties>
  </object>
  <object id="1845" x="577.349" y="816.364" width="14.6589" height="14.6589">
   <properties>
    <property name="building_type" value="empty"/>
    <property name="can_build" type="bool" value="true"/>
    <property name="is_starting_building" type="bool" value="false"/>
   </properties>
  </object>
  <object id="1846" x="577.287" y="832.343" width="14.6589" height="14.6589">
   <properties>
    <property name="building_type" value="empty"/>
    <property name="can_build" type="bool" value="true"/>
    <property name="is_starting_building" type="bool" value="false"/>
   </properties>
  </object>
  <object id="1847" x="577.529" y="800.194" width="14.6589" height="14.6589">
   <properties>
    <property name="building_type" value="empty"/>
    <property name="can_build" type="bool" value="true"/>
    <property name="is_starting_building" type="bool" value="false"/>
   </properties>
  </object>
  <object id="1850" x="608.074" y="848.24" width="14.6589" height="14.6589">
   <properties>
    <property name="building_type" value="empty"/>
    <property name="can_build" type="bool" value="true"/>
    <property name="is_starting_building" type="bool" value="false"/>
   </properties>
  </object>
  <object id="1851" x="592.304" y="847.907" width="14.6589" height="14.6589">
   <properties>
    <property name="building_type" value="empty"/>
    <property name="can_build" type="bool" value="true"/>
    <property name="is_starting_building" type="bool" value="false"/>
   </properties>
  </object>
  <object id="1856" x="624.279" y="847.694" width="14.6589" height="14.6589">
   <properties>
    <property name="building_type" value="empty"/>
    <property name="can_build" type="bool" value="true"/>
    <property name="is_starting_building" type="bool" value="false"/>
   </properties>
  </object>
  <object id="1857" x="512.624" y="880.827" width="14.6589" height="14.6589">
   <properties>
    <property name="building_type" value="empty"/>
    <property name="can_build" type="bool" value="true"/>
    <property name="is_starting_building" type="bool" value="false"/>
   </properties>
  </object>
  <object id="1858" x="512.562" y="896.806" width="14.6589" height="14.6589">
   <properties>
    <property name="building_type" value="empty"/>
    <property name="can_build" type="bool" value="true"/>
    <property name="is_starting_building" type="bool" value="false"/>
   </properties>
  </object>
  <object id="1859" x="528.574" y="864.99" width="14.6589" height="14.6589">
   <properties>
    <property name="building_type" value="empty"/>
    <property name="can_build" type="bool" value="true"/>
    <property name="is_starting_building" type="bool" value="false"/>
   </properties>
  </object>
  <object id="1860" x="512.804" y="864.657" width="14.6589" height="14.6589">
   <properties>
    <property name="building_type" value="empty"/>
    <property name="can_build" type="bool" value="true"/>
    <property name="is_starting_building" type="bool" value="false"/>
   </properties>
  </object>
  <object id="1861" x="528.689" y="881.13" width="14.6589" height="14.6589">
   <properties>
    <property name="building_type" value="empty"/>
    <property name="can_build" type="bool" value="true"/>
    <property name="is_starting_building" type="bool" value="false"/>
   </properties>
  </object>
  <object id="1862" x="528.877" y="896.898" width="14.6589" height="14.6589">
   <properties>
    <property name="building_type" value="empty"/>
    <property name="can_build" type="bool" value="true"/>
    <property name="is_starting_building" type="bool" value="false"/>
   </properties>
  </object>
  <object id="1863" x="544.599" y="880.614" width="14.6589" height="14.6589">
   <properties>
    <property name="building_type" value="empty"/>
    <property name="can_build" type="bool" value="true"/>
    <property name="is_starting_building" type="bool" value="false"/>
   </properties>
  </object>
  <object id="1864" x="544.537" y="896.593" width="14.6589" height="14.6589">
   <properties>
    <property name="building_type" value="empty"/>
    <property name="can_build" type="bool" value="true"/>
    <property name="is_starting_building" type="bool" value="false"/>
   </properties>
  </object>
  <object id="1865" x="544.779" y="864.444" width="14.6589" height="14.6589">
   <properties>
    <property name="building_type" value="empty"/>
    <property name="can_build" type="bool" value="true"/>
    <property name="is_starting_building" type="bool" value="false"/>
   </properties>
  </object>
  <object id="1867" x="464.312" y="929.556" width="14.6589" height="14.6589">
   <properties>
    <property name="building_type" value="empty"/>
    <property name="can_build" type="bool" value="true"/>
    <property name="is_starting_building" type="bool" value="false"/>
   </properties>
  </object>
  <object id="1868" x="480.324" y="897.74" width="14.6589" height="14.6589">
   <properties>
    <property name="building_type" value="empty"/>
    <property name="can_build" type="bool" value="true"/>
    <property name="is_starting_building" type="bool" value="false"/>
   </properties>
  </object>
  <object id="1870" x="480.439" y="913.88" width="14.6589" height="14.6589">
   <properties>
    <property name="building_type" value="empty"/>
    <property name="can_build" type="bool" value="true"/>
    <property name="is_starting_building" type="bool" value="false"/>
   </properties>
  </object>
  <object id="1871" x="480.627" y="929.648" width="14.6589" height="14.6589">
   <properties>
    <property name="building_type" value="empty"/>
    <property name="can_build" type="bool" value="true"/>
    <property name="is_starting_building" type="bool" value="false"/>
   </properties>
  </object>
  <object id="2263" x="432.809" y="929.648" width="14.6589" height="14.6589">
   <properties>
    <property name="building_type" value="empty"/>
    <property name="can_build" type="bool" value="true"/>
    <property name="is_starting_building" type="bool" value="false"/>
   </properties>
  </object>
  <object id="1872" x="496.349" y="913.364" width="14.6589" height="14.6589">
   <properties>
    <property name="building_type" value="empty"/>
    <property name="can_build" type="bool" value="true"/>
    <property name="is_starting_building" type="bool" value="false"/>
   </properties>
  </object>
  <object id="1873" x="496.287" y="929.343" width="14.6589" height="14.6589">
   <properties>
    <property name="building_type" value="empty"/>
    <property name="can_build" type="bool" value="true"/>
    <property name="is_starting_building" type="bool" value="false"/>
   </properties>
  </object>
  <object id="2265" x="448.469" y="929.343" width="14.6589" height="14.6589">
   <properties>
    <property name="building_type" value="empty"/>
    <property name="can_build" type="bool" value="true"/>
    <property name="is_starting_building" type="bool" value="false"/>
   </properties>
  </object>
  <object id="1874" x="496.529" y="897.194" width="14.6589" height="14.6589">
   <properties>
    <property name="building_type" value="empty"/>
    <property name="can_build" type="bool" value="true"/>
    <property name="is_starting_building" type="bool" value="false"/>
   </properties>
  </object>
  <object id="1875" x="591.957" y="1088.83" width="14.6589" height="14.6589">
   <properties>
    <property name="building_type" value="empty"/>
    <property name="can_build" type="bool" value="true"/>
    <property name="is_starting_building" type="bool" value="false"/>
   </properties>
  </object>
  <object id="1930" x="399.624" y="1089.16" width="14.6589" height="14.6589">
   <properties>
    <property name="building_type" value="empty"/>
    <property name="can_build" type="bool" value="true"/>
    <property name="is_starting_building" type="bool" value="false"/>
   </properties>
  </object>
  <object id="1876" x="591.895" y="1104.81" width="14.6589" height="14.6589">
   <properties>
    <property name="building_type" value="empty"/>
    <property name="can_build" type="bool" value="true"/>
    <property name="is_starting_building" type="bool" value="false"/>
   </properties>
  </object>
  <object id="1918" x="399.562" y="1105.14" width="14.6589" height="14.6589">
   <properties>
    <property name="building_type" value="empty"/>
    <property name="can_build" type="bool" value="true"/>
    <property name="is_starting_building" type="bool" value="false"/>
   </properties>
  </object>
  <object id="1877" x="607.907" y="1072.99" width="14.6589" height="14.6589">
   <properties>
    <property name="building_type" value="empty"/>
    <property name="can_build" type="bool" value="true"/>
    <property name="is_starting_building" type="bool" value="false"/>
   </properties>
  </object>
  <object id="1938" x="415.574" y="1073.32" width="14.6589" height="14.6589">
   <properties>
    <property name="building_type" value="empty"/>
    <property name="can_build" type="bool" value="true"/>
    <property name="is_starting_building" type="bool" value="false"/>
   </properties>
  </object>
  <object id="1878" x="592.137" y="1072.66" width="14.6589" height="14.6589">
   <properties>
    <property name="building_type" value="empty"/>
    <property name="can_build" type="bool" value="true"/>
    <property name="is_starting_building" type="bool" value="false"/>
   </properties>
  </object>
  <object id="1942" x="399.804" y="1072.99" width="14.6589" height="14.6589">
   <properties>
    <property name="building_type" value="empty"/>
    <property name="can_build" type="bool" value="true"/>
    <property name="is_starting_building" type="bool" value="false"/>
   </properties>
  </object>
  <object id="1879" x="608.022" y="1089.13" width="14.6589" height="14.6589">
   <properties>
    <property name="building_type" value="empty"/>
    <property name="can_build" type="bool" value="true"/>
    <property name="is_starting_building" type="bool" value="false"/>
   </properties>
  </object>
  <object id="1925" x="415.689" y="1089.46" width="14.6589" height="14.6589">
   <properties>
    <property name="building_type" value="empty"/>
    <property name="can_build" type="bool" value="true"/>
    <property name="is_starting_building" type="bool" value="false"/>
   </properties>
  </object>
  <object id="1880" x="608.21" y="1104.9" width="14.6589" height="14.6589">
   <properties>
    <property name="building_type" value="empty"/>
    <property name="can_build" type="bool" value="true"/>
    <property name="is_starting_building" type="bool" value="false"/>
   </properties>
  </object>
  <object id="1913" x="415.877" y="1105.23" width="14.6589" height="14.6589">
   <properties>
    <property name="building_type" value="empty"/>
    <property name="can_build" type="bool" value="true"/>
    <property name="is_starting_building" type="bool" value="false"/>
   </properties>
  </object>
  <object id="1881" x="623.932" y="1088.61" width="14.6589" height="14.6589">
   <properties>
    <property name="building_type" value="empty"/>
    <property name="can_build" type="bool" value="true"/>
    <property name="is_starting_building" type="bool" value="false"/>
   </properties>
  </object>
  <object id="1934" x="431.599" y="1088.95" width="14.6589" height="14.6589">
   <properties>
    <property name="building_type" value="empty"/>
    <property name="can_build" type="bool" value="true"/>
    <property name="is_starting_building" type="bool" value="false"/>
   </properties>
  </object>
  <object id="1882" x="623.87" y="1104.59" width="14.6589" height="14.6589">
   <properties>
    <property name="building_type" value="empty"/>
    <property name="can_build" type="bool" value="true"/>
    <property name="is_starting_building" type="bool" value="false"/>
   </properties>
  </object>
  <object id="1922" x="431.537" y="1104.93" width="14.6589" height="14.6589">
   <properties>
    <property name="building_type" value="empty"/>
    <property name="can_build" type="bool" value="true"/>
    <property name="is_starting_building" type="bool" value="false"/>
   </properties>
  </object>
  <object id="1883" x="624.112" y="1072.44" width="14.6589" height="14.6589">
   <properties>
    <property name="building_type" value="empty"/>
    <property name="can_build" type="bool" value="true"/>
    <property name="is_starting_building" type="bool" value="false"/>
   </properties>
  </object>
  <object id="1946" x="431.779" y="1072.78" width="14.6589" height="14.6589">
   <properties>
    <property name="building_type" value="empty"/>
    <property name="can_build" type="bool" value="true"/>
    <property name="is_starting_building" type="bool" value="false"/>
   </properties>
  </object>
  <object id="1884" x="543.624" y="1088.83" width="14.6589" height="14.6589">
   <properties>
    <property name="building_type" value="empty"/>
    <property name="can_build" type="bool" value="true"/>
    <property name="is_starting_building" type="bool" value="false"/>
   </properties>
  </object>
  <object id="1928" x="351.291" y="1089.16" width="14.6589" height="14.6589">
   <properties>
    <property name="building_type" value="empty"/>
    <property name="can_build" type="bool" value="true"/>
    <property name="is_starting_building" type="bool" value="false"/>
   </properties>
  </object>
  <object id="1885" x="543.562" y="1104.81" width="14.6589" height="14.6589">
   <properties>
    <property name="building_type" value="empty"/>
    <property name="can_build" type="bool" value="true"/>
    <property name="is_starting_building" type="bool" value="false"/>
   </properties>
  </object>
  <object id="1916" x="351.229" y="1105.14" width="14.6589" height="14.6589">
   <properties>
    <property name="building_type" value="empty"/>
    <property name="can_build" type="bool" value="true"/>
    <property name="is_starting_building" type="bool" value="false"/>
   </properties>
  </object>
  <object id="1886" x="559.574" y="1072.99" width="14.6589" height="14.6589">
   <properties>
    <property name="building_type" value="empty"/>
    <property name="can_build" type="bool" value="true"/>
    <property name="is_starting_building" type="bool" value="false"/>
   </properties>
  </object>
  <object id="1887" x="543.804" y="1072.66" width="14.6589" height="14.6589">
   <properties>
    <property name="building_type" value="empty"/>
    <property name="can_build" type="bool" value="true"/>
    <property name="is_starting_building" type="bool" value="false"/>
   </properties>
  </object>
  <object id="1940" x="351.471" y="1072.99" width="14.6589" height="14.6589">
   <properties>
    <property name="building_type" value="empty"/>
    <property name="can_build" type="bool" value="true"/>
    <property name="is_starting_building" type="bool" value="false"/>
   </properties>
  </object>
  <object id="1888" x="559.689" y="1089.13" width="14.6589" height="14.6589">
   <properties>
    <property name="building_type" value="empty"/>
    <property name="can_build" type="bool" value="true"/>
    <property name="is_starting_building" type="bool" value="false"/>
   </properties>
  </object>
  <object id="1924" x="367.356" y="1089.46" width="14.6589" height="14.6589">
   <properties>
    <property name="building_type" value="empty"/>
    <property name="can_build" type="bool" value="true"/>
    <property name="is_starting_building" type="bool" value="false"/>
   </properties>
  </object>
  <object id="1889" x="559.877" y="1104.9" width="14.6589" height="14.6589">
   <properties>
    <property name="building_type" value="empty"/>
    <property name="can_build" type="bool" value="true"/>
    <property name="is_starting_building" type="bool" value="false"/>
   </properties>
  </object>
  <object id="1912" x="367.544" y="1105.23" width="14.6589" height="14.6589">
   <properties>
    <property name="building_type" value="empty"/>
    <property name="can_build" type="bool" value="true"/>
    <property name="is_starting_building" type="bool" value="false"/>
   </properties>
  </object>
  <object id="1890" x="575.599" y="1088.61" width="14.6589" height="14.6589">
   <properties>
    <property name="building_type" value="empty"/>
    <property name="can_build" type="bool" value="true"/>
    <property name="is_starting_building" type="bool" value="false"/>
   </properties>
  </object>
  <object id="1932" x="383.266" y="1088.95" width="14.6589" height="14.6589">
   <properties>
    <property name="building_type" value="empty"/>
    <property name="can_build" type="bool" value="true"/>
    <property name="is_starting_building" type="bool" value="false"/>
   </properties>
  </object>
  <object id="1891" x="575.537" y="1104.59" width="14.6589" height="14.6589">
   <properties>
    <property name="building_type" value="empty"/>
    <property name="can_build" type="bool" value="true"/>
    <property name="is_starting_building" type="bool" value="false"/>
   </properties>
  </object>
  <object id="1921" x="383.204" y="1104.93" width="14.6589" height="14.6589">
   <properties>
    <property name="building_type" value="empty"/>
    <property name="can_build" type="bool" value="true"/>
    <property name="is_starting_building" type="bool" value="false"/>
   </properties>
  </object>
  <object id="1892" x="575.779" y="1072.44" width="14.6589" height="14.6589">
   <properties>
    <property name="building_type" value="empty"/>
    <property name="can_build" type="bool" value="true"/>
    <property name="is_starting_building" type="bool" value="false"/>
   </properties>
  </object>
  <object id="1944" x="383.446" y="1072.78" width="14.6589" height="14.6589">
   <properties>
    <property name="building_type" value="empty"/>
    <property name="can_build" type="bool" value="true"/>
    <property name="is_starting_building" type="bool" value="false"/>
   </properties>
  </object>
  <object id="1893" x="495.957" y="1088.83" width="14.6589" height="14.6589">
   <properties>
    <property name="building_type" value="empty"/>
    <property name="can_build" type="bool" value="true"/>
    <property name="is_starting_building" type="bool" value="false"/>
   </properties>
  </object>
  <object id="1929" x="303.624" y="1089.16" width="14.6589" height="14.6589">
   <properties>
    <property name="building_type" value="empty"/>
    <property name="can_build" type="bool" value="true"/>
    <property name="is_starting_building" type="bool" value="false"/>
   </properties>
  </object>
  <object id="1894" x="495.895" y="1104.81" width="14.6589" height="14.6589">
   <properties>
    <property name="building_type" value="empty"/>
    <property name="can_build" type="bool" value="true"/>
    <property name="is_starting_building" type="bool" value="false"/>
   </properties>
  </object>
  <object id="1917" x="303.562" y="1105.14" width="14.6589" height="14.6589">
   <properties>
    <property name="building_type" value="empty"/>
    <property name="can_build" type="bool" value="true"/>
    <property name="is_starting_building" type="bool" value="false"/>
   </properties>
  </object>
  <object id="1895" x="511.907" y="1072.99" width="14.6589" height="14.6589">
   <properties>
    <property name="building_type" value="empty"/>
    <property name="can_build" type="bool" value="true"/>
    <property name="is_starting_building" type="bool" value="false"/>
   </properties>
  </object>
  <object id="1937" x="319.574" y="1073.32" width="14.6589" height="14.6589">
   <properties>
    <property name="building_type" value="empty"/>
    <property name="can_build" type="bool" value="true"/>
    <property name="is_starting_building" type="bool" value="false"/>
   </properties>
  </object>
  <object id="1896" x="496.137" y="1072.66" width="14.6589" height="14.6589">
   <properties>
    <property name="building_type" value="empty"/>
    <property name="can_build" type="bool" value="true"/>
    <property name="is_starting_building" type="bool" value="false"/>
   </properties>
  </object>
  <object id="1941" x="303.804" y="1072.99" width="14.6589" height="14.6589">
   <properties>
    <property name="building_type" value="empty"/>
    <property name="can_build" type="bool" value="true"/>
    <property name="is_starting_building" type="bool" value="false"/>
   </properties>
  </object>
  <object id="1897" x="512.022" y="1089.13" width="14.6589" height="14.6589">
   <properties>
    <property name="building_type" value="empty"/>
    <property name="can_build" type="bool" value="true"/>
    <property name="is_starting_building" type="bool" value="false"/>
   </properties>
  </object>
  <object id="1926" x="319.689" y="1089.46" width="14.6589" height="14.6589">
   <properties>
    <property name="building_type" value="empty"/>
    <property name="can_build" type="bool" value="true"/>
    <property name="is_starting_building" type="bool" value="false"/>
   </properties>
  </object>
  <object id="1898" x="512.21" y="1104.9" width="14.6589" height="14.6589">
   <properties>
    <property name="building_type" value="empty"/>
    <property name="can_build" type="bool" value="true"/>
    <property name="is_starting_building" type="bool" value="false"/>
   </properties>
  </object>
  <object id="1914" x="319.877" y="1105.23" width="14.6589" height="14.6589">
   <properties>
    <property name="building_type" value="empty"/>
    <property name="can_build" type="bool" value="true"/>
    <property name="is_starting_building" type="bool" value="false"/>
   </properties>
  </object>
  <object id="1899" x="527.932" y="1088.61" width="14.6589" height="14.6589">
   <properties>
    <property name="building_type" value="empty"/>
    <property name="can_build" type="bool" value="true"/>
    <property name="is_starting_building" type="bool" value="false"/>
   </properties>
  </object>
  <object id="1933" x="335.599" y="1088.95" width="14.6589" height="14.6589">
   <properties>
    <property name="building_type" value="empty"/>
    <property name="can_build" type="bool" value="true"/>
    <property name="is_starting_building" type="bool" value="false"/>
   </properties>
  </object>
  <object id="1900" x="527.87" y="1104.59" width="14.6589" height="14.6589">
   <properties>
    <property name="building_type" value="empty"/>
    <property name="can_build" type="bool" value="true"/>
    <property name="is_starting_building" type="bool" value="false"/>
   </properties>
  </object>
  <object id="1920" x="335.537" y="1104.93" width="14.6589" height="14.6589">
   <properties>
    <property name="building_type" value="empty"/>
    <property name="can_build" type="bool" value="true"/>
    <property name="is_starting_building" type="bool" value="false"/>
   </properties>
  </object>
  <object id="1945" x="335.779" y="1072.78" width="14.6589" height="14.6589">
   <properties>
    <property name="building_type" value="empty"/>
    <property name="can_build" type="bool" value="true"/>
    <property name="is_starting_building" type="bool" value="false"/>
   </properties>
  </object>
  <object id="1902" x="448.291" y="1088.83" width="14.6589" height="14.6589">
   <properties>
    <property name="building_type" value="empty"/>
    <property name="can_build" type="bool" value="true"/>
    <property name="is_starting_building" type="bool" value="false"/>
   </properties>
  </object>
  <object id="1927" x="255.957" y="1089.16" width="14.6589" height="14.6589">
   <properties>
    <property name="building_type" value="empty"/>
    <property name="can_build" type="bool" value="true"/>
    <property name="is_starting_building" type="bool" value="false"/>
   </properties>
  </object>
  <object id="1965" x="159.957" y="1089.16" width="14.6589" height="14.6589">
   <properties>
    <property name="building_type" value="empty"/>
    <property name="can_build" type="bool" value="true"/>
    <property name="is_starting_building" type="bool" value="false"/>
   </properties>
  </object>
  <object id="1903" x="448.229" y="1104.81" width="14.6589" height="14.6589">
   <properties>
    <property name="building_type" value="empty"/>
    <property name="can_build" type="bool" value="true"/>
    <property name="is_starting_building" type="bool" value="false"/>
   </properties>
  </object>
  <object id="1915" x="255.895" y="1105.14" width="14.6589" height="14.6589">
   <properties>
    <property name="building_type" value="empty"/>
    <property name="can_build" type="bool" value="true"/>
    <property name="is_starting_building" type="bool" value="false"/>
   </properties>
  </object>
  <object id="1959" x="159.895" y="1105.14" width="14.6589" height="14.6589">
   <properties>
    <property name="building_type" value="empty"/>
    <property name="can_build" type="bool" value="true"/>
    <property name="is_starting_building" type="bool" value="false"/>
   </properties>
  </object>
  <object id="1935" x="271.907" y="1073.32" width="14.6589" height="14.6589">
   <properties>
    <property name="building_type" value="empty"/>
    <property name="can_build" type="bool" value="true"/>
    <property name="is_starting_building" type="bool" value="false"/>
   </properties>
  </object>
  <object id="1905" x="448.471" y="1072.66" width="14.6589" height="14.6589">
   <properties>
    <property name="building_type" value="empty"/>
    <property name="can_build" type="bool" value="true"/>
    <property name="is_starting_building" type="bool" value="false"/>
   </properties>
  </object>
  <object id="1939" x="256.137" y="1072.99" width="14.6589" height="14.6589">
   <properties>
    <property name="building_type" value="empty"/>
    <property name="can_build" type="bool" value="true"/>
    <property name="is_starting_building" type="bool" value="false"/>
   </properties>
  </object>
  <object id="1971" x="160.137" y="1072.99" width="14.6589" height="14.6589">
   <properties>
    <property name="building_type" value="empty"/>
    <property name="can_build" type="bool" value="true"/>
    <property name="is_starting_building" type="bool" value="false"/>
   </properties>
  </object>
  <object id="1906" x="464.356" y="1089.13" width="14.6589" height="14.6589">
   <properties>
    <property name="building_type" value="empty"/>
    <property name="can_build" type="bool" value="true"/>
    <property name="is_starting_building" type="bool" value="false"/>
   </properties>
  </object>
  <object id="1923" x="272.022" y="1089.46" width="14.6589" height="14.6589">
   <properties>
    <property name="building_type" value="empty"/>
    <property name="can_build" type="bool" value="true"/>
    <property name="is_starting_building" type="bool" value="false"/>
   </properties>
  </object>
  <object id="1963" x="176.022" y="1089.46" width="14.6589" height="14.6589">
   <properties>
    <property name="building_type" value="empty"/>
    <property name="can_build" type="bool" value="true"/>
    <property name="is_starting_building" type="bool" value="false"/>
   </properties>
  </object>
  <object id="1911" x="272.21" y="1105.23" width="14.6589" height="14.6589">
   <properties>
    <property name="building_type" value="empty"/>
    <property name="can_build" type="bool" value="true"/>
    <property name="is_starting_building" type="bool" value="false"/>
   </properties>
  </object>
  <object id="1958" x="176.21" y="1105.23" width="14.6589" height="14.6589">
   <properties>
    <property name="building_type" value="empty"/>
    <property name="can_build" type="bool" value="true"/>
    <property name="is_starting_building" type="bool" value="false"/>
   </properties>
  </object>
  <object id="1931" x="287.932" y="1088.95" width="14.6589" height="14.6589">
   <properties>
    <property name="building_type" value="empty"/>
    <property name="can_build" type="bool" value="true"/>
    <property name="is_starting_building" type="bool" value="false"/>
   </properties>
  </object>
  <object id="1967" x="191.932" y="1088.95" width="14.6589" height="14.6589">
   <properties>
    <property name="building_type" value="empty"/>
    <property name="can_build" type="bool" value="true"/>
    <property name="is_starting_building" type="bool" value="false"/>
   </properties>
  </object>
  <object id="1919" x="287.87" y="1104.93" width="14.6589" height="14.6589">
   <properties>
    <property name="building_type" value="empty"/>
    <property name="can_build" type="bool" value="true"/>
    <property name="is_starting_building" type="bool" value="false"/>
   </properties>
  </object>
  <object id="1961" x="191.87" y="1104.93" width="14.6589" height="14.6589">
   <properties>
    <property name="building_type" value="empty"/>
    <property name="can_build" type="bool" value="true"/>
    <property name="is_starting_building" type="bool" value="false"/>
   </properties>
  </object>
  <object id="1910" x="480.446" y="1072.44" width="14.6589" height="14.6589">
   <properties>
    <property name="building_type" value="empty"/>
    <property name="can_build" type="bool" value="true"/>
    <property name="is_starting_building" type="bool" value="false"/>
   </properties>
  </object>
  <object id="1943" x="288.112" y="1072.78" width="14.6589" height="14.6589">
   <properties>
    <property name="building_type" value="empty"/>
    <property name="can_build" type="bool" value="true"/>
    <property name="is_starting_building" type="bool" value="false"/>
   </properties>
  </object>
  <object id="1973" x="192.112" y="1072.78" width="14.6589" height="14.6589">
   <properties>
    <property name="building_type" value="empty"/>
    <property name="can_build" type="bool" value="true"/>
    <property name="is_starting_building" type="bool" value="false"/>
   </properties>
  </object>
  <object id="1947" x="208.124" y="1089.33" width="14.6589" height="14.6589">
   <properties>
    <property name="building_type" value="empty"/>
    <property name="can_build" type="bool" value="true"/>
    <property name="is_starting_building" type="bool" value="false"/>
   </properties>
  </object>
  <object id="1964" x="112.124" y="1089.33" width="14.6589" height="14.6589">
   <properties>
    <property name="building_type" value="empty"/>
    <property name="can_build" type="bool" value="true"/>
    <property name="is_starting_building" type="bool" value="false"/>
   </properties>
  </object>
  <object id="1948" x="208.062" y="1105.31" width="14.6589" height="14.6589">
   <properties>
    <property name="building_type" value="empty"/>
    <property name="can_build" type="bool" value="true"/>
    <property name="is_starting_building" type="bool" value="false"/>
   </properties>
  </object>
  <object id="1957" x="112.062" y="1105.31" width="14.6589" height="14.6589">
   <properties>
    <property name="building_type" value="empty"/>
    <property name="can_build" type="bool" value="true"/>
    <property name="is_starting_building" type="bool" value="false"/>
   </properties>
  </object>
  <object id="1949" x="224.074" y="1073.49" width="14.6589" height="14.6589">
   <properties>
    <property name="building_type" value="empty"/>
    <property name="can_build" type="bool" value="true"/>
    <property name="is_starting_building" type="bool" value="false"/>
   </properties>
  </object>
  <object id="1968" x="128.074" y="1073.49" width="14.6589" height="14.6589">
   <properties>
    <property name="building_type" value="empty"/>
    <property name="can_build" type="bool" value="true"/>
    <property name="is_starting_building" type="bool" value="false"/>
   </properties>
  </object>
  <object id="1950" x="208.304" y="1073.16" width="14.6589" height="14.6589">
   <properties>
    <property name="building_type" value="empty"/>
    <property name="can_build" type="bool" value="true"/>
    <property name="is_starting_building" type="bool" value="false"/>
   </properties>
  </object>
  <object id="1970" x="112.304" y="1073.16" width="14.6589" height="14.6589">
   <properties>
    <property name="building_type" value="empty"/>
    <property name="can_build" type="bool" value="true"/>
    <property name="is_starting_building" type="bool" value="false"/>
   </properties>
  </object>
  <object id="1951" x="224.189" y="1089.63" width="14.6589" height="14.6589">
   <properties>
    <property name="building_type" value="empty"/>
    <property name="can_build" type="bool" value="true"/>
    <property name="is_starting_building" type="bool" value="false"/>
   </properties>
  </object>
  <object id="1962" x="128.189" y="1089.63" width="14.6589" height="14.6589">
   <properties>
    <property name="building_type" value="empty"/>
    <property name="can_build" type="bool" value="true"/>
    <property name="is_starting_building" type="bool" value="false"/>
   </properties>
  </object>
  <object id="1952" x="224.377" y="1105.4" width="14.6589" height="14.6589">
   <properties>
    <property name="building_type" value="empty"/>
    <property name="can_build" type="bool" value="true"/>
    <property name="is_starting_building" type="bool" value="false"/>
   </properties>
  </object>
  <object id="1956" x="128.377" y="1105.4" width="14.6589" height="14.6589">
   <properties>
    <property name="building_type" value="empty"/>
    <property name="can_build" type="bool" value="true"/>
    <property name="is_starting_building" type="bool" value="false"/>
   </properties>
  </object>
  <object id="1953" x="240.099" y="1089.11" width="14.6589" height="14.6589">
   <properties>
    <property name="building_type" value="empty"/>
    <property name="can_build" type="bool" value="true"/>
    <property name="is_starting_building" type="bool" value="false"/>
   </properties>
  </object>
  <object id="1966" x="144.099" y="1089.11" width="14.6589" height="14.6589">
   <properties>
    <property name="building_type" value="empty"/>
    <property name="can_build" type="bool" value="true"/>
    <property name="is_starting_building" type="bool" value="false"/>
   </properties>
  </object>
  <object id="1954" x="240.037" y="1105.09" width="14.6589" height="14.6589">
   <properties>
    <property name="building_type" value="empty"/>
    <property name="can_build" type="bool" value="true"/>
    <property name="is_starting_building" type="bool" value="false"/>
   </properties>
  </object>
  <object id="1960" x="144.037" y="1105.09" width="14.6589" height="14.6589">
   <properties>
    <property name="building_type" value="empty"/>
    <property name="can_build" type="bool" value="true"/>
    <property name="is_starting_building" type="bool" value="false"/>
   </properties>
  </object>
  <object id="1955" x="240.279" y="1072.94" width="14.6589" height="14.6589">
   <properties>
    <property name="building_type" value="empty"/>
    <property name="can_build" type="bool" value="true"/>
    <property name="is_starting_building" type="bool" value="false"/>
   </properties>
  </object>
  <object id="1972" x="144.279" y="1072.94" width="14.6589" height="14.6589">
   <properties>
    <property name="building_type" value="empty"/>
    <property name="can_build" type="bool" value="true"/>
    <property name="is_starting_building" type="bool" value="false"/>
   </properties>
  </object>
  <object id="1975" x="64.312" y="1105.06" width="14.6589" height="14.6589">
   <properties>
    <property name="building_type" value="empty"/>
    <property name="can_build" type="bool" value="true"/>
    <property name="is_starting_building" type="bool" value="false"/>
   </properties>
  </object>
  <object id="1976" x="80.324" y="1073.24" width="14.6589" height="14.6589">
   <properties>
    <property name="building_type" value="empty"/>
    <property name="can_build" type="bool" value="true"/>
    <property name="is_starting_building" type="bool" value="false"/>
   </properties>
  </object>
  <object id="1977" x="64.554" y="1072.91" width="14.6589" height="14.6589">
   <properties>
    <property name="building_type" value="empty"/>
    <property name="can_build" type="bool" value="true"/>
    <property name="is_starting_building" type="bool" value="false"/>
   </properties>
  </object>
  <object id="1978" x="80.4391" y="1089.38" width="14.6589" height="14.6589">
   <properties>
    <property name="building_type" value="empty"/>
    <property name="can_build" type="bool" value="true"/>
    <property name="is_starting_building" type="bool" value="false"/>
   </properties>
  </object>
  <object id="1979" x="80.627" y="1105.15" width="14.6589" height="14.6589">
   <properties>
    <property name="building_type" value="empty"/>
    <property name="can_build" type="bool" value="true"/>
    <property name="is_starting_building" type="bool" value="false"/>
   </properties>
  </object>
  <object id="1980" x="96.3491" y="1088.86" width="14.6589" height="14.6589">
   <properties>
    <property name="building_type" value="empty"/>
    <property name="can_build" type="bool" value="true"/>
    <property name="is_starting_building" type="bool" value="false"/>
   </properties>
  </object>
  <object id="1981" x="96.2871" y="1104.84" width="14.6589" height="14.6589">
   <properties>
    <property name="building_type" value="empty"/>
    <property name="can_build" type="bool" value="true"/>
    <property name="is_starting_building" type="bool" value="false"/>
   </properties>
  </object>
  <object id="1982" x="96.529" y="1072.69" width="14.6589" height="14.6589">
   <properties>
    <property name="building_type" value="empty"/>
    <property name="can_build" type="bool" value="true"/>
    <property name="is_starting_building" type="bool" value="false"/>
   </properties>
  </object>
  <object id="1983" x="16.6241" y="1089.33" width="14.6589" height="14.6589">
   <properties>
    <property name="building_type" value="empty"/>
    <property name="can_build" type="bool" value="true"/>
    <property name="is_starting_building" type="bool" value="false"/>
   </properties>
  </object>
  <object id="1984" x="16.562" y="1105.31" width="14.6589" height="14.6589">
   <properties>
    <property name="building_type" value="empty"/>
    <property name="can_build" type="bool" value="true"/>
    <property name="is_starting_building" type="bool" value="false"/>
   </properties>
  </object>
  <object id="1985" x="32.574" y="1073.49" width="14.6589" height="14.6589">
   <properties>
    <property name="building_type" value="empty"/>
    <property name="can_build" type="bool" value="true"/>
    <property name="is_starting_building" type="bool" value="false"/>
   </properties>
  </object>
  <object id="1986" x="16.804" y="1073.16" width="14.6589" height="14.6589">
   <properties>
    <property name="building_type" value="empty"/>
    <property name="can_build" type="bool" value="true"/>
    <property name="is_starting_building" type="bool" value="false"/>
   </properties>
  </object>
  <object id="1987" x="32.6891" y="1089.63" width="14.6589" height="14.6589">
   <properties>
    <property name="building_type" value="empty"/>
    <property name="can_build" type="bool" value="true"/>
    <property name="is_starting_building" type="bool" value="false"/>
   </properties>
  </object>
  <object id="1988" x="32.877" y="1105.4" width="14.6589" height="14.6589">
   <properties>
    <property name="building_type" value="empty"/>
    <property name="can_build" type="bool" value="true"/>
    <property name="is_starting_building" type="bool" value="false"/>
   </properties>
  </object>
  <object id="1989" x="48.5991" y="1089.11" width="14.6589" height="14.6589">
   <properties>
    <property name="building_type" value="empty"/>
    <property name="can_build" type="bool" value="true"/>
    <property name="is_starting_building" type="bool" value="false"/>
   </properties>
  </object>
  <object id="1990" x="48.5371" y="1105.09" width="14.6589" height="14.6589">
   <properties>
    <property name="building_type" value="empty"/>
    <property name="can_build" type="bool" value="true"/>
    <property name="is_starting_building" type="bool" value="false"/>
   </properties>
  </object>
  <object id="1991" x="48.779" y="1072.94" width="14.6589" height="14.6589">
   <properties>
    <property name="building_type" value="empty"/>
    <property name="can_build" type="bool" value="true"/>
    <property name="is_starting_building" type="bool" value="false"/>
   </properties>
  </object>
  <object id="1998" x="1.09905" y="1089.36" width="14.6589" height="14.6589">
   <properties>
    <property name="building_type" value="empty"/>
    <property name="can_build" type="bool" value="true"/>
    <property name="is_starting_building" type="bool" value="false"/>
   </properties>
  </object>
  <object id="1999" x="1.03705" y="1105.34" width="14.6589" height="14.6589">
   <properties>
    <property name="building_type" value="empty"/>
    <property name="can_build" type="bool" value="true"/>
    <property name="is_starting_building" type="bool" value="false"/>
   </properties>
  </object>
  <object id="2000" x="1.27905" y="1073.19" width="14.6589" height="14.6589">
   <properties>
    <property name="building_type" value="empty"/>
    <property name="can_build" type="bool" value="true"/>
    <property name="is_starting_building" type="bool" value="false"/>
   </properties>
  </object>
  <object id="2002" x="592.229" y="1056.81" width="14.6589" height="14.6589">
   <properties>
    <property name="building_type" value="empty"/>
    <property name="can_build" type="bool" value="true"/>
    <property name="is_starting_building" type="bool" value="false"/>
   </properties>
  </object>
  <object id="2003" x="608.241" y="1024.99" width="14.6589" height="14.6589">
   <properties>
    <property name="building_type" value="empty"/>
    <property name="can_build" type="bool" value="true"/>
    <property name="is_starting_building" type="bool" value="false"/>
   </properties>
  </object>
  <object id="2004" x="592.471" y="1024.66" width="14.6589" height="14.6589">
   <properties>
    <property name="building_type" value="empty"/>
    <property name="can_build" type="bool" value="true"/>
    <property name="is_starting_building" type="bool" value="false"/>
   </properties>
  </object>
  <object id="2005" x="608.356" y="1041.13" width="14.6589" height="14.6589">
   <properties>
    <property name="building_type" value="empty"/>
    <property name="can_build" type="bool" value="true"/>
    <property name="is_starting_building" type="bool" value="false"/>
   </properties>
  </object>
  <object id="2006" x="608.544" y="1056.9" width="14.6589" height="14.6589">
   <properties>
    <property name="building_type" value="empty"/>
    <property name="can_build" type="bool" value="true"/>
    <property name="is_starting_building" type="bool" value="false"/>
   </properties>
  </object>
  <object id="2007" x="624.266" y="1040.61" width="14.6589" height="14.6589">
   <properties>
    <property name="building_type" value="empty"/>
    <property name="can_build" type="bool" value="true"/>
    <property name="is_starting_building" type="bool" value="false"/>
   </properties>
  </object>
  <object id="2008" x="624.204" y="1056.59" width="14.6589" height="14.6589">
   <properties>
    <property name="building_type" value="empty"/>
    <property name="can_build" type="bool" value="true"/>
    <property name="is_starting_building" type="bool" value="false"/>
   </properties>
  </object>
  <object id="2009" x="624.446" y="1024.44" width="14.6589" height="14.6589">
   <properties>
    <property name="building_type" value="empty"/>
    <property name="can_build" type="bool" value="true"/>
    <property name="is_starting_building" type="bool" value="false"/>
   </properties>
  </object>
  <object id="2010" x="543.957" y="1040.83" width="14.6589" height="14.6589">
   <properties>
    <property name="building_type" value="empty"/>
    <property name="can_build" type="bool" value="true"/>
    <property name="is_starting_building" type="bool" value="false"/>
   </properties>
  </object>
  <object id="2011" x="543.895" y="1056.81" width="14.6589" height="14.6589">
   <properties>
    <property name="building_type" value="empty"/>
    <property name="can_build" type="bool" value="true"/>
    <property name="is_starting_building" type="bool" value="false"/>
   </properties>
  </object>
  <object id="2012" x="559.907" y="1024.99" width="14.6589" height="14.6589">
   <properties>
    <property name="building_type" value="empty"/>
    <property name="can_build" type="bool" value="true"/>
    <property name="is_starting_building" type="bool" value="false"/>
   </properties>
  </object>
  <object id="2013" x="544.137" y="1024.66" width="14.6589" height="14.6589">
   <properties>
    <property name="building_type" value="empty"/>
    <property name="can_build" type="bool" value="true"/>
    <property name="is_starting_building" type="bool" value="false"/>
   </properties>
  </object>
  <object id="2014" x="560.022" y="1041.13" width="14.6589" height="14.6589">
   <properties>
    <property name="building_type" value="empty"/>
    <property name="can_build" type="bool" value="true"/>
    <property name="is_starting_building" type="bool" value="false"/>
   </properties>
  </object>
  <object id="2015" x="560.21" y="1056.9" width="14.6589" height="14.6589">
   <properties>
    <property name="building_type" value="empty"/>
    <property name="can_build" type="bool" value="true"/>
    <property name="is_starting_building" type="bool" value="false"/>
   </properties>
  </object>
  <object id="2016" x="575.932" y="1040.61" width="14.6589" height="14.6589">
   <properties>
    <property name="building_type" value="empty"/>
    <property name="can_build" type="bool" value="true"/>
    <property name="is_starting_building" type="bool" value="false"/>
   </properties>
  </object>
  <object id="2017" x="575.87" y="1056.59" width="14.6589" height="14.6589">
   <properties>
    <property name="building_type" value="empty"/>
    <property name="can_build" type="bool" value="true"/>
    <property name="is_starting_building" type="bool" value="false"/>
   </properties>
  </object>
  <object id="2018" x="576.112" y="1024.44" width="14.6589" height="14.6589">
   <properties>
    <property name="building_type" value="empty"/>
    <property name="can_build" type="bool" value="true"/>
    <property name="is_starting_building" type="bool" value="false"/>
   </properties>
  </object>
  <object id="2019" x="495.957" y="1040.49" width="14.6589" height="14.6589">
   <properties>
    <property name="building_type" value="empty"/>
    <property name="can_build" type="bool" value="true"/>
    <property name="is_starting_building" type="bool" value="false"/>
   </properties>
  </object>
  <object id="2068" x="384.291" y="1040.83" width="14.6589" height="14.6589">
   <properties>
    <property name="building_type" value="empty"/>
    <property name="can_build" type="bool" value="true"/>
    <property name="is_starting_building" type="bool" value="false"/>
   </properties>
  </object>
  <object id="2089" x="272.957" y="1041.83" width="14.6589" height="14.6589">
   <properties>
    <property name="building_type" value="empty"/>
    <property name="can_build" type="bool" value="true"/>
    <property name="is_starting_building" type="bool" value="false"/>
   </properties>
  </object>
  <object id="2020" x="495.895" y="1056.47" width="14.6589" height="14.6589">
   <properties>
    <property name="building_type" value="empty"/>
    <property name="can_build" type="bool" value="true"/>
    <property name="is_starting_building" type="bool" value="false"/>
   </properties>
  </object>
  <object id="2061" x="384.229" y="1056.81" width="14.6589" height="14.6589">
   <properties>
    <property name="building_type" value="empty"/>
    <property name="can_build" type="bool" value="true"/>
    <property name="is_starting_building" type="bool" value="false"/>
   </properties>
  </object>
  <object id="2082" x="272.895" y="1057.81" width="14.6589" height="14.6589">
   <properties>
    <property name="building_type" value="empty"/>
    <property name="can_build" type="bool" value="true"/>
    <property name="is_starting_building" type="bool" value="false"/>
   </properties>
  </object>
  <object id="2022" x="496.137" y="1024.32" width="14.6589" height="14.6589">
   <properties>
    <property name="building_type" value="empty"/>
    <property name="can_build" type="bool" value="true"/>
    <property name="is_starting_building" type="bool" value="false"/>
   </properties>
  </object>
  <object id="2075" x="384.471" y="1024.66" width="14.6589" height="14.6589">
   <properties>
    <property name="building_type" value="empty"/>
    <property name="can_build" type="bool" value="true"/>
    <property name="is_starting_building" type="bool" value="false"/>
   </properties>
  </object>
  <object id="2096" x="273.137" y="1025.66" width="14.6589" height="14.6589">
   <properties>
    <property name="building_type" value="empty"/>
    <property name="can_build" type="bool" value="true"/>
    <property name="is_starting_building" type="bool" value="false"/>
   </properties>
  </object>
  <object id="2023" x="512.022" y="1040.8" width="14.6589" height="14.6589">
   <properties>
    <property name="building_type" value="empty"/>
    <property name="can_build" type="bool" value="true"/>
    <property name="is_starting_building" type="bool" value="false"/>
   </properties>
  </object>
  <object id="2025" x="527.932" y="1040.28" width="14.6589" height="14.6589">
   <properties>
    <property name="building_type" value="empty"/>
    <property name="can_build" type="bool" value="true"/>
    <property name="is_starting_building" type="bool" value="false"/>
   </properties>
  </object>
  <object id="2027" x="528.112" y="1024.11" width="14.6589" height="14.6589">
   <properties>
    <property name="building_type" value="empty"/>
    <property name="can_build" type="bool" value="true"/>
    <property name="is_starting_building" type="bool" value="false"/>
   </properties>
  </object>
  <object id="2028" x="448.624" y="1040.83" width="14.6589" height="14.6589">
   <properties>
    <property name="building_type" value="empty"/>
    <property name="can_build" type="bool" value="true"/>
    <property name="is_starting_building" type="bool" value="false"/>
   </properties>
  </object>
  <object id="2066" x="336.957" y="1041.16" width="14.6589" height="14.6589">
   <properties>
    <property name="building_type" value="empty"/>
    <property name="can_build" type="bool" value="true"/>
    <property name="is_starting_building" type="bool" value="false"/>
   </properties>
  </object>
  <object id="2087" x="225.624" y="1042.16" width="14.6589" height="14.6589">
   <properties>
    <property name="building_type" value="empty"/>
    <property name="can_build" type="bool" value="true"/>
    <property name="is_starting_building" type="bool" value="false"/>
   </properties>
  </object>
  <object id="2029" x="448.562" y="1056.81" width="14.6589" height="14.6589">
   <properties>
    <property name="building_type" value="empty"/>
    <property name="can_build" type="bool" value="true"/>
    <property name="is_starting_building" type="bool" value="false"/>
   </properties>
  </object>
  <object id="2059" x="336.895" y="1057.14" width="14.6589" height="14.6589">
   <properties>
    <property name="building_type" value="empty"/>
    <property name="can_build" type="bool" value="true"/>
    <property name="is_starting_building" type="bool" value="false"/>
   </properties>
  </object>
  <object id="2080" x="225.562" y="1058.14" width="14.6589" height="14.6589">
   <properties>
    <property name="building_type" value="empty"/>
    <property name="can_build" type="bool" value="true"/>
    <property name="is_starting_building" type="bool" value="false"/>
   </properties>
  </object>
  <object id="2030" x="464.574" y="1024.99" width="14.6589" height="14.6589">
   <properties>
    <property name="building_type" value="empty"/>
    <property name="can_build" type="bool" value="true"/>
    <property name="is_starting_building" type="bool" value="false"/>
   </properties>
  </object>
  <object id="2071" x="352.907" y="1025.32" width="14.6589" height="14.6589">
   <properties>
    <property name="building_type" value="empty"/>
    <property name="can_build" type="bool" value="true"/>
    <property name="is_starting_building" type="bool" value="false"/>
   </properties>
  </object>
  <object id="2092" x="241.574" y="1026.32" width="14.6589" height="14.6589">
   <properties>
    <property name="building_type" value="empty"/>
    <property name="can_build" type="bool" value="true"/>
    <property name="is_starting_building" type="bool" value="false"/>
   </properties>
  </object>
  <object id="2031" x="448.804" y="1024.66" width="14.6589" height="14.6589">
   <properties>
    <property name="building_type" value="empty"/>
    <property name="can_build" type="bool" value="true"/>
    <property name="is_starting_building" type="bool" value="false"/>
   </properties>
  </object>
  <object id="2073" x="337.137" y="1024.99" width="14.6589" height="14.6589">
   <properties>
    <property name="building_type" value="empty"/>
    <property name="can_build" type="bool" value="true"/>
    <property name="is_starting_building" type="bool" value="false"/>
   </properties>
  </object>
  <object id="2094" x="225.804" y="1025.99" width="14.6589" height="14.6589">
   <properties>
    <property name="building_type" value="empty"/>
    <property name="can_build" type="bool" value="true"/>
    <property name="is_starting_building" type="bool" value="false"/>
   </properties>
  </object>
  <object id="2032" x="464.689" y="1041.13" width="14.6589" height="14.6589">
   <properties>
    <property name="building_type" value="empty"/>
    <property name="can_build" type="bool" value="true"/>
    <property name="is_starting_building" type="bool" value="false"/>
   </properties>
  </object>
  <object id="2064" x="353.022" y="1041.46" width="14.6589" height="14.6589">
   <properties>
    <property name="building_type" value="empty"/>
    <property name="can_build" type="bool" value="true"/>
    <property name="is_starting_building" type="bool" value="false"/>
   </properties>
  </object>
  <object id="2085" x="241.689" y="1042.46" width="14.6589" height="14.6589">
   <properties>
    <property name="building_type" value="empty"/>
    <property name="can_build" type="bool" value="true"/>
    <property name="is_starting_building" type="bool" value="false"/>
   </properties>
  </object>
  <object id="2033" x="464.877" y="1056.9" width="14.6589" height="14.6589">
   <properties>
    <property name="building_type" value="empty"/>
    <property name="can_build" type="bool" value="true"/>
    <property name="is_starting_building" type="bool" value="false"/>
   </properties>
  </object>
  <object id="2058" x="353.21" y="1057.23" width="14.6589" height="14.6589">
   <properties>
    <property name="building_type" value="empty"/>
    <property name="can_build" type="bool" value="true"/>
    <property name="is_starting_building" type="bool" value="false"/>
   </properties>
  </object>
  <object id="2079" x="241.877" y="1058.23" width="14.6589" height="14.6589">
   <properties>
    <property name="building_type" value="empty"/>
    <property name="can_build" type="bool" value="true"/>
    <property name="is_starting_building" type="bool" value="false"/>
   </properties>
  </object>
  <object id="2067" x="368.932" y="1040.95" width="14.6589" height="14.6589">
   <properties>
    <property name="building_type" value="empty"/>
    <property name="can_build" type="bool" value="true"/>
    <property name="is_starting_building" type="bool" value="false"/>
   </properties>
  </object>
  <object id="2088" x="257.599" y="1041.95" width="14.6589" height="14.6589">
   <properties>
    <property name="building_type" value="empty"/>
    <property name="can_build" type="bool" value="true"/>
    <property name="is_starting_building" type="bool" value="false"/>
   </properties>
  </object>
  <object id="2035" x="480.537" y="1056.59" width="14.6589" height="14.6589">
   <properties>
    <property name="building_type" value="empty"/>
    <property name="can_build" type="bool" value="true"/>
    <property name="is_starting_building" type="bool" value="false"/>
   </properties>
  </object>
  <object id="2060" x="368.87" y="1056.93" width="14.6589" height="14.6589">
   <properties>
    <property name="building_type" value="empty"/>
    <property name="can_build" type="bool" value="true"/>
    <property name="is_starting_building" type="bool" value="false"/>
   </properties>
  </object>
  <object id="2081" x="257.537" y="1057.93" width="14.6589" height="14.6589">
   <properties>
    <property name="building_type" value="empty"/>
    <property name="can_build" type="bool" value="true"/>
    <property name="is_starting_building" type="bool" value="false"/>
   </properties>
  </object>
  <object id="2074" x="369.112" y="1024.78" width="14.6589" height="14.6589">
   <properties>
    <property name="building_type" value="empty"/>
    <property name="can_build" type="bool" value="true"/>
    <property name="is_starting_building" type="bool" value="false"/>
   </properties>
  </object>
  <object id="2095" x="257.779" y="1025.78" width="14.6589" height="14.6589">
   <properties>
    <property name="building_type" value="empty"/>
    <property name="can_build" type="bool" value="true"/>
    <property name="is_starting_building" type="bool" value="false"/>
   </properties>
  </object>
  <object id="2046" x="400.291" y="1041.16" width="14.6589" height="14.6589">
   <properties>
    <property name="building_type" value="empty"/>
    <property name="can_build" type="bool" value="true"/>
    <property name="is_starting_building" type="bool" value="false"/>
   </properties>
  </object>
  <object id="2063" x="288.624" y="1041.49" width="14.6589" height="14.6589">
   <properties>
    <property name="building_type" value="empty"/>
    <property name="can_build" type="bool" value="true"/>
    <property name="is_starting_building" type="bool" value="false"/>
   </properties>
  </object>
  <object id="2047" x="400.229" y="1057.14" width="14.6589" height="14.6589">
   <properties>
    <property name="building_type" value="empty"/>
    <property name="can_build" type="bool" value="true"/>
    <property name="is_starting_building" type="bool" value="false"/>
   </properties>
  </object>
  <object id="2056" x="288.562" y="1057.47" width="14.6589" height="14.6589">
   <properties>
    <property name="building_type" value="empty"/>
    <property name="can_build" type="bool" value="true"/>
    <property name="is_starting_building" type="bool" value="false"/>
   </properties>
  </object>
  <object id="2048" x="416.241" y="1025.32" width="14.6589" height="14.6589">
   <properties>
    <property name="building_type" value="empty"/>
    <property name="can_build" type="bool" value="true"/>
    <property name="is_starting_building" type="bool" value="false"/>
   </properties>
  </object>
  <object id="2069" x="304.574" y="1025.66" width="14.6589" height="14.6589">
   <properties>
    <property name="building_type" value="empty"/>
    <property name="can_build" type="bool" value="true"/>
    <property name="is_starting_building" type="bool" value="false"/>
   </properties>
  </object>
  <object id="2049" x="400.471" y="1024.99" width="14.6589" height="14.6589">
   <properties>
    <property name="building_type" value="empty"/>
    <property name="can_build" type="bool" value="true"/>
    <property name="is_starting_building" type="bool" value="false"/>
   </properties>
  </object>
  <object id="2070" x="288.804" y="1025.32" width="14.6589" height="14.6589">
   <properties>
    <property name="building_type" value="empty"/>
    <property name="can_build" type="bool" value="true"/>
    <property name="is_starting_building" type="bool" value="false"/>
   </properties>
  </object>
  <object id="2050" x="416.356" y="1041.46" width="14.6589" height="14.6589">
   <properties>
    <property name="building_type" value="empty"/>
    <property name="can_build" type="bool" value="true"/>
    <property name="is_starting_building" type="bool" value="false"/>
   </properties>
  </object>
  <object id="2062" x="304.689" y="1041.8" width="14.6589" height="14.6589">
   <properties>
    <property name="building_type" value="empty"/>
    <property name="can_build" type="bool" value="true"/>
    <property name="is_starting_building" type="bool" value="false"/>
   </properties>
  </object>
  <object id="2051" x="416.544" y="1057.23" width="14.6589" height="14.6589">
   <properties>
    <property name="building_type" value="empty"/>
    <property name="can_build" type="bool" value="true"/>
    <property name="is_starting_building" type="bool" value="false"/>
   </properties>
  </object>
  <object id="2055" x="304.877" y="1057.56" width="14.6589" height="14.6589">
   <properties>
    <property name="building_type" value="empty"/>
    <property name="can_build" type="bool" value="true"/>
    <property name="is_starting_building" type="bool" value="false"/>
   </properties>
  </object>
  <object id="2076" x="193.544" y="1058.56" width="14.6589" height="14.6589">
   <properties>
    <property name="building_type" value="empty"/>
    <property name="can_build" type="bool" value="true"/>
    <property name="is_starting_building" type="bool" value="false"/>
   </properties>
  </object>
  <object id="2052" x="432.266" y="1040.95" width="14.6589" height="14.6589">
   <properties>
    <property name="building_type" value="empty"/>
    <property name="can_build" type="bool" value="true"/>
    <property name="is_starting_building" type="bool" value="false"/>
   </properties>
  </object>
  <object id="2065" x="320.599" y="1041.28" width="14.6589" height="14.6589">
   <properties>
    <property name="building_type" value="empty"/>
    <property name="can_build" type="bool" value="true"/>
    <property name="is_starting_building" type="bool" value="false"/>
   </properties>
  </object>
  <object id="2053" x="432.204" y="1056.93" width="14.6589" height="14.6589">
   <properties>
    <property name="building_type" value="empty"/>
    <property name="can_build" type="bool" value="true"/>
    <property name="is_starting_building" type="bool" value="false"/>
   </properties>
  </object>
  <object id="2057" x="320.537" y="1057.26" width="14.6589" height="14.6589">
   <properties>
    <property name="building_type" value="empty"/>
    <property name="can_build" type="bool" value="true"/>
    <property name="is_starting_building" type="bool" value="false"/>
   </properties>
  </object>
  <object id="2078" x="209.204" y="1058.26" width="14.6589" height="14.6589">
   <properties>
    <property name="building_type" value="empty"/>
    <property name="can_build" type="bool" value="true"/>
    <property name="is_starting_building" type="bool" value="false"/>
   </properties>
  </object>
  <object id="2054" x="432.446" y="1024.78" width="14.6589" height="14.6589">
   <properties>
    <property name="building_type" value="empty"/>
    <property name="can_build" type="bool" value="true"/>
    <property name="is_starting_building" type="bool" value="false"/>
   </properties>
  </object>
  <object id="2072" x="320.779" y="1025.11" width="14.6589" height="14.6589">
   <properties>
    <property name="building_type" value="empty"/>
    <property name="can_build" type="bool" value="true"/>
    <property name="is_starting_building" type="bool" value="false"/>
   </properties>
  </object>
  <object id="2106" x="128.624" y="1041.58" width="14.6589" height="14.6589">
   <properties>
    <property name="building_type" value="empty"/>
    <property name="can_build" type="bool" value="true"/>
    <property name="is_starting_building" type="bool" value="false"/>
   </properties>
  </object>
  <object id="2107" x="128.562" y="1057.56" width="14.6589" height="14.6589">
   <properties>
    <property name="building_type" value="empty"/>
    <property name="can_build" type="bool" value="true"/>
    <property name="is_starting_building" type="bool" value="false"/>
   </properties>
  </object>
  <object id="2108" x="144.574" y="1025.74" width="14.6589" height="14.6589">
   <properties>
    <property name="building_type" value="empty"/>
    <property name="can_build" type="bool" value="true"/>
    <property name="is_starting_building" type="bool" value="false"/>
   </properties>
  </object>
  <object id="2109" x="128.804" y="1025.41" width="14.6589" height="14.6589">
   <properties>
    <property name="building_type" value="empty"/>
    <property name="can_build" type="bool" value="true"/>
    <property name="is_starting_building" type="bool" value="false"/>
   </properties>
  </object>
  <object id="2110" x="144.689" y="1041.88" width="14.6589" height="14.6589">
   <properties>
    <property name="building_type" value="empty"/>
    <property name="can_build" type="bool" value="true"/>
    <property name="is_starting_building" type="bool" value="false"/>
   </properties>
  </object>
  <object id="2115" x="80.8741" y="1041.33" width="14.6589" height="14.6589">
   <properties>
    <property name="building_type" value="empty"/>
    <property name="can_build" type="bool" value="true"/>
    <property name="is_starting_building" type="bool" value="false"/>
   </properties>
  </object>
  <object id="2116" x="80.812" y="1057.31" width="14.6589" height="14.6589">
   <properties>
    <property name="building_type" value="empty"/>
    <property name="can_build" type="bool" value="true"/>
    <property name="is_starting_building" type="bool" value="false"/>
   </properties>
  </object>
  <object id="2117" x="96.824" y="1025.49" width="14.6589" height="14.6589">
   <properties>
    <property name="building_type" value="empty"/>
    <property name="can_build" type="bool" value="true"/>
    <property name="is_starting_building" type="bool" value="false"/>
   </properties>
  </object>
  <object id="2118" x="81.054" y="1025.16" width="14.6589" height="14.6589">
   <properties>
    <property name="building_type" value="empty"/>
    <property name="can_build" type="bool" value="true"/>
    <property name="is_starting_building" type="bool" value="false"/>
   </properties>
  </object>
  <object id="2119" x="96.9391" y="1041.63" width="14.6589" height="14.6589">
   <properties>
    <property name="building_type" value="empty"/>
    <property name="can_build" type="bool" value="true"/>
    <property name="is_starting_building" type="bool" value="false"/>
   </properties>
  </object>
  <object id="2120" x="97.127" y="1057.4" width="14.6589" height="14.6589">
   <properties>
    <property name="building_type" value="empty"/>
    <property name="can_build" type="bool" value="true"/>
    <property name="is_starting_building" type="bool" value="false"/>
   </properties>
  </object>
  <object id="2121" x="112.849" y="1041.11" width="14.6589" height="14.6589">
   <properties>
    <property name="building_type" value="empty"/>
    <property name="can_build" type="bool" value="true"/>
    <property name="is_starting_building" type="bool" value="false"/>
   </properties>
  </object>
  <object id="2122" x="112.787" y="1057.09" width="14.6589" height="14.6589">
   <properties>
    <property name="building_type" value="empty"/>
    <property name="can_build" type="bool" value="true"/>
    <property name="is_starting_building" type="bool" value="false"/>
   </properties>
  </object>
  <object id="2123" x="113.029" y="1024.94" width="14.6589" height="14.6589">
   <properties>
    <property name="building_type" value="empty"/>
    <property name="can_build" type="bool" value="true"/>
    <property name="is_starting_building" type="bool" value="false"/>
   </properties>
  </object>
  <object id="2124" x="33.3741" y="1041.08" width="14.6589" height="14.6589">
   <properties>
    <property name="building_type" value="empty"/>
    <property name="can_build" type="bool" value="true"/>
    <property name="is_starting_building" type="bool" value="false"/>
   </properties>
  </object>
  <object id="2125" x="33.312" y="1057.06" width="14.6589" height="14.6589">
   <properties>
    <property name="building_type" value="empty"/>
    <property name="can_build" type="bool" value="true"/>
    <property name="is_starting_building" type="bool" value="false"/>
   </properties>
  </object>
  <object id="2127" x="33.554" y="1024.91" width="14.6589" height="14.6589">
   <properties>
    <property name="building_type" value="empty"/>
    <property name="can_build" type="bool" value="true"/>
    <property name="is_starting_building" type="bool" value="false"/>
   </properties>
  </object>
  <object id="2128" x="49.4391" y="1041.38" width="14.6589" height="14.6589">
   <properties>
    <property name="building_type" value="empty"/>
    <property name="can_build" type="bool" value="true"/>
    <property name="is_starting_building" type="bool" value="false"/>
   </properties>
  </object>
  <object id="2129" x="49.627" y="1057.15" width="14.6589" height="14.6589">
   <properties>
    <property name="building_type" value="empty"/>
    <property name="can_build" type="bool" value="true"/>
    <property name="is_starting_building" type="bool" value="false"/>
   </properties>
  </object>
  <object id="2130" x="65.3491" y="1040.86" width="14.6589" height="14.6589">
   <properties>
    <property name="building_type" value="empty"/>
    <property name="can_build" type="bool" value="true"/>
    <property name="is_starting_building" type="bool" value="false"/>
   </properties>
  </object>
  <object id="2131" x="65.2871" y="1056.84" width="14.6589" height="14.6589">
   <properties>
    <property name="building_type" value="empty"/>
    <property name="can_build" type="bool" value="true"/>
    <property name="is_starting_building" type="bool" value="false"/>
   </properties>
  </object>
  <object id="2132" x="65.529" y="1024.69" width="14.6589" height="14.6589">
   <properties>
    <property name="building_type" value="empty"/>
    <property name="can_build" type="bool" value="true"/>
    <property name="is_starting_building" type="bool" value="false"/>
   </properties>
  </object>
  <object id="2144" x="0.82405" y="1024.99" width="14.6589" height="14.6589">
   <properties>
    <property name="building_type" value="empty"/>
    <property name="can_build" type="bool" value="true"/>
    <property name="is_starting_building" type="bool" value="false"/>
   </properties>
  </object>
  <object id="2146" x="0.93905" y="1041.13" width="14.6589" height="14.6589">
   <properties>
    <property name="building_type" value="empty"/>
    <property name="can_build" type="bool" value="true"/>
    <property name="is_starting_building" type="bool" value="false"/>
   </properties>
  </object>
  <object id="2147" x="1.12705" y="1056.9" width="14.6589" height="14.6589">
   <properties>
    <property name="building_type" value="empty"/>
    <property name="can_build" type="bool" value="true"/>
    <property name="is_starting_building" type="bool" value="false"/>
   </properties>
  </object>
  <object id="2148" x="16.8491" y="1040.61" width="14.6589" height="14.6589">
   <properties>
    <property name="building_type" value="empty"/>
    <property name="can_build" type="bool" value="true"/>
    <property name="is_starting_building" type="bool" value="false"/>
   </properties>
  </object>
  <object id="2149" x="16.7871" y="1056.59" width="14.6589" height="14.6589">
   <properties>
    <property name="building_type" value="empty"/>
    <property name="can_build" type="bool" value="true"/>
    <property name="is_starting_building" type="bool" value="false"/>
   </properties>
  </object>
  <object id="2150" x="17.029" y="1024.44" width="14.6589" height="14.6589">
   <properties>
    <property name="building_type" value="empty"/>
    <property name="can_build" type="bool" value="true"/>
    <property name="is_starting_building" type="bool" value="false"/>
   </properties>
  </object>
  <object id="2160" x="560.079" y="880.281" width="14.6589" height="14.6589">
   <properties>
    <property name="building_type" value="empty"/>
    <property name="can_build" type="bool" value="true"/>
    <property name="is_starting_building" type="bool" value="false"/>
   </properties>
  </object>
  <object id="2161" x="560.017" y="896.26" width="14.6589" height="14.6589">
   <properties>
    <property name="building_type" value="empty"/>
    <property name="can_build" type="bool" value="true"/>
    <property name="is_starting_building" type="bool" value="false"/>
   </properties>
  </object>
  <object id="2162" x="576.029" y="864.444" width="14.6589" height="14.6589">
   <properties>
    <property name="building_type" value="empty"/>
    <property name="can_build" type="bool" value="true"/>
    <property name="is_starting_building" type="bool" value="false"/>
   </properties>
  </object>
  <object id="2163" x="560.259" y="864.111" width="14.6589" height="14.6589">
   <properties>
    <property name="building_type" value="empty"/>
    <property name="can_build" type="bool" value="true"/>
    <property name="is_starting_building" type="bool" value="false"/>
   </properties>
  </object>
  <object id="2164" x="576.144" y="880.584" width="14.6589" height="14.6589">
   <properties>
    <property name="building_type" value="empty"/>
    <property name="can_build" type="bool" value="true"/>
    <property name="is_starting_building" type="bool" value="false"/>
   </properties>
  </object>
  <object id="2165" x="576.332" y="896.352" width="14.6589" height="14.6589">
   <properties>
    <property name="building_type" value="empty"/>
    <property name="can_build" type="bool" value="true"/>
    <property name="is_starting_building" type="bool" value="false"/>
   </properties>
  </object>
  <object id="2169" x="592.26" y="879.736" width="14.6589" height="14.6589">
   <properties>
    <property name="building_type" value="empty"/>
    <property name="can_build" type="bool" value="true"/>
    <property name="is_starting_building" type="bool" value="false"/>
   </properties>
  </object>
  <object id="2170" x="592.198" y="895.715" width="14.6589" height="14.6589">
   <properties>
    <property name="building_type" value="empty"/>
    <property name="can_build" type="bool" value="true"/>
    <property name="is_starting_building" type="bool" value="false"/>
   </properties>
  </object>
  <object id="2171" x="608.21" y="863.899" width="14.6589" height="14.6589">
   <properties>
    <property name="building_type" value="empty"/>
    <property name="can_build" type="bool" value="true"/>
    <property name="is_starting_building" type="bool" value="false"/>
   </properties>
  </object>
  <object id="2172" x="592.44" y="863.566" width="14.6589" height="14.6589">
   <properties>
    <property name="building_type" value="empty"/>
    <property name="can_build" type="bool" value="true"/>
    <property name="is_starting_building" type="bool" value="false"/>
   </properties>
  </object>
  <object id="2173" x="608.325" y="880.039" width="14.6589" height="14.6589">
   <properties>
    <property name="building_type" value="empty"/>
    <property name="can_build" type="bool" value="true"/>
    <property name="is_starting_building" type="bool" value="false"/>
   </properties>
  </object>
  <object id="2174" x="608.513" y="895.807" width="14.6589" height="14.6589">
   <properties>
    <property name="building_type" value="empty"/>
    <property name="can_build" type="bool" value="true"/>
    <property name="is_starting_building" type="bool" value="false"/>
   </properties>
  </object>
  <object id="2175" x="624.235" y="879.523" width="14.6589" height="14.6589">
   <properties>
    <property name="building_type" value="empty"/>
    <property name="can_build" type="bool" value="true"/>
    <property name="is_starting_building" type="bool" value="false"/>
   </properties>
  </object>
  <object id="2176" x="624.173" y="895.502" width="14.6589" height="14.6589">
   <properties>
    <property name="building_type" value="empty"/>
    <property name="can_build" type="bool" value="true"/>
    <property name="is_starting_building" type="bool" value="false"/>
   </properties>
  </object>
  <object id="2177" x="624.415" y="863.353" width="14.6589" height="14.6589">
   <properties>
    <property name="building_type" value="empty"/>
    <property name="can_build" type="bool" value="true"/>
    <property name="is_starting_building" type="bool" value="false"/>
   </properties>
  </object>
  <object id="2178" x="512.624" y="928.645" width="14.6589" height="14.6589">
   <properties>
    <property name="building_type" value="empty"/>
    <property name="can_build" type="bool" value="true"/>
    <property name="is_starting_building" type="bool" value="false"/>
   </properties>
  </object>
  <object id="2179" x="512.562" y="944.624" width="14.6589" height="14.6589">
   <properties>
    <property name="building_type" value="empty"/>
    <property name="can_build" type="bool" value="true"/>
    <property name="is_starting_building" type="bool" value="false"/>
   </properties>
  </object>
  <object id="2180" x="528.574" y="912.808" width="14.6589" height="14.6589">
   <properties>
    <property name="building_type" value="empty"/>
    <property name="can_build" type="bool" value="true"/>
    <property name="is_starting_building" type="bool" value="false"/>
   </properties>
  </object>
  <object id="2181" x="512.804" y="912.475" width="14.6589" height="14.6589">
   <properties>
    <property name="building_type" value="empty"/>
    <property name="can_build" type="bool" value="true"/>
    <property name="is_starting_building" type="bool" value="false"/>
   </properties>
  </object>
  <object id="2182" x="528.689" y="928.948" width="14.6589" height="14.6589">
   <properties>
    <property name="building_type" value="empty"/>
    <property name="can_build" type="bool" value="true"/>
    <property name="is_starting_building" type="bool" value="false"/>
   </properties>
  </object>
  <object id="2183" x="528.877" y="944.716" width="14.6589" height="14.6589">
   <properties>
    <property name="building_type" value="empty"/>
    <property name="can_build" type="bool" value="true"/>
    <property name="is_starting_building" type="bool" value="false"/>
   </properties>
  </object>
  <object id="2184" x="544.599" y="928.432" width="14.6589" height="14.6589">
   <properties>
    <property name="building_type" value="empty"/>
    <property name="can_build" type="bool" value="true"/>
    <property name="is_starting_building" type="bool" value="false"/>
   </properties>
  </object>
  <object id="2185" x="544.537" y="944.411" width="14.6589" height="14.6589">
   <properties>
    <property name="building_type" value="empty"/>
    <property name="can_build" type="bool" value="true"/>
    <property name="is_starting_building" type="bool" value="false"/>
   </properties>
  </object>
  <object id="2186" x="544.779" y="912.262" width="14.6589" height="14.6589">
   <properties>
    <property name="building_type" value="empty"/>
    <property name="can_build" type="bool" value="true"/>
    <property name="is_starting_building" type="bool" value="false"/>
   </properties>
  </object>
  <object id="2187" x="560.442" y="928.463" width="14.6589" height="14.6589">
   <properties>
    <property name="building_type" value="empty"/>
    <property name="can_build" type="bool" value="true"/>
    <property name="is_starting_building" type="bool" value="false"/>
   </properties>
  </object>
  <object id="2188" x="560.38" y="944.442" width="14.6589" height="14.6589">
   <properties>
    <property name="building_type" value="empty"/>
    <property name="can_build" type="bool" value="true"/>
    <property name="is_starting_building" type="bool" value="false"/>
   </properties>
  </object>
  <object id="2189" x="576.392" y="912.626" width="14.6589" height="14.6589">
   <properties>
    <property name="building_type" value="empty"/>
    <property name="can_build" type="bool" value="true"/>
    <property name="is_starting_building" type="bool" value="false"/>
   </properties>
  </object>
  <object id="2190" x="560.622" y="912.293" width="14.6589" height="14.6589">
   <properties>
    <property name="building_type" value="empty"/>
    <property name="can_build" type="bool" value="true"/>
    <property name="is_starting_building" type="bool" value="false"/>
   </properties>
  </object>
  <object id="2191" x="576.507" y="928.766" width="14.6589" height="14.6589">
   <properties>
    <property name="building_type" value="empty"/>
    <property name="can_build" type="bool" value="true"/>
    <property name="is_starting_building" type="bool" value="false"/>
   </properties>
  </object>
  <object id="2192" x="576.695" y="944.534" width="14.6589" height="14.6589">
   <properties>
    <property name="building_type" value="empty"/>
    <property name="can_build" type="bool" value="true"/>
    <property name="is_starting_building" type="bool" value="false"/>
   </properties>
  </object>
  <object id="2193" x="592.417" y="928.25" width="14.6589" height="14.6589">
   <properties>
    <property name="building_type" value="empty"/>
    <property name="can_build" type="bool" value="true"/>
    <property name="is_starting_building" type="bool" value="false"/>
   </properties>
  </object>
  <object id="2194" x="592.355" y="944.229" width="14.6589" height="14.6589">
   <properties>
    <property name="building_type" value="empty"/>
    <property name="can_build" type="bool" value="true"/>
    <property name="is_starting_building" type="bool" value="false"/>
   </properties>
  </object>
  <object id="2195" x="592.597" y="912.08" width="14.6589" height="14.6589">
   <properties>
    <property name="building_type" value="empty"/>
    <property name="can_build" type="bool" value="true"/>
    <property name="is_starting_building" type="bool" value="false"/>
   </properties>
  </object>
  <object id="2196" x="608.079" y="928.281" width="14.6589" height="14.6589">
   <properties>
    <property name="building_type" value="empty"/>
    <property name="can_build" type="bool" value="true"/>
    <property name="is_starting_building" type="bool" value="false"/>
   </properties>
  </object>
  <object id="2197" x="608.017" y="944.26" width="14.6589" height="14.6589">
   <properties>
    <property name="building_type" value="empty"/>
    <property name="can_build" type="bool" value="true"/>
    <property name="is_starting_building" type="bool" value="false"/>
   </properties>
  </object>
  <object id="2198" x="624.029" y="912.444" width="14.6589" height="14.6589">
   <properties>
    <property name="building_type" value="empty"/>
    <property name="can_build" type="bool" value="true"/>
    <property name="is_starting_building" type="bool" value="false"/>
   </properties>
  </object>
  <object id="2199" x="608.259" y="912.111" width="14.6589" height="14.6589">
   <properties>
    <property name="building_type" value="empty"/>
    <property name="can_build" type="bool" value="true"/>
    <property name="is_starting_building" type="bool" value="false"/>
   </properties>
  </object>
  <object id="2200" x="624.144" y="928.584" width="14.6589" height="14.6589">
   <properties>
    <property name="building_type" value="empty"/>
    <property name="can_build" type="bool" value="true"/>
    <property name="is_starting_building" type="bool" value="false"/>
   </properties>
  </object>
  <object id="2201" x="624.332" y="944.352" width="14.6589" height="14.6589">
   <properties>
    <property name="building_type" value="empty"/>
    <property name="can_build" type="bool" value="true"/>
    <property name="is_starting_building" type="bool" value="false"/>
   </properties>
  </object>
  <object id="2205" x="592.942" y="975.895" width="14.6589" height="14.6589">
   <properties>
    <property name="building_type" value="empty"/>
    <property name="can_build" type="bool" value="true"/>
    <property name="is_starting_building" type="bool" value="false"/>
   </properties>
  </object>
  <object id="2206" x="592.698" y="992.419" width="14.6589" height="14.6589">
   <properties>
    <property name="building_type" value="empty"/>
    <property name="can_build" type="bool" value="true"/>
    <property name="is_starting_building" type="bool" value="false"/>
   </properties>
  </object>
  <object id="2215" x="591.971" y="1008.96" width="14.6589" height="14.6589">
   <properties>
    <property name="building_type" value="empty"/>
    <property name="can_build" type="bool" value="true"/>
    <property name="is_starting_building" type="bool" value="false"/>
   </properties>
  </object>
  <object id="2207" x="608.71" y="960.24" width="14.6589" height="14.6589">
   <properties>
    <property name="building_type" value="empty"/>
    <property name="can_build" type="bool" value="true"/>
    <property name="is_starting_building" type="bool" value="false"/>
   </properties>
  </object>
  <object id="2208" x="592.94" y="959.907" width="14.6589" height="14.6589">
   <properties>
    <property name="building_type" value="empty"/>
    <property name="can_build" type="bool" value="true"/>
    <property name="is_starting_building" type="bool" value="false"/>
   </properties>
  </object>
  <object id="2209" x="609.007" y="976.198" width="14.6589" height="14.6589">
   <properties>
    <property name="building_type" value="empty"/>
    <property name="can_build" type="bool" value="true"/>
    <property name="is_starting_building" type="bool" value="false"/>
   </properties>
  </object>
  <object id="2210" x="609.013" y="992.511" width="14.6589" height="14.6589">
   <properties>
    <property name="building_type" value="empty"/>
    <property name="can_build" type="bool" value="true"/>
    <property name="is_starting_building" type="bool" value="false"/>
   </properties>
  </object>
  <object id="2214" x="608.286" y="1009.06" width="14.6589" height="14.6589">
   <properties>
    <property name="building_type" value="empty"/>
    <property name="can_build" type="bool" value="true"/>
    <property name="is_starting_building" type="bool" value="false"/>
   </properties>
  </object>
  <object id="2211" x="624.917" y="975.682" width="14.6589" height="14.6589">
   <properties>
    <property name="building_type" value="empty"/>
    <property name="can_build" type="bool" value="true"/>
    <property name="is_starting_building" type="bool" value="false"/>
   </properties>
  </object>
  <object id="2212" x="624.673" y="992.206" width="14.6589" height="14.6589">
   <properties>
    <property name="building_type" value="empty"/>
    <property name="can_build" type="bool" value="true"/>
    <property name="is_starting_building" type="bool" value="false"/>
   </properties>
  </object>
  <object id="2216" x="623.946" y="1008.75" width="14.6589" height="14.6589">
   <properties>
    <property name="building_type" value="empty"/>
    <property name="can_build" type="bool" value="true"/>
    <property name="is_starting_building" type="bool" value="false"/>
   </properties>
  </object>
  <object id="2213" x="624.915" y="959.694" width="14.6589" height="14.6589">
   <properties>
    <property name="building_type" value="empty"/>
    <property name="can_build" type="bool" value="true"/>
    <property name="is_starting_building" type="bool" value="false"/>
   </properties>
  </object>
  <object id="2217" x="544.806" y="976.645" width="14.6589" height="14.6589">
   <properties>
    <property name="building_type" value="empty"/>
    <property name="can_build" type="bool" value="true"/>
    <property name="is_starting_building" type="bool" value="false"/>
   </properties>
  </object>
  <object id="2218" x="544.744" y="992.624" width="14.6589" height="14.6589">
   <properties>
    <property name="building_type" value="empty"/>
    <property name="can_build" type="bool" value="true"/>
    <property name="is_starting_building" type="bool" value="false"/>
   </properties>
  </object>
  <object id="2227" x="544.744" y="1008.62" width="14.6589" height="14.6589">
   <properties>
    <property name="building_type" value="empty"/>
    <property name="can_build" type="bool" value="true"/>
    <property name="is_starting_building" type="bool" value="false"/>
   </properties>
  </object>
  <object id="2219" x="560.756" y="960.808" width="14.6589" height="14.6589">
   <properties>
    <property name="building_type" value="empty"/>
    <property name="can_build" type="bool" value="true"/>
    <property name="is_starting_building" type="bool" value="false"/>
   </properties>
  </object>
  <object id="2221" x="560.871" y="976.948" width="14.6589" height="14.6589">
   <properties>
    <property name="building_type" value="empty"/>
    <property name="can_build" type="bool" value="true"/>
    <property name="is_starting_building" type="bool" value="false"/>
   </properties>
  </object>
  <object id="2222" x="561.059" y="992.716" width="14.6589" height="14.6589">
   <properties>
    <property name="building_type" value="empty"/>
    <property name="can_build" type="bool" value="true"/>
    <property name="is_starting_building" type="bool" value="false"/>
   </properties>
  </object>
  <object id="2226" x="561.059" y="1008.72" width="14.6589" height="14.6589">
   <properties>
    <property name="building_type" value="empty"/>
    <property name="can_build" type="bool" value="true"/>
    <property name="is_starting_building" type="bool" value="false"/>
   </properties>
  </object>
  <object id="2223" x="576.781" y="976.432" width="14.6589" height="14.6589">
   <properties>
    <property name="building_type" value="empty"/>
    <property name="can_build" type="bool" value="true"/>
    <property name="is_starting_building" type="bool" value="false"/>
   </properties>
  </object>
  <object id="2224" x="576.719" y="992.411" width="14.6589" height="14.6589">
   <properties>
    <property name="building_type" value="empty"/>
    <property name="can_build" type="bool" value="true"/>
    <property name="is_starting_building" type="bool" value="false"/>
   </properties>
  </object>
  <object id="2228" x="576.719" y="1008.41" width="14.6589" height="14.6589">
   <properties>
    <property name="building_type" value="empty"/>
    <property name="can_build" type="bool" value="true"/>
    <property name="is_starting_building" type="bool" value="false"/>
   </properties>
  </object>
  <object id="2225" x="576.961" y="960.262" width="14.6589" height="14.6589">
   <properties>
    <property name="building_type" value="empty"/>
    <property name="can_build" type="bool" value="true"/>
    <property name="is_starting_building" type="bool" value="false"/>
   </properties>
  </object>
  <object id="2229" x="496.988" y="976.281" width="14.6589" height="14.6589">
   <properties>
    <property name="building_type" value="empty"/>
    <property name="can_build" type="bool" value="true"/>
    <property name="is_starting_building" type="bool" value="false"/>
   </properties>
  </object>
  <object id="2251" x="496.442" y="991.917" width="14.6589" height="14.6589">
   <properties>
    <property name="building_type" value="empty"/>
    <property name="can_build" type="bool" value="true"/>
    <property name="is_starting_building" type="bool" value="false"/>
   </properties>
  </object>
  <object id="2257" x="496.442" y="1007.55" width="14.6589" height="14.6589">
   <properties>
    <property name="building_type" value="empty"/>
    <property name="can_build" type="bool" value="true"/>
    <property name="is_starting_building" type="bool" value="false"/>
   </properties>
  </object>
  <object id="2231" x="512.938" y="960.444" width="14.6589" height="14.6589">
   <properties>
    <property name="building_type" value="empty"/>
    <property name="can_build" type="bool" value="true"/>
    <property name="is_starting_building" type="bool" value="false"/>
   </properties>
  </object>
  <object id="2232" x="497.168" y="960.111" width="14.6589" height="14.6589">
   <properties>
    <property name="building_type" value="empty"/>
    <property name="can_build" type="bool" value="true"/>
    <property name="is_starting_building" type="bool" value="false"/>
   </properties>
  </object>
  <object id="2262" x="496.804" y="944.657" width="14.6589" height="14.6589">
   <properties>
    <property name="building_type" value="empty"/>
    <property name="can_build" type="bool" value="true"/>
    <property name="is_starting_building" type="bool" value="false"/>
   </properties>
  </object>
  <object id="2233" x="513.053" y="976.584" width="14.6589" height="14.6589">
   <properties>
    <property name="building_type" value="empty"/>
    <property name="can_build" type="bool" value="true"/>
    <property name="is_starting_building" type="bool" value="false"/>
   </properties>
  </object>
  <object id="2249" x="512.507" y="992.22" width="14.6589" height="14.6589">
   <properties>
    <property name="building_type" value="empty"/>
    <property name="can_build" type="bool" value="true"/>
    <property name="is_starting_building" type="bool" value="false"/>
   </properties>
  </object>
  <object id="2255" x="512.507" y="1007.86" width="14.6589" height="14.6589">
   <properties>
    <property name="building_type" value="empty"/>
    <property name="can_build" type="bool" value="true"/>
    <property name="is_starting_building" type="bool" value="false"/>
   </properties>
  </object>
  <object id="2235" x="528.963" y="976.068" width="14.6589" height="14.6589">
   <properties>
    <property name="building_type" value="empty"/>
    <property name="can_build" type="bool" value="true"/>
    <property name="is_starting_building" type="bool" value="false"/>
   </properties>
  </object>
  <object id="2252" x="528.417" y="991.704" width="14.6589" height="14.6589">
   <properties>
    <property name="building_type" value="empty"/>
    <property name="can_build" type="bool" value="true"/>
    <property name="is_starting_building" type="bool" value="false"/>
   </properties>
  </object>
  <object id="2258" x="528.417" y="1007.34" width="14.6589" height="14.6589">
   <properties>
    <property name="building_type" value="empty"/>
    <property name="can_build" type="bool" value="true"/>
    <property name="is_starting_building" type="bool" value="false"/>
   </properties>
  </object>
  <object id="2237" x="529.143" y="959.898" width="14.6589" height="14.6589">
   <properties>
    <property name="building_type" value="empty"/>
    <property name="can_build" type="bool" value="true"/>
    <property name="is_starting_building" type="bool" value="false"/>
   </properties>
  </object>
  <object id="2238" x="449.17" y="976.645" width="14.6589" height="14.6589">
   <properties>
    <property name="building_type" value="empty"/>
    <property name="can_build" type="bool" value="true"/>
    <property name="is_starting_building" type="bool" value="false"/>
   </properties>
  </object>
  <object id="2248" x="448.624" y="992.281" width="14.6589" height="14.6589">
   <properties>
    <property name="building_type" value="empty"/>
    <property name="can_build" type="bool" value="true"/>
    <property name="is_starting_building" type="bool" value="false"/>
   </properties>
  </object>
  <object id="2254" x="448.624" y="1007.92" width="14.6589" height="14.6589">
   <properties>
    <property name="building_type" value="empty"/>
    <property name="can_build" type="bool" value="true"/>
    <property name="is_starting_building" type="bool" value="false"/>
   </properties>
  </object>
  <object id="2240" x="465.12" y="960.808" width="14.6589" height="14.6589">
   <properties>
    <property name="building_type" value="empty"/>
    <property name="can_build" type="bool" value="true"/>
    <property name="is_starting_building" type="bool" value="false"/>
   </properties>
  </object>
  <object id="2259" x="464.756" y="945.353" width="14.6589" height="14.6589">
   <properties>
    <property name="building_type" value="empty"/>
    <property name="can_build" type="bool" value="true"/>
    <property name="is_starting_building" type="bool" value="false"/>
   </properties>
  </object>
  <object id="2241" x="449.35" y="960.475" width="14.6589" height="14.6589">
   <properties>
    <property name="building_type" value="empty"/>
    <property name="can_build" type="bool" value="true"/>
    <property name="is_starting_building" type="bool" value="false"/>
   </properties>
  </object>
  <object id="2260" x="448.986" y="945.02" width="14.6589" height="14.6589">
   <properties>
    <property name="building_type" value="empty"/>
    <property name="can_build" type="bool" value="true"/>
    <property name="is_starting_building" type="bool" value="false"/>
   </properties>
  </object>
  <object id="2247" x="464.689" y="992.584" width="14.6589" height="14.6589">
   <properties>
    <property name="building_type" value="empty"/>
    <property name="can_build" type="bool" value="true"/>
    <property name="is_starting_building" type="bool" value="false"/>
   </properties>
  </object>
  <object id="2253" x="464.689" y="1008.22" width="14.6589" height="14.6589">
   <properties>
    <property name="building_type" value="empty"/>
    <property name="can_build" type="bool" value="true"/>
    <property name="is_starting_building" type="bool" value="false"/>
   </properties>
  </object>
  <object id="2244" x="481.145" y="976.432" width="14.6589" height="14.6589">
   <properties>
    <property name="building_type" value="empty"/>
    <property name="can_build" type="bool" value="true"/>
    <property name="is_starting_building" type="bool" value="false"/>
   </properties>
  </object>
  <object id="2250" x="480.599" y="992.068" width="14.6589" height="14.6589">
   <properties>
    <property name="building_type" value="empty"/>
    <property name="can_build" type="bool" value="true"/>
    <property name="is_starting_building" type="bool" value="false"/>
   </properties>
  </object>
  <object id="2256" x="480.599" y="1007.7" width="14.6589" height="14.6589">
   <properties>
    <property name="building_type" value="empty"/>
    <property name="can_build" type="bool" value="true"/>
    <property name="is_starting_building" type="bool" value="false"/>
   </properties>
  </object>
  <object id="2246" x="481.325" y="960.262" width="14.6589" height="14.6589">
   <properties>
    <property name="building_type" value="empty"/>
    <property name="can_build" type="bool" value="true"/>
    <property name="is_starting_building" type="bool" value="false"/>
   </properties>
  </object>
  <object id="2261" x="480.961" y="944.807" width="14.6589" height="14.6589">
   <properties>
    <property name="building_type" value="empty"/>
    <property name="can_build" type="bool" value="true"/>
    <property name="is_starting_building" type="bool" value="false"/>
   </properties>
  </object>
  <object id="2300" x="33.3769" y="1008.9" width="14.6589" height="14.6589">
   <properties>
    <property name="building_type" value="empty"/>
    <property name="can_build" type="bool" value="true"/>
    <property name="is_starting_building" type="bool" value="false"/>
   </properties>
  </object>
  <object id="2301" x="33.6189" y="976.747" width="14.6589" height="14.6589">
   <properties>
    <property name="building_type" value="empty"/>
    <property name="can_build" type="bool" value="true"/>
    <property name="is_starting_building" type="bool" value="false"/>
   </properties>
  </object>
  <object id="2302" x="0.888908" y="976.827" width="14.6589" height="14.6589">
   <properties>
    <property name="building_type" value="empty"/>
    <property name="can_build" type="bool" value="true"/>
    <property name="is_starting_building" type="bool" value="false"/>
   </properties>
  </object>
  <object id="2303" x="1.00391" y="992.967" width="14.6589" height="14.6589">
   <properties>
    <property name="building_type" value="empty"/>
    <property name="can_build" type="bool" value="true"/>
    <property name="is_starting_building" type="bool" value="false"/>
   </properties>
  </object>
  <object id="2304" x="1.19191" y="1008.74" width="14.6589" height="14.6589">
   <properties>
    <property name="building_type" value="empty"/>
    <property name="can_build" type="bool" value="true"/>
    <property name="is_starting_building" type="bool" value="false"/>
   </properties>
  </object>
  <object id="2305" x="16.914" y="992.447" width="14.6589" height="14.6589">
   <properties>
    <property name="building_type" value="empty"/>
    <property name="can_build" type="bool" value="true"/>
    <property name="is_starting_building" type="bool" value="false"/>
   </properties>
  </object>
  <object id="2306" x="16.852" y="1008.43" width="14.6589" height="14.6589">
   <properties>
    <property name="building_type" value="empty"/>
    <property name="can_build" type="bool" value="true"/>
    <property name="is_starting_building" type="bool" value="false"/>
   </properties>
  </object>
  <object id="2307" x="17.0939" y="976.277" width="14.6589" height="14.6589">
   <properties>
    <property name="building_type" value="empty"/>
    <property name="can_build" type="bool" value="true"/>
    <property name="is_starting_building" type="bool" value="false"/>
   </properties>
  </object>
  <object id="2317" x="81.8556" y="993.251" width="14.6589" height="14.6589">
   <properties>
    <property name="building_type" value="empty"/>
    <property name="can_build" type="bool" value="true"/>
    <property name="is_starting_building" type="bool" value="false"/>
   </properties>
  </object>
  <object id="2318" x="81.7935" y="1009.23" width="14.6589" height="14.6589">
   <properties>
    <property name="building_type" value="empty"/>
    <property name="can_build" type="bool" value="true"/>
    <property name="is_starting_building" type="bool" value="false"/>
   </properties>
  </object>
  <object id="2319" x="82.0355" y="977.081" width="14.6589" height="14.6589">
   <properties>
    <property name="building_type" value="empty"/>
    <property name="can_build" type="bool" value="true"/>
    <property name="is_starting_building" type="bool" value="false"/>
   </properties>
  </object>
  <object id="2320" x="49.3056" y="977.161" width="14.6589" height="14.6589">
   <properties>
    <property name="building_type" value="empty"/>
    <property name="can_build" type="bool" value="true"/>
    <property name="is_starting_building" type="bool" value="false"/>
   </properties>
  </object>
  <object id="2321" x="49.4206" y="993.301" width="14.6589" height="14.6589">
   <properties>
    <property name="building_type" value="empty"/>
    <property name="can_build" type="bool" value="true"/>
    <property name="is_starting_building" type="bool" value="false"/>
   </properties>
  </object>
  <object id="2322" x="49.6086" y="1009.07" width="14.6589" height="14.6589">
   <properties>
    <property name="building_type" value="empty"/>
    <property name="can_build" type="bool" value="true"/>
    <property name="is_starting_building" type="bool" value="false"/>
   </properties>
  </object>
  <object id="2323" x="65.3306" y="992.781" width="14.6589" height="14.6589">
   <properties>
    <property name="building_type" value="empty"/>
    <property name="can_build" type="bool" value="true"/>
    <property name="is_starting_building" type="bool" value="false"/>
   </properties>
  </object>
  <object id="2324" x="65.2686" y="1008.76" width="14.6589" height="14.6589">
   <properties>
    <property name="building_type" value="empty"/>
    <property name="can_build" type="bool" value="true"/>
    <property name="is_starting_building" type="bool" value="false"/>
   </properties>
  </object>
  <object id="2325" x="65.5105" y="976.611" width="14.6589" height="14.6589">
   <properties>
    <property name="building_type" value="empty"/>
    <property name="can_build" type="bool" value="true"/>
    <property name="is_starting_building" type="bool" value="false"/>
   </properties>
  </object>
  <object id="2326" x="129.856" y="993.001" width="14.6589" height="14.6589">
   <properties>
    <property name="building_type" value="empty"/>
    <property name="can_build" type="bool" value="true"/>
    <property name="is_starting_building" type="bool" value="false"/>
   </properties>
  </object>
  <object id="2327" x="129.794" y="1008.98" width="14.6589" height="14.6589">
   <properties>
    <property name="building_type" value="empty"/>
    <property name="can_build" type="bool" value="true"/>
    <property name="is_starting_building" type="bool" value="false"/>
   </properties>
  </object>
  <object id="2328" x="130.036" y="976.831" width="14.6589" height="14.6589">
   <properties>
    <property name="building_type" value="empty"/>
    <property name="can_build" type="bool" value="true"/>
    <property name="is_starting_building" type="bool" value="false"/>
   </properties>
  </object>
  <object id="2329" x="97.3056" y="976.911" width="14.6589" height="14.6589">
   <properties>
    <property name="building_type" value="empty"/>
    <property name="can_build" type="bool" value="true"/>
    <property name="is_starting_building" type="bool" value="false"/>
   </properties>
  </object>
  <object id="2330" x="97.4206" y="993.051" width="14.6589" height="14.6589">
   <properties>
    <property name="building_type" value="empty"/>
    <property name="can_build" type="bool" value="true"/>
    <property name="is_starting_building" type="bool" value="false"/>
   </properties>
  </object>
  <object id="2331" x="97.6086" y="1008.82" width="14.6589" height="14.6589">
   <properties>
    <property name="building_type" value="empty"/>
    <property name="can_build" type="bool" value="true"/>
    <property name="is_starting_building" type="bool" value="false"/>
   </properties>
  </object>
  <object id="2332" x="113.331" y="992.531" width="14.6589" height="14.6589">
   <properties>
    <property name="building_type" value="empty"/>
    <property name="can_build" type="bool" value="true"/>
    <property name="is_starting_building" type="bool" value="false"/>
   </properties>
  </object>
  <object id="2333" x="113.269" y="1008.51" width="14.6589" height="14.6589">
   <properties>
    <property name="building_type" value="empty"/>
    <property name="can_build" type="bool" value="true"/>
    <property name="is_starting_building" type="bool" value="false"/>
   </properties>
  </object>
  <object id="2334" x="113.511" y="976.361" width="14.6589" height="14.6589">
   <properties>
    <property name="building_type" value="empty"/>
    <property name="can_build" type="bool" value="true"/>
    <property name="is_starting_building" type="bool" value="false"/>
   </properties>
  </object>
  <object id="2335" x="177.606" y="993.251" width="14.6589" height="14.6589">
   <properties>
    <property name="building_type" value="empty"/>
    <property name="can_build" type="bool" value="true"/>
    <property name="is_starting_building" type="bool" value="false"/>
   </properties>
  </object>
  <object id="2337" x="177.786" y="977.081" width="14.6589" height="14.6589">
   <properties>
    <property name="building_type" value="empty"/>
    <property name="can_build" type="bool" value="true"/>
    <property name="is_starting_building" type="bool" value="false"/>
   </properties>
  </object>
  <object id="2338" x="145.056" y="977.161" width="14.6589" height="14.6589">
   <properties>
    <property name="building_type" value="empty"/>
    <property name="can_build" type="bool" value="true"/>
    <property name="is_starting_building" type="bool" value="false"/>
   </properties>
  </object>
  <object id="2340" x="145.359" y="1009.07" width="14.6589" height="14.6589">
   <properties>
    <property name="building_type" value="empty"/>
    <property name="can_build" type="bool" value="true"/>
    <property name="is_starting_building" type="bool" value="false"/>
   </properties>
  </object>
  <object id="2341" x="161.081" y="992.781" width="14.6589" height="14.6589">
   <properties>
    <property name="building_type" value="empty"/>
    <property name="can_build" type="bool" value="true"/>
    <property name="is_starting_building" type="bool" value="false"/>
   </properties>
  </object>
  <object id="2342" x="161.019" y="1008.76" width="14.6589" height="14.6589">
   <properties>
    <property name="building_type" value="empty"/>
    <property name="can_build" type="bool" value="true"/>
    <property name="is_starting_building" type="bool" value="false"/>
   </properties>
  </object>
  <object id="2343" x="161.261" y="976.611" width="14.6589" height="14.6589">
   <properties>
    <property name="building_type" value="empty"/>
    <property name="can_build" type="bool" value="true"/>
    <property name="is_starting_building" type="bool" value="false"/>
   </properties>
  </object>
  <object id="2344" x="226.106" y="977.251" width="14.6589" height="14.6589">
   <properties>
    <property name="building_type" value="empty"/>
    <property name="can_build" type="bool" value="true"/>
    <property name="is_starting_building" type="bool" value="false"/>
   </properties>
  </object>
  <object id="2345" x="226.044" y="993.231" width="14.6589" height="14.6589">
   <properties>
    <property name="building_type" value="empty"/>
    <property name="can_build" type="bool" value="true"/>
    <property name="is_starting_building" type="bool" value="false"/>
   </properties>
  </object>
  <object id="2346" x="226.286" y="961.081" width="14.6589" height="14.6589">
   <properties>
    <property name="building_type" value="empty"/>
    <property name="can_build" type="bool" value="true"/>
    <property name="is_starting_building" type="bool" value="false"/>
   </properties>
  </object>
  <object id="2347" x="193.556" y="961.161" width="14.6589" height="14.6589">
   <properties>
    <property name="building_type" value="empty"/>
    <property name="can_build" type="bool" value="true"/>
    <property name="is_starting_building" type="bool" value="false"/>
   </properties>
  </object>
  <object id="2348" x="193.671" y="977.301" width="14.6589" height="14.6589">
   <properties>
    <property name="building_type" value="empty"/>
    <property name="can_build" type="bool" value="true"/>
    <property name="is_starting_building" type="bool" value="false"/>
   </properties>
  </object>
  <object id="2349" x="193.859" y="993.071" width="14.6589" height="14.6589">
   <properties>
    <property name="building_type" value="empty"/>
    <property name="can_build" type="bool" value="true"/>
    <property name="is_starting_building" type="bool" value="false"/>
   </properties>
  </object>
  <object id="2350" x="209.581" y="976.781" width="14.6589" height="14.6589">
   <properties>
    <property name="building_type" value="empty"/>
    <property name="can_build" type="bool" value="true"/>
    <property name="is_starting_building" type="bool" value="false"/>
   </properties>
  </object>
  <object id="2351" x="209.519" y="992.761" width="14.6589" height="14.6589">
   <properties>
    <property name="building_type" value="empty"/>
    <property name="can_build" type="bool" value="true"/>
    <property name="is_starting_building" type="bool" value="false"/>
   </properties>
  </object>
  <object id="2352" x="209.761" y="960.611" width="14.6589" height="14.6589">
   <properties>
    <property name="building_type" value="empty"/>
    <property name="can_build" type="bool" value="true"/>
    <property name="is_starting_building" type="bool" value="false"/>
   </properties>
  </object>
  <object id="2353" x="274.106" y="977.251" width="14.6589" height="14.6589">
   <properties>
    <property name="building_type" value="empty"/>
    <property name="can_build" type="bool" value="true"/>
    <property name="is_starting_building" type="bool" value="false"/>
   </properties>
  </object>
  <object id="2354" x="274.044" y="993.231" width="14.6589" height="14.6589">
   <properties>
    <property name="building_type" value="empty"/>
    <property name="can_build" type="bool" value="true"/>
    <property name="is_starting_building" type="bool" value="false"/>
   </properties>
  </object>
  <object id="2362" x="274.044" y="1009.48" width="14.6589" height="14.6589">
   <properties>
    <property name="building_type" value="empty"/>
    <property name="can_build" type="bool" value="true"/>
    <property name="is_starting_building" type="bool" value="false"/>
   </properties>
  </object>
  <object id="2355" x="274.286" y="961.081" width="14.6589" height="14.6589">
   <properties>
    <property name="building_type" value="empty"/>
    <property name="can_build" type="bool" value="true"/>
    <property name="is_starting_building" type="bool" value="false"/>
   </properties>
  </object>
  <object id="2356" x="241.556" y="961.161" width="14.6589" height="14.6589">
   <properties>
    <property name="building_type" value="empty"/>
    <property name="can_build" type="bool" value="true"/>
    <property name="is_starting_building" type="bool" value="false"/>
   </properties>
  </object>
  <object id="2357" x="241.671" y="977.301" width="14.6589" height="14.6589">
   <properties>
    <property name="building_type" value="empty"/>
    <property name="can_build" type="bool" value="true"/>
    <property name="is_starting_building" type="bool" value="false"/>
   </properties>
  </object>
  <object id="2358" x="241.859" y="993.071" width="14.6589" height="14.6589">
   <properties>
    <property name="building_type" value="empty"/>
    <property name="can_build" type="bool" value="true"/>
    <property name="is_starting_building" type="bool" value="false"/>
   </properties>
  </object>
  <object id="2364" x="241.859" y="1009.32" width="14.6589" height="14.6589">
   <properties>
    <property name="building_type" value="empty"/>
    <property name="can_build" type="bool" value="true"/>
    <property name="is_starting_building" type="bool" value="false"/>
   </properties>
  </object>
  <object id="2359" x="257.581" y="976.781" width="14.6589" height="14.6589">
   <properties>
    <property name="building_type" value="empty"/>
    <property name="can_build" type="bool" value="true"/>
    <property name="is_starting_building" type="bool" value="false"/>
   </properties>
  </object>
  <object id="2360" x="257.519" y="992.761" width="14.6589" height="14.6589">
   <properties>
    <property name="building_type" value="empty"/>
    <property name="can_build" type="bool" value="true"/>
    <property name="is_starting_building" type="bool" value="false"/>
   </properties>
  </object>
  <object id="2365" x="257.519" y="1009.01" width="14.6589" height="14.6589">
   <properties>
    <property name="building_type" value="empty"/>
    <property name="can_build" type="bool" value="true"/>
    <property name="is_starting_building" type="bool" value="false"/>
   </properties>
  </object>
  <object id="2361" x="257.761" y="960.611" width="14.6589" height="14.6589">
   <properties>
    <property name="building_type" value="empty"/>
    <property name="can_build" type="bool" value="true"/>
    <property name="is_starting_building" type="bool" value="false"/>
   </properties>
  </object>
  <object id="2366" x="321.522" y="993.667" width="14.6589" height="14.6589">
   <properties>
    <property name="building_type" value="empty"/>
    <property name="can_build" type="bool" value="true"/>
    <property name="is_starting_building" type="bool" value="false"/>
   </properties>
  </object>
  <object id="2367" x="321.46" y="1009.65" width="14.6589" height="14.6589">
   <properties>
    <property name="building_type" value="empty"/>
    <property name="can_build" type="bool" value="true"/>
    <property name="is_starting_building" type="bool" value="false"/>
   </properties>
  </object>
  <object id="2368" x="321.702" y="977.497" width="14.6589" height="14.6589">
   <properties>
    <property name="building_type" value="empty"/>
    <property name="can_build" type="bool" value="true"/>
    <property name="is_starting_building" type="bool" value="false"/>
   </properties>
  </object>
  <object id="2369" x="288.972" y="977.577" width="14.6589" height="14.6589">
   <properties>
    <property name="building_type" value="empty"/>
    <property name="can_build" type="bool" value="true"/>
    <property name="is_starting_building" type="bool" value="false"/>
   </properties>
  </object>
  <object id="2370" x="289.087" y="993.717" width="14.6589" height="14.6589">
   <properties>
    <property name="building_type" value="empty"/>
    <property name="can_build" type="bool" value="true"/>
    <property name="is_starting_building" type="bool" value="false"/>
   </properties>
  </object>
  <object id="2372" x="304.997" y="993.197" width="14.6589" height="14.6589">
   <properties>
    <property name="building_type" value="empty"/>
    <property name="can_build" type="bool" value="true"/>
    <property name="is_starting_building" type="bool" value="false"/>
   </properties>
  </object>
  <object id="2373" x="304.935" y="1009.18" width="14.6589" height="14.6589">
   <properties>
    <property name="building_type" value="empty"/>
    <property name="can_build" type="bool" value="true"/>
    <property name="is_starting_building" type="bool" value="false"/>
   </properties>
  </object>
  <object id="2374" x="305.177" y="977.027" width="14.6589" height="14.6589">
   <properties>
    <property name="building_type" value="empty"/>
    <property name="can_build" type="bool" value="true"/>
    <property name="is_starting_building" type="bool" value="false"/>
   </properties>
  </object>
  <object id="2375" x="369.189" y="993.001" width="14.6589" height="14.6589">
   <properties>
    <property name="building_type" value="empty"/>
    <property name="can_build" type="bool" value="true"/>
    <property name="is_starting_building" type="bool" value="false"/>
   </properties>
  </object>
  <object id="2376" x="369.127" y="1008.98" width="14.6589" height="14.6589">
   <properties>
    <property name="building_type" value="empty"/>
    <property name="can_build" type="bool" value="true"/>
    <property name="is_starting_building" type="bool" value="false"/>
   </properties>
  </object>
  <object id="2377" x="369.369" y="976.831" width="14.6589" height="14.6589">
   <properties>
    <property name="building_type" value="empty"/>
    <property name="can_build" type="bool" value="true"/>
    <property name="is_starting_building" type="bool" value="false"/>
   </properties>
  </object>
  <object id="2378" x="336.639" y="976.911" width="14.6589" height="14.6589">
   <properties>
    <property name="building_type" value="empty"/>
    <property name="can_build" type="bool" value="true"/>
    <property name="is_starting_building" type="bool" value="false"/>
   </properties>
  </object>
  <object id="2379" x="336.754" y="993.051" width="14.6589" height="14.6589">
   <properties>
    <property name="building_type" value="empty"/>
    <property name="can_build" type="bool" value="true"/>
    <property name="is_starting_building" type="bool" value="false"/>
   </properties>
  </object>
  <object id="2380" x="336.942" y="1008.82" width="14.6589" height="14.6589">
   <properties>
    <property name="building_type" value="empty"/>
    <property name="can_build" type="bool" value="true"/>
    <property name="is_starting_building" type="bool" value="false"/>
   </properties>
  </object>
  <object id="2381" x="352.664" y="992.531" width="14.6589" height="14.6589">
   <properties>
    <property name="building_type" value="empty"/>
    <property name="can_build" type="bool" value="true"/>
    <property name="is_starting_building" type="bool" value="false"/>
   </properties>
  </object>
  <object id="2382" x="352.602" y="1008.51" width="14.6589" height="14.6589">
   <properties>
    <property name="building_type" value="empty"/>
    <property name="can_build" type="bool" value="true"/>
    <property name="is_starting_building" type="bool" value="false"/>
   </properties>
  </object>
  <object id="2383" x="352.844" y="976.361" width="14.6589" height="14.6589">
   <properties>
    <property name="building_type" value="empty"/>
    <property name="can_build" type="bool" value="true"/>
    <property name="is_starting_building" type="bool" value="false"/>
   </properties>
  </object>
  <object id="2384" x="417.522" y="993.001" width="14.6589" height="14.6589">
   <properties>
    <property name="building_type" value="empty"/>
    <property name="can_build" type="bool" value="true"/>
    <property name="is_starting_building" type="bool" value="false"/>
   </properties>
  </object>
  <object id="2394" x="432.522" y="993.001" width="14.6589" height="14.6589">
   <properties>
    <property name="building_type" value="empty"/>
    <property name="can_build" type="bool" value="true"/>
    <property name="is_starting_building" type="bool" value="false"/>
   </properties>
  </object>
  <object id="2385" x="417.46" y="1008.98" width="14.6589" height="14.6589">
   <properties>
    <property name="building_type" value="empty"/>
    <property name="can_build" type="bool" value="true"/>
    <property name="is_starting_building" type="bool" value="false"/>
   </properties>
  </object>
  <object id="2393" x="432.46" y="1008.98" width="14.6589" height="14.6589">
   <properties>
    <property name="building_type" value="empty"/>
    <property name="can_build" type="bool" value="true"/>
    <property name="is_starting_building" type="bool" value="false"/>
   </properties>
  </object>
  <object id="2386" x="417.702" y="976.831" width="14.6589" height="14.6589">
   <properties>
    <property name="building_type" value="empty"/>
    <property name="can_build" type="bool" value="true"/>
    <property name="is_starting_building" type="bool" value="false"/>
   </properties>
  </object>
  <object id="2395" x="432.702" y="976.831" width="14.6589" height="14.6589">
   <properties>
    <property name="building_type" value="empty"/>
    <property name="can_build" type="bool" value="true"/>
    <property name="is_starting_building" type="bool" value="false"/>
   </properties>
  </object>
  <object id="2387" x="384.972" y="976.911" width="14.6589" height="14.6589">
   <properties>
    <property name="building_type" value="empty"/>
    <property name="can_build" type="bool" value="true"/>
    <property name="is_starting_building" type="bool" value="false"/>
   </properties>
  </object>
  <object id="2388" x="385.087" y="993.051" width="14.6589" height="14.6589">
   <properties>
    <property name="building_type" value="empty"/>
    <property name="can_build" type="bool" value="true"/>
    <property name="is_starting_building" type="bool" value="false"/>
   </properties>
  </object>
  <object id="2389" x="385.275" y="1008.82" width="14.6589" height="14.6589">
   <properties>
    <property name="building_type" value="empty"/>
    <property name="can_build" type="bool" value="true"/>
    <property name="is_starting_building" type="bool" value="false"/>
   </properties>
  </object>
  <object id="2390" x="400.997" y="992.531" width="14.6589" height="14.6589">
   <properties>
    <property name="building_type" value="empty"/>
    <property name="can_build" type="bool" value="true"/>
    <property name="is_starting_building" type="bool" value="false"/>
   </properties>
  </object>
  <object id="2391" x="400.935" y="1008.51" width="14.6589" height="14.6589">
   <properties>
    <property name="building_type" value="empty"/>
    <property name="can_build" type="bool" value="true"/>
    <property name="is_starting_building" type="bool" value="false"/>
   </properties>
  </object>
  <object id="2392" x="401.177" y="976.361" width="14.6589" height="14.6589">
   <properties>
    <property name="building_type" value="empty"/>
    <property name="can_build" type="bool" value="true"/>
    <property name="is_starting_building" type="bool" value="false"/>
   </properties>
  </object>
  <object id="2396" x="321.856" y="946.001" width="14.6589" height="14.6589">
   <properties>
    <property name="building_type" value="empty"/>
    <property name="can_build" type="bool" value="true"/>
    <property name="is_starting_building" type="bool" value="false"/>
   </properties>
  </object>
  <object id="2397" x="321.794" y="961.981" width="14.6589" height="14.6589">
   <properties>
    <property name="building_type" value="empty"/>
    <property name="can_build" type="bool" value="true"/>
    <property name="is_starting_building" type="bool" value="false"/>
   </properties>
  </object>
  <object id="2398" x="322.036" y="929.831" width="14.6589" height="14.6589">
   <properties>
    <property name="building_type" value="empty"/>
    <property name="can_build" type="bool" value="true"/>
    <property name="is_starting_building" type="bool" value="false"/>
   </properties>
  </object>
  <object id="2399" x="289.306" y="929.911" width="14.6589" height="14.6589">
   <properties>
    <property name="building_type" value="empty"/>
    <property name="can_build" type="bool" value="true"/>
    <property name="is_starting_building" type="bool" value="false"/>
   </properties>
  </object>
  <object id="2400" x="289.421" y="946.051" width="14.6589" height="14.6589">
   <properties>
    <property name="building_type" value="empty"/>
    <property name="can_build" type="bool" value="true"/>
    <property name="is_starting_building" type="bool" value="false"/>
   </properties>
  </object>
  <object id="2401" x="289.609" y="961.821" width="14.6589" height="14.6589">
   <properties>
    <property name="building_type" value="empty"/>
    <property name="can_build" type="bool" value="true"/>
    <property name="is_starting_building" type="bool" value="false"/>
   </properties>
  </object>
  <object id="2402" x="305.331" y="945.531" width="14.6589" height="14.6589">
   <properties>
    <property name="building_type" value="empty"/>
    <property name="can_build" type="bool" value="true"/>
    <property name="is_starting_building" type="bool" value="false"/>
   </properties>
  </object>
  <object id="2403" x="305.269" y="961.511" width="14.6589" height="14.6589">
   <properties>
    <property name="building_type" value="empty"/>
    <property name="can_build" type="bool" value="true"/>
    <property name="is_starting_building" type="bool" value="false"/>
   </properties>
  </object>
  <object id="2404" x="305.511" y="929.361" width="14.6589" height="14.6589">
   <properties>
    <property name="building_type" value="empty"/>
    <property name="can_build" type="bool" value="true"/>
    <property name="is_starting_building" type="bool" value="false"/>
   </properties>
  </object>
  <object id="2405" x="370.522" y="945.667" width="14.6589" height="14.6589">
   <properties>
    <property name="building_type" value="empty"/>
    <property name="can_build" type="bool" value="true"/>
    <property name="is_starting_building" type="bool" value="false"/>
   </properties>
  </object>
  <object id="2406" x="370.46" y="961.647" width="14.6589" height="14.6589">
   <properties>
    <property name="building_type" value="empty"/>
    <property name="can_build" type="bool" value="true"/>
    <property name="is_starting_building" type="bool" value="false"/>
   </properties>
  </object>
  <object id="2407" x="370.702" y="929.497" width="14.6589" height="14.6589">
   <properties>
    <property name="building_type" value="empty"/>
    <property name="can_build" type="bool" value="true"/>
    <property name="is_starting_building" type="bool" value="false"/>
   </properties>
  </object>
  <object id="2408" x="337.972" y="929.577" width="14.6589" height="14.6589">
   <properties>
    <property name="building_type" value="empty"/>
    <property name="can_build" type="bool" value="true"/>
    <property name="is_starting_building" type="bool" value="false"/>
   </properties>
  </object>
  <object id="2409" x="338.087" y="945.717" width="14.6589" height="14.6589">
   <properties>
    <property name="building_type" value="empty"/>
    <property name="can_build" type="bool" value="true"/>
    <property name="is_starting_building" type="bool" value="false"/>
   </properties>
  </object>
  <object id="2410" x="338.275" y="961.487" width="14.6589" height="14.6589">
   <properties>
    <property name="building_type" value="empty"/>
    <property name="can_build" type="bool" value="true"/>
    <property name="is_starting_building" type="bool" value="false"/>
   </properties>
  </object>
  <object id="2411" x="353.997" y="945.197" width="14.6589" height="14.6589">
   <properties>
    <property name="building_type" value="empty"/>
    <property name="can_build" type="bool" value="true"/>
    <property name="is_starting_building" type="bool" value="false"/>
   </properties>
  </object>
  <object id="2412" x="353.935" y="961.177" width="14.6589" height="14.6589">
   <properties>
    <property name="building_type" value="empty"/>
    <property name="can_build" type="bool" value="true"/>
    <property name="is_starting_building" type="bool" value="false"/>
   </properties>
  </object>
  <object id="2414" x="417.856" y="945.667" width="14.6589" height="14.6589">
   <properties>
    <property name="building_type" value="empty"/>
    <property name="can_build" type="bool" value="true"/>
    <property name="is_starting_building" type="bool" value="false"/>
   </properties>
  </object>
  <object id="2423" x="433.189" y="961.667" width="14.6589" height="14.6589">
   <properties>
    <property name="building_type" value="empty"/>
    <property name="can_build" type="bool" value="true"/>
    <property name="is_starting_building" type="bool" value="false"/>
   </properties>
  </object>
  <object id="2415" x="417.794" y="961.647" width="14.6589" height="14.6589">
   <properties>
    <property name="building_type" value="empty"/>
    <property name="can_build" type="bool" value="true"/>
    <property name="is_starting_building" type="bool" value="false"/>
   </properties>
  </object>
  <object id="2416" x="418.036" y="929.497" width="14.6589" height="14.6589">
   <properties>
    <property name="building_type" value="empty"/>
    <property name="can_build" type="bool" value="true"/>
    <property name="is_starting_building" type="bool" value="false"/>
   </properties>
  </object>
  <object id="2424" x="433.369" y="945.497" width="14.6589" height="14.6589">
   <properties>
    <property name="building_type" value="empty"/>
    <property name="can_build" type="bool" value="true"/>
    <property name="is_starting_building" type="bool" value="false"/>
   </properties>
  </object>
  <object id="2417" x="385.306" y="929.577" width="14.6589" height="14.6589">
   <properties>
    <property name="building_type" value="empty"/>
    <property name="can_build" type="bool" value="true"/>
    <property name="is_starting_building" type="bool" value="false"/>
   </properties>
  </object>
  <object id="2418" x="385.421" y="945.717" width="14.6589" height="14.6589">
   <properties>
    <property name="building_type" value="empty"/>
    <property name="can_build" type="bool" value="true"/>
    <property name="is_starting_building" type="bool" value="false"/>
   </properties>
  </object>
  <object id="2419" x="385.609" y="961.487" width="14.6589" height="14.6589">
   <properties>
    <property name="building_type" value="empty"/>
    <property name="can_build" type="bool" value="true"/>
    <property name="is_starting_building" type="bool" value="false"/>
   </properties>
  </object>
  <object id="2420" x="401.331" y="945.197" width="14.6589" height="14.6589">
   <properties>
    <property name="building_type" value="empty"/>
    <property name="can_build" type="bool" value="true"/>
    <property name="is_starting_building" type="bool" value="false"/>
   </properties>
  </object>
  <object id="2421" x="401.269" y="961.177" width="14.6589" height="14.6589">
   <properties>
    <property name="building_type" value="empty"/>
    <property name="can_build" type="bool" value="true"/>
    <property name="is_starting_building" type="bool" value="false"/>
   </properties>
  </object>
  <object id="2422" x="401.511" y="929.027" width="14.6589" height="14.6589">
   <properties>
    <property name="building_type" value="empty"/>
    <property name="can_build" type="bool" value="true"/>
    <property name="is_starting_building" type="bool" value="false"/>
   </properties>
  </object>
  <object id="2425" x="385.856" y="897.001" width="14.6589" height="14.6589">
   <properties>
    <property name="building_type" value="empty"/>
    <property name="can_build" type="bool" value="true"/>
    <property name="is_starting_building" type="bool" value="false"/>
   </properties>
  </object>
  <object id="2426" x="385.794" y="912.981" width="14.6589" height="14.6589">
   <properties>
    <property name="building_type" value="empty"/>
    <property name="can_build" type="bool" value="true"/>
    <property name="is_starting_building" type="bool" value="false"/>
   </properties>
  </object>
  <object id="2427" x="386.036" y="880.831" width="14.6589" height="14.6589">
   <properties>
    <property name="building_type" value="empty"/>
    <property name="can_build" type="bool" value="true"/>
    <property name="is_starting_building" type="bool" value="false"/>
   </properties>
  </object>
  <object id="2428" x="353.306" y="880.911" width="14.6589" height="14.6589">
   <properties>
    <property name="building_type" value="empty"/>
    <property name="can_build" type="bool" value="true"/>
    <property name="is_starting_building" type="bool" value="false"/>
   </properties>
  </object>
  <object id="2429" x="353.421" y="897.051" width="14.6589" height="14.6589">
   <properties>
    <property name="building_type" value="empty"/>
    <property name="can_build" type="bool" value="true"/>
    <property name="is_starting_building" type="bool" value="false"/>
   </properties>
  </object>
  <object id="2430" x="353.609" y="912.821" width="14.6589" height="14.6589">
   <properties>
    <property name="building_type" value="empty"/>
    <property name="can_build" type="bool" value="true"/>
    <property name="is_starting_building" type="bool" value="false"/>
   </properties>
  </object>
  <object id="2431" x="369.331" y="896.531" width="14.6589" height="14.6589">
   <properties>
    <property name="building_type" value="empty"/>
    <property name="can_build" type="bool" value="true"/>
    <property name="is_starting_building" type="bool" value="false"/>
   </properties>
  </object>
  <object id="2432" x="369.269" y="912.511" width="14.6589" height="14.6589">
   <properties>
    <property name="building_type" value="empty"/>
    <property name="can_build" type="bool" value="true"/>
    <property name="is_starting_building" type="bool" value="false"/>
   </properties>
  </object>
  <object id="2433" x="369.511" y="880.361" width="14.6589" height="14.6589">
   <properties>
    <property name="building_type" value="empty"/>
    <property name="can_build" type="bool" value="true"/>
    <property name="is_starting_building" type="bool" value="false"/>
   </properties>
  </object>
  <object id="2434" x="385.037" y="849.546" width="14.6589" height="14.6589">
   <properties>
    <property name="building_type" value="empty"/>
    <property name="can_build" type="bool" value="true"/>
    <property name="is_starting_building" type="bool" value="false"/>
   </properties>
  </object>
  <object id="2435" x="384.975" y="865.526" width="14.6589" height="14.6589">
   <properties>
    <property name="building_type" value="empty"/>
    <property name="can_build" type="bool" value="true"/>
    <property name="is_starting_building" type="bool" value="false"/>
   </properties>
  </object>
  <object id="2436" x="385.217" y="833.376" width="14.6589" height="14.6589">
   <properties>
    <property name="building_type" value="empty"/>
    <property name="can_build" type="bool" value="true"/>
    <property name="is_starting_building" type="bool" value="false"/>
   </properties>
  </object>
  <object id="2437" x="352.487" y="833.456" width="14.6589" height="14.6589">
   <properties>
    <property name="building_type" value="empty"/>
    <property name="can_build" type="bool" value="true"/>
    <property name="is_starting_building" type="bool" value="false"/>
   </properties>
  </object>
  <object id="2438" x="352.602" y="849.596" width="14.6589" height="14.6589">
   <properties>
    <property name="building_type" value="empty"/>
    <property name="can_build" type="bool" value="true"/>
    <property name="is_starting_building" type="bool" value="false"/>
   </properties>
  </object>
  <object id="2439" x="352.79" y="865.366" width="14.6589" height="14.6589">
   <properties>
    <property name="building_type" value="empty"/>
    <property name="can_build" type="bool" value="true"/>
    <property name="is_starting_building" type="bool" value="false"/>
   </properties>
  </object>
  <object id="2440" x="368.512" y="849.076" width="14.6589" height="14.6589">
   <properties>
    <property name="building_type" value="empty"/>
    <property name="can_build" type="bool" value="true"/>
    <property name="is_starting_building" type="bool" value="false"/>
   </properties>
  </object>
  <object id="2441" x="368.45" y="865.056" width="14.6589" height="14.6589">
   <properties>
    <property name="building_type" value="empty"/>
    <property name="can_build" type="bool" value="true"/>
    <property name="is_starting_building" type="bool" value="false"/>
   </properties>
  </object>
  <object id="2442" x="368.692" y="832.906" width="14.6589" height="14.6589">
   <properties>
    <property name="building_type" value="empty"/>
    <property name="can_build" type="bool" value="true"/>
    <property name="is_starting_building" type="bool" value="false"/>
   </properties>
  </object>
  <object id="2446" x="401.033" y="833.274" width="14.6589" height="14.6589">
   <properties>
    <property name="building_type" value="empty"/>
    <property name="can_build" type="bool" value="true"/>
    <property name="is_starting_building" type="bool" value="false"/>
   </properties>
  </object>
  <object id="2447" x="401.148" y="849.414" width="14.6589" height="14.6589">
   <properties>
    <property name="building_type" value="empty"/>
    <property name="can_build" type="bool" value="true"/>
    <property name="is_starting_building" type="bool" value="false"/>
   </properties>
  </object>
  <object id="2448" x="401.336" y="865.184" width="14.6589" height="14.6589">
   <properties>
    <property name="building_type" value="empty"/>
    <property name="can_build" type="bool" value="true"/>
    <property name="is_starting_building" type="bool" value="false"/>
   </properties>
  </object>
  <object id="2455" x="401.578" y="881.456" width="14.6589" height="14.6589">
   <properties>
    <property name="building_type" value="empty"/>
    <property name="can_build" type="bool" value="true"/>
    <property name="is_starting_building" type="bool" value="false"/>
   </properties>
  </object>
  <object id="2456" x="401.693" y="897.596" width="14.6589" height="14.6589">
   <properties>
    <property name="building_type" value="empty"/>
    <property name="can_build" type="bool" value="true"/>
    <property name="is_starting_building" type="bool" value="false"/>
   </properties>
  </object>
  <object id="2457" x="401.881" y="913.366" width="14.6589" height="14.6589">
   <properties>
    <property name="building_type" value="empty"/>
    <property name="can_build" type="bool" value="true"/>
    <property name="is_starting_building" type="bool" value="false"/>
   </properties>
  </object>
  <object id="2459" x="417.541" y="913.056" width="14.6589" height="14.6589">
   <properties>
    <property name="building_type" value="empty"/>
    <property name="can_build" type="bool" value="true"/>
    <property name="is_starting_building" type="bool" value="false"/>
   </properties>
  </object>
  <object id="2461" x="33.189" y="945.667" width="14.6589" height="14.6589">
   <properties>
    <property name="building_type" value="empty"/>
    <property name="can_build" type="bool" value="true"/>
    <property name="is_starting_building" type="bool" value="false"/>
   </properties>
  </object>
  <object id="2462" x="33.1269" y="961.647" width="14.6589" height="14.6589">
   <properties>
    <property name="building_type" value="empty"/>
    <property name="can_build" type="bool" value="true"/>
    <property name="is_starting_building" type="bool" value="false"/>
   </properties>
  </object>
  <object id="2463" x="33.3689" y="929.497" width="14.6589" height="14.6589">
   <properties>
    <property name="building_type" value="empty"/>
    <property name="can_build" type="bool" value="true"/>
    <property name="is_starting_building" type="bool" value="false"/>
   </properties>
  </object>
  <object id="2464" x="0.638908" y="929.577" width="14.6589" height="14.6589">
   <properties>
    <property name="building_type" value="empty"/>
    <property name="can_build" type="bool" value="true"/>
    <property name="is_starting_building" type="bool" value="false"/>
   </properties>
  </object>
  <object id="2465" x="0.753908" y="945.717" width="14.6589" height="14.6589">
   <properties>
    <property name="building_type" value="empty"/>
    <property name="can_build" type="bool" value="true"/>
    <property name="is_starting_building" type="bool" value="false"/>
   </properties>
  </object>
  <object id="2466" x="0.941908" y="961.487" width="14.6589" height="14.6589">
   <properties>
    <property name="building_type" value="empty"/>
    <property name="can_build" type="bool" value="true"/>
    <property name="is_starting_building" type="bool" value="false"/>
   </properties>
  </object>
  <object id="2467" x="16.664" y="945.197" width="14.6589" height="14.6589">
   <properties>
    <property name="building_type" value="empty"/>
    <property name="can_build" type="bool" value="true"/>
    <property name="is_starting_building" type="bool" value="false"/>
   </properties>
  </object>
  <object id="2468" x="16.602" y="961.177" width="14.6589" height="14.6589">
   <properties>
    <property name="building_type" value="empty"/>
    <property name="can_build" type="bool" value="true"/>
    <property name="is_starting_building" type="bool" value="false"/>
   </properties>
  </object>
  <object id="2469" x="16.8439" y="929.027" width="14.6589" height="14.6589">
   <properties>
    <property name="building_type" value="empty"/>
    <property name="can_build" type="bool" value="true"/>
    <property name="is_starting_building" type="bool" value="false"/>
   </properties>
  </object>
  <object id="2470" x="81.8556" y="945.251" width="14.6589" height="14.6589">
   <properties>
    <property name="building_type" value="empty"/>
    <property name="can_build" type="bool" value="true"/>
    <property name="is_starting_building" type="bool" value="false"/>
   </properties>
  </object>
  <object id="2471" x="81.7935" y="961.231" width="14.6589" height="14.6589">
   <properties>
    <property name="building_type" value="empty"/>
    <property name="can_build" type="bool" value="true"/>
    <property name="is_starting_building" type="bool" value="false"/>
   </properties>
  </object>
  <object id="2472" x="82.0355" y="929.081" width="14.6589" height="14.6589">
   <properties>
    <property name="building_type" value="empty"/>
    <property name="can_build" type="bool" value="true"/>
    <property name="is_starting_building" type="bool" value="false"/>
   </properties>
  </object>
  <object id="2473" x="49.3056" y="929.161" width="14.6589" height="14.6589">
   <properties>
    <property name="building_type" value="empty"/>
    <property name="can_build" type="bool" value="true"/>
    <property name="is_starting_building" type="bool" value="false"/>
   </properties>
  </object>
  <object id="2474" x="49.4206" y="945.301" width="14.6589" height="14.6589">
   <properties>
    <property name="building_type" value="empty"/>
    <property name="can_build" type="bool" value="true"/>
    <property name="is_starting_building" type="bool" value="false"/>
   </properties>
  </object>
  <object id="2475" x="49.6086" y="961.071" width="14.6589" height="14.6589">
   <properties>
    <property name="building_type" value="empty"/>
    <property name="can_build" type="bool" value="true"/>
    <property name="is_starting_building" type="bool" value="false"/>
   </properties>
  </object>
  <object id="2476" x="65.3306" y="944.781" width="14.6589" height="14.6589">
   <properties>
    <property name="building_type" value="empty"/>
    <property name="can_build" type="bool" value="true"/>
    <property name="is_starting_building" type="bool" value="false"/>
   </properties>
  </object>
  <object id="2477" x="65.2686" y="960.761" width="14.6589" height="14.6589">
   <properties>
    <property name="building_type" value="empty"/>
    <property name="can_build" type="bool" value="true"/>
    <property name="is_starting_building" type="bool" value="false"/>
   </properties>
  </object>
  <object id="2478" x="65.5105" y="928.611" width="14.6589" height="14.6589">
   <properties>
    <property name="building_type" value="empty"/>
    <property name="can_build" type="bool" value="true"/>
    <property name="is_starting_building" type="bool" value="false"/>
   </properties>
  </object>
  <object id="2479" x="129.356" y="945.001" width="14.6589" height="14.6589">
   <properties>
    <property name="building_type" value="empty"/>
    <property name="can_build" type="bool" value="true"/>
    <property name="is_starting_building" type="bool" value="false"/>
   </properties>
  </object>
  <object id="2480" x="129.294" y="960.981" width="14.6589" height="14.6589">
   <properties>
    <property name="building_type" value="empty"/>
    <property name="can_build" type="bool" value="true"/>
    <property name="is_starting_building" type="bool" value="false"/>
   </properties>
  </object>
  <object id="2481" x="129.536" y="928.831" width="14.6589" height="14.6589">
   <properties>
    <property name="building_type" value="empty"/>
    <property name="can_build" type="bool" value="true"/>
    <property name="is_starting_building" type="bool" value="false"/>
   </properties>
  </object>
  <object id="2482" x="96.8056" y="928.911" width="14.6589" height="14.6589">
   <properties>
    <property name="building_type" value="empty"/>
    <property name="can_build" type="bool" value="true"/>
    <property name="is_starting_building" type="bool" value="false"/>
   </properties>
  </object>
  <object id="2483" x="96.9206" y="945.051" width="14.6589" height="14.6589">
   <properties>
    <property name="building_type" value="empty"/>
    <property name="can_build" type="bool" value="true"/>
    <property name="is_starting_building" type="bool" value="false"/>
   </properties>
  </object>
  <object id="2484" x="97.1086" y="960.821" width="14.6589" height="14.6589">
   <properties>
    <property name="building_type" value="empty"/>
    <property name="can_build" type="bool" value="true"/>
    <property name="is_starting_building" type="bool" value="false"/>
   </properties>
  </object>
  <object id="2485" x="112.831" y="944.531" width="14.6589" height="14.6589">
   <properties>
    <property name="building_type" value="empty"/>
    <property name="can_build" type="bool" value="true"/>
    <property name="is_starting_building" type="bool" value="false"/>
   </properties>
  </object>
  <object id="2486" x="112.769" y="960.511" width="14.6589" height="14.6589">
   <properties>
    <property name="building_type" value="empty"/>
    <property name="can_build" type="bool" value="true"/>
    <property name="is_starting_building" type="bool" value="false"/>
   </properties>
  </object>
  <object id="2487" x="113.011" y="928.361" width="14.6589" height="14.6589">
   <properties>
    <property name="building_type" value="empty"/>
    <property name="can_build" type="bool" value="true"/>
    <property name="is_starting_building" type="bool" value="false"/>
   </properties>
  </object>
  <object id="2488" x="178.106" y="945.751" width="14.6589" height="14.6589">
   <properties>
    <property name="building_type" value="empty"/>
    <property name="can_build" type="bool" value="true"/>
    <property name="is_starting_building" type="bool" value="false"/>
   </properties>
  </object>
  <object id="2498" x="226.356" y="945.501" width="14.6589" height="14.6589">
   <properties>
    <property name="building_type" value="empty"/>
    <property name="can_build" type="bool" value="true"/>
    <property name="is_starting_building" type="bool" value="false"/>
   </properties>
  </object>
  <object id="2513" x="274.356" y="945.251" width="14.6589" height="14.6589">
   <properties>
    <property name="building_type" value="empty"/>
    <property name="can_build" type="bool" value="true"/>
    <property name="is_starting_building" type="bool" value="false"/>
   </properties>
  </object>
  <object id="2489" x="178.044" y="961.731" width="14.6589" height="14.6589">
   <properties>
    <property name="building_type" value="empty"/>
    <property name="can_build" type="bool" value="true"/>
    <property name="is_starting_building" type="bool" value="false"/>
   </properties>
  </object>
  <object id="2490" x="178.286" y="929.581" width="14.6589" height="14.6589">
   <properties>
    <property name="building_type" value="empty"/>
    <property name="can_build" type="bool" value="true"/>
    <property name="is_starting_building" type="bool" value="false"/>
   </properties>
  </object>
  <object id="2501" x="226.536" y="929.331" width="14.6589" height="14.6589">
   <properties>
    <property name="building_type" value="empty"/>
    <property name="can_build" type="bool" value="true"/>
    <property name="is_starting_building" type="bool" value="false"/>
   </properties>
  </object>
  <object id="2516" x="274.536" y="929.081" width="14.6589" height="14.6589">
   <properties>
    <property name="building_type" value="empty"/>
    <property name="can_build" type="bool" value="true"/>
    <property name="is_starting_building" type="bool" value="false"/>
   </properties>
  </object>
  <object id="2491" x="145.556" y="929.661" width="14.6589" height="14.6589">
   <properties>
    <property name="building_type" value="empty"/>
    <property name="can_build" type="bool" value="true"/>
    <property name="is_starting_building" type="bool" value="false"/>
   </properties>
  </object>
  <object id="2500" x="193.806" y="929.411" width="14.6589" height="14.6589">
   <properties>
    <property name="building_type" value="empty"/>
    <property name="can_build" type="bool" value="true"/>
    <property name="is_starting_building" type="bool" value="false"/>
   </properties>
  </object>
  <object id="2515" x="241.806" y="929.161" width="14.6589" height="14.6589">
   <properties>
    <property name="building_type" value="empty"/>
    <property name="can_build" type="bool" value="true"/>
    <property name="is_starting_building" type="bool" value="false"/>
   </properties>
  </object>
  <object id="2492" x="145.671" y="945.801" width="14.6589" height="14.6589">
   <properties>
    <property name="building_type" value="empty"/>
    <property name="can_build" type="bool" value="true"/>
    <property name="is_starting_building" type="bool" value="false"/>
   </properties>
  </object>
  <object id="2497" x="193.921" y="945.551" width="14.6589" height="14.6589">
   <properties>
    <property name="building_type" value="empty"/>
    <property name="can_build" type="bool" value="true"/>
    <property name="is_starting_building" type="bool" value="false"/>
   </properties>
  </object>
  <object id="2512" x="241.921" y="945.301" width="14.6589" height="14.6589">
   <properties>
    <property name="building_type" value="empty"/>
    <property name="can_build" type="bool" value="true"/>
    <property name="is_starting_building" type="bool" value="false"/>
   </properties>
  </object>
  <object id="2493" x="145.859" y="961.571" width="14.6589" height="14.6589">
   <properties>
    <property name="building_type" value="empty"/>
    <property name="can_build" type="bool" value="true"/>
    <property name="is_starting_building" type="bool" value="false"/>
   </properties>
  </object>
  <object id="2494" x="161.581" y="945.281" width="14.6589" height="14.6589">
   <properties>
    <property name="building_type" value="empty"/>
    <property name="can_build" type="bool" value="true"/>
    <property name="is_starting_building" type="bool" value="false"/>
   </properties>
  </object>
  <object id="2499" x="209.831" y="945.031" width="14.6589" height="14.6589">
   <properties>
    <property name="building_type" value="empty"/>
    <property name="can_build" type="bool" value="true"/>
    <property name="is_starting_building" type="bool" value="false"/>
   </properties>
  </object>
  <object id="2514" x="257.831" y="944.781" width="14.6589" height="14.6589">
   <properties>
    <property name="building_type" value="empty"/>
    <property name="can_build" type="bool" value="true"/>
    <property name="is_starting_building" type="bool" value="false"/>
   </properties>
  </object>
  <object id="2495" x="161.519" y="961.261" width="14.6589" height="14.6589">
   <properties>
    <property name="building_type" value="empty"/>
    <property name="can_build" type="bool" value="true"/>
    <property name="is_starting_building" type="bool" value="false"/>
   </properties>
  </object>
  <object id="2496" x="161.761" y="929.111" width="14.6589" height="14.6589">
   <properties>
    <property name="building_type" value="empty"/>
    <property name="can_build" type="bool" value="true"/>
    <property name="is_starting_building" type="bool" value="false"/>
   </properties>
  </object>
  <object id="2502" x="210.011" y="928.861" width="14.6589" height="14.6589">
   <properties>
    <property name="building_type" value="empty"/>
    <property name="can_build" type="bool" value="true"/>
    <property name="is_starting_building" type="bool" value="false"/>
   </properties>
  </object>
  <object id="2517" x="258.011" y="928.611" width="14.6589" height="14.6589">
   <properties>
    <property name="building_type" value="empty"/>
    <property name="can_build" type="bool" value="true"/>
    <property name="is_starting_building" type="bool" value="false"/>
   </properties>
  </object>
  <object id="2523" x="561.271" y="736.898" width="14.6589" height="14.6589">
   <properties>
    <property name="building_type" value="empty"/>
    <property name="can_build" type="bool" value="true"/>
    <property name="is_starting_building" type="bool" value="false"/>
   </properties>
  </object>
  <object id="2524" x="577.212" y="736.611" width="14.6589" height="14.6589">
   <properties>
    <property name="building_type" value="empty"/>
    <property name="can_build" type="bool" value="true"/>
    <property name="is_starting_building" type="bool" value="false"/>
   </properties>
  </object>
  <object id="2605" x="449.977" y="593.246" width="14.6589" height="14.6589">
   <properties>
    <property name="building_type" value="empty"/>
    <property name="can_build" type="bool" value="true"/>
    <property name="is_starting_building" type="bool" value="false"/>
   </properties>
  </object>
  <object id="2606" x="449.914" y="609.226" width="14.6589" height="14.6589">
   <properties>
    <property name="building_type" value="empty"/>
    <property name="can_build" type="bool" value="true"/>
    <property name="is_starting_building" type="bool" value="false"/>
   </properties>
  </object>
  <object id="2607" x="466.042" y="593.546" width="14.6589" height="14.6589">
   <properties>
    <property name="building_type" value="empty"/>
    <property name="can_build" type="bool" value="true"/>
    <property name="is_starting_building" type="bool" value="false"/>
   </properties>
  </object>
  <object id="2608" x="466.229" y="609.316" width="14.6589" height="14.6589">
   <properties>
    <property name="building_type" value="empty"/>
    <property name="can_build" type="bool" value="true"/>
    <property name="is_starting_building" type="bool" value="false"/>
   </properties>
  </object>
  <object id="2609" x="481.952" y="593.026" width="14.6589" height="14.6589">
   <properties>
    <property name="building_type" value="empty"/>
    <property name="can_build" type="bool" value="true"/>
    <property name="is_starting_building" type="bool" value="false"/>
   </properties>
  </object>
  <object id="2610" x="481.89" y="609.006" width="14.6589" height="14.6589">
   <properties>
    <property name="building_type" value="empty"/>
    <property name="can_build" type="bool" value="true"/>
    <property name="is_starting_building" type="bool" value="false"/>
   </properties>
  </object>
  <object id="2611" x="434.452" y="593.276" width="14.6589" height="14.6589">
   <properties>
    <property name="building_type" value="empty"/>
    <property name="can_build" type="bool" value="true"/>
    <property name="is_starting_building" type="bool" value="false"/>
   </properties>
  </object>
  <object id="2612" x="434.39" y="609.256" width="14.6589" height="14.6589">
   <properties>
    <property name="building_type" value="empty"/>
    <property name="can_build" type="bool" value="true"/>
    <property name="is_starting_building" type="bool" value="false"/>
   </properties>
  </object>
  <object id="2613" x="448.977" y="625.496" width="14.6589" height="14.6589">
   <properties>
    <property name="building_type" value="empty"/>
    <property name="can_build" type="bool" value="true"/>
    <property name="is_starting_building" type="bool" value="false"/>
   </properties>
  </object>
  <object id="2614" x="448.914" y="641.476" width="14.6589" height="14.6589">
   <properties>
    <property name="building_type" value="empty"/>
    <property name="can_build" type="bool" value="true"/>
    <property name="is_starting_building" type="bool" value="false"/>
   </properties>
  </object>
  <object id="2615" x="465.042" y="625.796" width="14.6589" height="14.6589">
   <properties>
    <property name="building_type" value="empty"/>
    <property name="can_build" type="bool" value="true"/>
    <property name="is_starting_building" type="bool" value="false"/>
   </properties>
  </object>
  <object id="2616" x="465.229" y="641.566" width="14.6589" height="14.6589">
   <properties>
    <property name="building_type" value="empty"/>
    <property name="can_build" type="bool" value="true"/>
    <property name="is_starting_building" type="bool" value="false"/>
   </properties>
  </object>
  <object id="2617" x="480.952" y="625.276" width="14.6589" height="14.6589">
   <properties>
    <property name="building_type" value="empty"/>
    <property name="can_build" type="bool" value="true"/>
    <property name="is_starting_building" type="bool" value="false"/>
   </properties>
  </object>
  <object id="2618" x="480.89" y="641.256" width="14.6589" height="14.6589">
   <properties>
    <property name="building_type" value="empty"/>
    <property name="can_build" type="bool" value="true"/>
    <property name="is_starting_building" type="bool" value="false"/>
   </properties>
  </object>
  <object id="2619" x="433.452" y="625.526" width="14.6589" height="14.6589">
   <properties>
    <property name="building_type" value="empty"/>
    <property name="can_build" type="bool" value="true"/>
    <property name="is_starting_building" type="bool" value="false"/>
   </properties>
  </object>
  <object id="2620" x="433.39" y="641.506" width="14.6589" height="14.6589">
   <properties>
    <property name="building_type" value="empty"/>
    <property name="can_build" type="bool" value="true"/>
    <property name="is_starting_building" type="bool" value="false"/>
   </properties>
  </object>
  <object id="2621" x="448.977" y="657.746" width="14.6589" height="14.6589">
   <properties>
    <property name="building_type" value="empty"/>
    <property name="can_build" type="bool" value="true"/>
    <property name="is_starting_building" type="bool" value="false"/>
   </properties>
  </object>
  <object id="2622" x="448.914" y="673.726" width="14.6589" height="14.6589">
   <properties>
    <property name="building_type" value="empty"/>
    <property name="can_build" type="bool" value="true"/>
    <property name="is_starting_building" type="bool" value="false"/>
   </properties>
  </object>
  <object id="2623" x="465.042" y="658.046" width="14.6589" height="14.6589">
   <properties>
    <property name="building_type" value="empty"/>
    <property name="can_build" type="bool" value="true"/>
    <property name="is_starting_building" type="bool" value="false"/>
   </properties>
  </object>
  <object id="2624" x="465.229" y="673.816" width="14.6589" height="14.6589">
   <properties>
    <property name="building_type" value="empty"/>
    <property name="can_build" type="bool" value="true"/>
    <property name="is_starting_building" type="bool" value="false"/>
   </properties>
  </object>
  <object id="2625" x="480.952" y="657.526" width="14.6589" height="14.6589">
   <properties>
    <property name="building_type" value="empty"/>
    <property name="can_build" type="bool" value="true"/>
    <property name="is_starting_building" type="bool" value="false"/>
   </properties>
  </object>
  <object id="2626" x="480.89" y="673.506" width="14.6589" height="14.6589">
   <properties>
    <property name="building_type" value="empty"/>
    <property name="can_build" type="bool" value="true"/>
    <property name="is_starting_building" type="bool" value="false"/>
   </properties>
  </object>
  <object id="2627" x="433.452" y="657.776" width="14.6589" height="14.6589">
   <properties>
    <property name="building_type" value="empty"/>
    <property name="can_build" type="bool" value="true"/>
    <property name="is_starting_building" type="bool" value="false"/>
   </properties>
  </object>
  <object id="2628" x="433.39" y="673.756" width="14.6589" height="14.6589">
   <properties>
    <property name="building_type" value="empty"/>
    <property name="can_build" type="bool" value="true"/>
    <property name="is_starting_building" type="bool" value="false"/>
   </properties>
  </object>
  <object id="2629" x="513.477" y="655.996" width="14.6589" height="14.6589">
   <properties>
    <property name="building_type" value="empty"/>
    <property name="can_build" type="bool" value="true"/>
    <property name="is_starting_building" type="bool" value="false"/>
   </properties>
  </object>
  <object id="2630" x="513.414" y="671.976" width="14.6589" height="14.6589">
   <properties>
    <property name="building_type" value="empty"/>
    <property name="can_build" type="bool" value="true"/>
    <property name="is_starting_building" type="bool" value="false"/>
   </properties>
  </object>
  <object id="2631" x="529.542" y="656.296" width="14.6589" height="14.6589">
   <properties>
    <property name="building_type" value="empty"/>
    <property name="can_build" type="bool" value="true"/>
    <property name="is_starting_building" type="bool" value="false"/>
   </properties>
  </object>
  <object id="2632" x="529.729" y="672.066" width="14.6589" height="14.6589">
   <properties>
    <property name="building_type" value="empty"/>
    <property name="can_build" type="bool" value="true"/>
    <property name="is_starting_building" type="bool" value="false"/>
   </properties>
  </object>
  <object id="2633" x="545.452" y="655.776" width="14.6589" height="14.6589">
   <properties>
    <property name="building_type" value="empty"/>
    <property name="can_build" type="bool" value="true"/>
    <property name="is_starting_building" type="bool" value="false"/>
   </properties>
  </object>
  <object id="2634" x="545.39" y="671.756" width="14.6589" height="14.6589">
   <properties>
    <property name="building_type" value="empty"/>
    <property name="can_build" type="bool" value="true"/>
    <property name="is_starting_building" type="bool" value="false"/>
   </properties>
  </object>
  <object id="2635" x="497.952" y="656.026" width="14.6589" height="14.6589">
   <properties>
    <property name="building_type" value="empty"/>
    <property name="can_build" type="bool" value="true"/>
    <property name="is_starting_building" type="bool" value="false"/>
   </properties>
  </object>
  <object id="2636" x="497.89" y="672.006" width="14.6589" height="14.6589">
   <properties>
    <property name="building_type" value="empty"/>
    <property name="can_build" type="bool" value="true"/>
    <property name="is_starting_building" type="bool" value="false"/>
   </properties>
  </object>
  <object id="2637" x="513.227" y="623.996" width="14.6589" height="14.6589">
   <properties>
    <property name="building_type" value="empty"/>
    <property name="can_build" type="bool" value="true"/>
    <property name="is_starting_building" type="bool" value="false"/>
   </properties>
  </object>
  <object id="2638" x="513.164" y="639.976" width="14.6589" height="14.6589">
   <properties>
    <property name="building_type" value="empty"/>
    <property name="can_build" type="bool" value="true"/>
    <property name="is_starting_building" type="bool" value="false"/>
   </properties>
  </object>
  <object id="2639" x="529.292" y="624.296" width="14.6589" height="14.6589">
   <properties>
    <property name="building_type" value="empty"/>
    <property name="can_build" type="bool" value="true"/>
    <property name="is_starting_building" type="bool" value="false"/>
   </properties>
  </object>
  <object id="2640" x="529.479" y="640.066" width="14.6589" height="14.6589">
   <properties>
    <property name="building_type" value="empty"/>
    <property name="can_build" type="bool" value="true"/>
    <property name="is_starting_building" type="bool" value="false"/>
   </properties>
  </object>
  <object id="2642" x="545.14" y="639.756" width="14.6589" height="14.6589">
   <properties>
    <property name="building_type" value="empty"/>
    <property name="can_build" type="bool" value="true"/>
    <property name="is_starting_building" type="bool" value="false"/>
   </properties>
  </object>
  <object id="2643" x="497.702" y="624.026" width="14.6589" height="14.6589">
   <properties>
    <property name="building_type" value="empty"/>
    <property name="can_build" type="bool" value="true"/>
    <property name="is_starting_building" type="bool" value="false"/>
   </properties>
  </object>
  <object id="2644" x="497.64" y="640.006" width="14.6589" height="14.6589">
   <properties>
    <property name="building_type" value="empty"/>
    <property name="can_build" type="bool" value="true"/>
    <property name="is_starting_building" type="bool" value="false"/>
   </properties>
  </object>
  <object id="2645" x="512.977" y="592.496" width="14.6589" height="14.6589">
   <properties>
    <property name="building_type" value="empty"/>
    <property name="can_build" type="bool" value="true"/>
    <property name="is_starting_building" type="bool" value="false"/>
   </properties>
  </object>
  <object id="2646" x="512.914" y="608.476" width="14.6589" height="14.6589">
   <properties>
    <property name="building_type" value="empty"/>
    <property name="can_build" type="bool" value="true"/>
    <property name="is_starting_building" type="bool" value="false"/>
   </properties>
  </object>
  <object id="2647" x="529.042" y="592.796" width="14.6589" height="14.6589">
   <properties>
    <property name="building_type" value="empty"/>
    <property name="can_build" type="bool" value="true"/>
    <property name="is_starting_building" type="bool" value="false"/>
   </properties>
  </object>
  <object id="2648" x="529.229" y="608.566" width="14.6589" height="14.6589">
   <properties>
    <property name="building_type" value="empty"/>
    <property name="can_build" type="bool" value="true"/>
    <property name="is_starting_building" type="bool" value="false"/>
   </properties>
  </object>
  <object id="2649" x="544.952" y="592.276" width="14.6589" height="14.6589">
   <properties>
    <property name="building_type" value="empty"/>
    <property name="can_build" type="bool" value="true"/>
    <property name="is_starting_building" type="bool" value="false"/>
   </properties>
  </object>
  <object id="2650" x="544.89" y="608.256" width="14.6589" height="14.6589">
   <properties>
    <property name="building_type" value="empty"/>
    <property name="can_build" type="bool" value="true"/>
    <property name="is_starting_building" type="bool" value="false"/>
   </properties>
  </object>
  <object id="2651" x="497.452" y="592.526" width="14.6589" height="14.6589">
   <properties>
    <property name="building_type" value="empty"/>
    <property name="can_build" type="bool" value="true"/>
    <property name="is_starting_building" type="bool" value="false"/>
   </properties>
  </object>
  <object id="2652" x="497.39" y="608.506" width="14.6589" height="14.6589">
   <properties>
    <property name="building_type" value="empty"/>
    <property name="can_build" type="bool" value="true"/>
    <property name="is_starting_building" type="bool" value="false"/>
   </properties>
  </object>
  <object id="2653" x="577.477" y="592.996" width="14.6589" height="14.6589">
   <properties>
    <property name="building_type" value="empty"/>
    <property name="can_build" type="bool" value="true"/>
    <property name="is_starting_building" type="bool" value="false"/>
   </properties>
  </object>
  <object id="2654" x="577.414" y="608.976" width="14.6589" height="14.6589">
   <properties>
    <property name="building_type" value="empty"/>
    <property name="can_build" type="bool" value="true"/>
    <property name="is_starting_building" type="bool" value="false"/>
   </properties>
  </object>
  <object id="2655" x="593.542" y="593.296" width="14.6589" height="14.6589">
   <properties>
    <property name="building_type" value="empty"/>
    <property name="can_build" type="bool" value="true"/>
    <property name="is_starting_building" type="bool" value="false"/>
   </properties>
  </object>
  <object id="2656" x="593.729" y="609.066" width="14.6589" height="14.6589">
   <properties>
    <property name="building_type" value="empty"/>
    <property name="can_build" type="bool" value="true"/>
    <property name="is_starting_building" type="bool" value="false"/>
   </properties>
  </object>
  <object id="2657" x="609.452" y="592.776" width="14.6589" height="14.6589">
   <properties>
    <property name="building_type" value="empty"/>
    <property name="can_build" type="bool" value="true"/>
    <property name="is_starting_building" type="bool" value="false"/>
   </properties>
  </object>
  <object id="2682" x="625.202" y="592.776" width="14.6589" height="14.6589">
   <properties>
    <property name="building_type" value="empty"/>
    <property name="can_build" type="bool" value="true"/>
    <property name="is_starting_building" type="bool" value="false"/>
   </properties>
  </object>
  <object id="2658" x="609.39" y="608.756" width="14.6589" height="14.6589">
   <properties>
    <property name="building_type" value="empty"/>
    <property name="can_build" type="bool" value="true"/>
    <property name="is_starting_building" type="bool" value="false"/>
   </properties>
  </object>
  <object id="2681" x="625.14" y="608.756" width="14.6589" height="14.6589">
   <properties>
    <property name="building_type" value="empty"/>
    <property name="can_build" type="bool" value="true"/>
    <property name="is_starting_building" type="bool" value="false"/>
   </properties>
  </object>
  <object id="2659" x="561.952" y="593.026" width="14.6589" height="14.6589">
   <properties>
    <property name="building_type" value="empty"/>
    <property name="can_build" type="bool" value="true"/>
    <property name="is_starting_building" type="bool" value="false"/>
   </properties>
  </object>
  <object id="2660" x="561.89" y="609.006" width="14.6589" height="14.6589">
   <properties>
    <property name="building_type" value="empty"/>
    <property name="can_build" type="bool" value="true"/>
    <property name="is_starting_building" type="bool" value="false"/>
   </properties>
  </object>
  <object id="2661" x="576.727" y="623.496" width="14.6589" height="14.6589">
   <properties>
    <property name="building_type" value="empty"/>
    <property name="can_build" type="bool" value="true"/>
    <property name="is_starting_building" type="bool" value="false"/>
   </properties>
  </object>
  <object id="2662" x="576.664" y="639.476" width="14.6589" height="14.6589">
   <properties>
    <property name="building_type" value="empty"/>
    <property name="can_build" type="bool" value="true"/>
    <property name="is_starting_building" type="bool" value="false"/>
   </properties>
  </object>
  <object id="2663" x="592.792" y="623.796" width="14.6589" height="14.6589">
   <properties>
    <property name="building_type" value="empty"/>
    <property name="can_build" type="bool" value="true"/>
    <property name="is_starting_building" type="bool" value="false"/>
   </properties>
  </object>
  <object id="2664" x="592.979" y="639.566" width="14.6589" height="14.6589">
   <properties>
    <property name="building_type" value="empty"/>
    <property name="can_build" type="bool" value="true"/>
    <property name="is_starting_building" type="bool" value="false"/>
   </properties>
  </object>
  <object id="2665" x="608.702" y="623.276" width="14.6589" height="14.6589">
   <properties>
    <property name="building_type" value="empty"/>
    <property name="can_build" type="bool" value="true"/>
    <property name="is_starting_building" type="bool" value="false"/>
   </properties>
  </object>
  <object id="2680" x="624.452" y="623.276" width="14.6589" height="14.6589">
   <properties>
    <property name="building_type" value="empty"/>
    <property name="can_build" type="bool" value="true"/>
    <property name="is_starting_building" type="bool" value="false"/>
   </properties>
  </object>
  <object id="2666" x="608.64" y="639.256" width="14.6589" height="14.6589">
   <properties>
    <property name="building_type" value="empty"/>
    <property name="can_build" type="bool" value="true"/>
    <property name="is_starting_building" type="bool" value="false"/>
   </properties>
  </object>
  <object id="2679" x="624.39" y="639.256" width="14.6589" height="14.6589">
   <properties>
    <property name="building_type" value="empty"/>
    <property name="can_build" type="bool" value="true"/>
    <property name="is_starting_building" type="bool" value="false"/>
   </properties>
  </object>
  <object id="2667" x="561.202" y="623.526" width="14.6589" height="14.6589">
   <properties>
    <property name="building_type" value="empty"/>
    <property name="can_build" type="bool" value="true"/>
    <property name="is_starting_building" type="bool" value="false"/>
   </properties>
  </object>
  <object id="2668" x="561.14" y="639.506" width="14.6589" height="14.6589">
   <properties>
    <property name="building_type" value="empty"/>
    <property name="can_build" type="bool" value="true"/>
    <property name="is_starting_building" type="bool" value="false"/>
   </properties>
  </object>
  <object id="2669" x="577.227" y="655.246" width="14.6589" height="14.6589">
   <properties>
    <property name="building_type" value="empty"/>
    <property name="can_build" type="bool" value="true"/>
    <property name="is_starting_building" type="bool" value="false"/>
   </properties>
  </object>
  <object id="2670" x="577.164" y="671.226" width="14.6589" height="14.6589">
   <properties>
    <property name="building_type" value="empty"/>
    <property name="can_build" type="bool" value="true"/>
    <property name="is_starting_building" type="bool" value="false"/>
   </properties>
  </object>
  <object id="2671" x="593.292" y="655.546" width="14.6589" height="14.6589">
   <properties>
    <property name="building_type" value="empty"/>
    <property name="can_build" type="bool" value="true"/>
    <property name="is_starting_building" type="bool" value="false"/>
   </properties>
  </object>
  <object id="2672" x="593.479" y="671.316" width="14.6589" height="14.6589">
   <properties>
    <property name="building_type" value="empty"/>
    <property name="can_build" type="bool" value="true"/>
    <property name="is_starting_building" type="bool" value="false"/>
   </properties>
  </object>
  <object id="2673" x="609.202" y="655.026" width="14.6589" height="14.6589">
   <properties>
    <property name="building_type" value="empty"/>
    <property name="can_build" type="bool" value="true"/>
    <property name="is_starting_building" type="bool" value="false"/>
   </properties>
  </object>
  <object id="2678" x="624.952" y="655.026" width="14.6589" height="14.6589">
   <properties>
    <property name="building_type" value="empty"/>
    <property name="can_build" type="bool" value="true"/>
    <property name="is_starting_building" type="bool" value="false"/>
   </properties>
  </object>
  <object id="2674" x="609.14" y="671.006" width="14.6589" height="14.6589">
   <properties>
    <property name="building_type" value="empty"/>
    <property name="can_build" type="bool" value="true"/>
    <property name="is_starting_building" type="bool" value="false"/>
   </properties>
  </object>
  <object id="2677" x="624.89" y="671.006" width="14.6589" height="14.6589">
   <properties>
    <property name="building_type" value="empty"/>
    <property name="can_build" type="bool" value="true"/>
    <property name="is_starting_building" type="bool" value="false"/>
   </properties>
  </object>
  <object id="2675" x="561.702" y="655.276" width="14.6589" height="14.6589">
   <properties>
    <property name="building_type" value="empty"/>
    <property name="can_build" type="bool" value="true"/>
    <property name="is_starting_building" type="bool" value="false"/>
   </properties>
  </object>
  <object id="2676" x="561.64" y="671.256" width="14.6589" height="14.6589">
   <properties>
    <property name="building_type" value="empty"/>
    <property name="can_build" type="bool" value="true"/>
    <property name="is_starting_building" type="bool" value="false"/>
   </properties>
  </object>
  <object id="2709" x="49.0195" y="16.1232" width="14.6589" height="14.6589">
   <properties>
    <property name="building_type" value="empty"/>
    <property name="can_build" type="bool" value="true"/>
    <property name="is_starting_building" type="bool" value="false"/>
   </properties>
  </object>
  <object id="2710" x="49.3216" y="0.2179" width="14.6589" height="14.6589">
   <properties>
    <property name="building_type" value="empty"/>
    <property name="can_build" type="bool" value="true"/>
    <property name="is_starting_building" type="bool" value="false"/>
   </properties>
  </object>
  <object id="2711" x="48.0195" y="48.1232" width="14.6589" height="14.6589">
   <properties>
    <property name="building_type" value="empty"/>
    <property name="can_build" type="bool" value="true"/>
    <property name="is_starting_building" type="bool" value="false"/>
   </properties>
  </object>
  <object id="2712" x="48.3216" y="32.2179" width="14.6589" height="14.6589">
   <properties>
    <property name="building_type" value="empty"/>
    <property name="can_build" type="bool" value="true"/>
    <property name="is_starting_building" type="bool" value="false"/>
   </properties>
  </object>
  <object id="2715" x="96.0195" y="193.123" width="14.6589" height="14.6589">
   <properties>
    <property name="building_type" value="empty"/>
    <property name="can_build" type="bool" value="true"/>
    <property name="is_starting_building" type="bool" value="false"/>
   </properties>
  </object>
  <object id="2716" x="96.3216" y="177.218" width="14.6589" height="14.6589">
   <properties>
    <property name="building_type" value="empty"/>
    <property name="can_build" type="bool" value="true"/>
    <property name="is_starting_building" type="bool" value="false"/>
   </properties>
  </object>
  <object id="2719" x="113.671" y="193.171" width="14.6589" height="14.6589">
   <properties>
    <property name="building_type" value="empty"/>
    <property name="can_build" type="bool" value="true"/>
    <property name="is_starting_building" type="bool" value="false"/>
   </properties>
  </object>
  <object id="2720" x="81.1705" y="194.171" width="14.6589" height="14.6589">
   <properties>
    <property name="building_type" value="empty"/>
    <property name="can_build" type="bool" value="true"/>
    <property name="is_starting_building" type="bool" value="false"/>
   </properties>
  </object>
  <object id="2721" x="192.986" y="178.678" width="14.6589" height="14.6589">
   <properties>
    <property name="building_type" value="empty"/>
    <property name="can_build" type="bool" value="true"/>
    <property name="is_starting_building" type="bool" value="false"/>
   </properties>
  </object>
  <object id="2722" x="193.355" y="161.663" width="14.6589" height="14.6589">
   <properties>
    <property name="building_type" value="empty"/>
    <property name="can_build" type="bool" value="true"/>
    <property name="is_starting_building" type="bool" value="false"/>
   </properties>
  </object>
  <object id="2723" x="159.986" y="80.6779" width="14.6589" height="14.6589">
   <properties>
    <property name="building_type" value="empty"/>
    <property name="can_build" type="bool" value="true"/>
    <property name="is_starting_building" type="bool" value="false"/>
   </properties>
  </object>
  <object id="2724" x="160.355" y="63.6632" width="14.6589" height="14.6589">
   <properties>
    <property name="building_type" value="empty"/>
    <property name="can_build" type="bool" value="true"/>
    <property name="is_starting_building" type="bool" value="false"/>
   </properties>
  </object>
  <object id="2725" x="176.986" y="82.1779" width="14.6589" height="14.6589">
   <properties>
    <property name="building_type" value="empty"/>
    <property name="can_build" type="bool" value="true"/>
    <property name="is_starting_building" type="bool" value="false"/>
   </properties>
  </object>
  <object id="2726" x="177.355" y="65.1632" width="14.6589" height="14.6589">
   <properties>
    <property name="building_type" value="empty"/>
    <property name="can_build" type="bool" value="true"/>
    <property name="is_starting_building" type="bool" value="false"/>
   </properties>
  </object>
  <object id="2727" x="240.671" y="160.171" width="14.6589" height="14.6589">
   <properties>
    <property name="building_type" value="empty"/>
    <property name="can_build" type="bool" value="true"/>
    <property name="is_starting_building" type="bool" value="false"/>
   </properties>
  </object>
 </objectgroup>
</map>
